Han-tp28/mjlab/export/vr_m3_1_mode2_csv/walk_forward_amateur_001__A001_idle2s_blend2s/motion_joint_positions_wrists.csv
left_wrist_roll_joint,right_wrist_roll_joint,left_wrist_pitch_joint,right_wrist_pitch_joint,left_wrist_yaw_joint,right_wrist_yaw_joint
-0.190863997,-0.007200000,0.052469000,-0.038513999,-0.185038000,0.014248000
-0.190863997,-0.007200000,0.052469000,-0.038513999,-0.185038000,0.014248000
-0.190863997,-0.007200000,0.052469000,-0.038513999,-0.185038000,0.014248000
-0.190863997,-0.007200000,0.052469000,-0.038513999,-0.185038000,0.014248000
-0.190863997,-0.007200000,0.052469000,-0.038513999,-0.185038000,0.014248000
-0.190863997,-0.007200000,0.052469000,-0.038513999,-0.185038000,0.014248000
-0.190863997,-0.007200000,0.052469000,-0.038513999,-0.185038000,0.014248000
-0.190863997,-0.007200000,0.052469000,-0.038513999,-0.185038000,0.014248000
-0.190863997,-0.007200000,0.052469000,-0.038513999,-0.185038000,0.014248000
-0.190863997,-0.007200000,0.052469000,-0.038513999,-0.185038000,0.014248000
-0.190863997,-0.007200000,0.052469000,-0.038513999,-0.185038000,0.014248000
-0.190863997,-0.007200000,0.052469000,-0.038513999,-0.185038000,0.014248000
-0.190863997,-0.007200000,0.052469000,-0.038513999,-0.185038000,0.014248000
-0.190863997,-0.007200000,0.052469000,-0.038513999,-0.185038000,0.014248000
-0.190863997,-0.007200000,0.052469000,-0.038513999,-0.185038000,0.014248000
-0.190863997,-0.007200000,0.052469000,-0.038513999,-0.185038000,0.014248000
-0.190863997,-0.007200000,0.052469000,-0.038513999,-0.185038000,0.014248000
-0.190863997,-0.007200000,0.052469000,-0.038513999,-0.185038000,0.014248000
-0.190863997,-0.007200000,0.052469000,-0.038513999,-0.185038000,0.014248000
-0.190863997,-0.007200000,0.052469000,-0.038513999,-0.185038000,0.014248000
-0.190863997,-0.007200000,0.052469000,-0.038513999,-0.185038000,0.014248000
-0.190863997,-0.007200000,0.052469000,-0.038513999,-0.185038000,0.014248000
-0.190863997,-0.007200000,0.052469000,-0.038513999,-0.185038000,0.014248000
-0.190863997,-0.007200000,0.052469000,-0.038513999,-0.185038000,0.014248000
-0.190863997,-0.007200000,0.052469000,-0.038513999,-0.185038000,0.014248000
-0.190863997,-0.007200000,0.052469000,-0.038513999,-0.185038000,0.014248000
-0.190863997,-0.007200000,0.052469000,-0.038513999,-0.185038000,0.014248000
-0.190863997,-0.007200000,0.052469000,-0.038513999,-0.185038000,0.014248000
-0.190863997,-0.007200000,0.052469000,-0.038513999,-0.185038000,0.014248000
-0.190863997,-0.007200000,0.052469000,-0.038513999,-0.185038000,0.014248000
-0.190863997,-0.007200000,0.052469000,-0.038513999,-0.185038000,0.014248000
-0.190863997,-0.007200000,0.052469000,-0.038513999,-0.185038000,0.014248000
-0.190863997,-0.007200000,0.052469000,-0.038513999,-0.185038000,0.014248000
-0.190863997,-0.007200000,0.052469000,-0.038513999,-0.185038000,0.014248000
-0.190863997,-0.007200000,0.052469000,-0.038513999,-0.185038000,0.014248000
-0.190863997,-0.007200000,0.052469000,-0.038513999,-0.185038000,0.014248000
-0.190863997,-0.007200000,0.052469000,-0.038513999,-0.185038000,0.014248000
-0.190863997,-0.007200000,0.052469000,-0.038513999,-0.185038000,0.014248000
-0.190863997,-0.007200000,0.052469000,-0.038513999,-0.185038000,0.014248000
-0.190863997,-0.007200000,0.052469000,-0.038513999,-0.185038000,0.014248000
-0.190863997,-0.007200000,0.052469000,-0.038513999,-0.185038000,0.014248000
-0.190863997,-0.007200000,0.052469000,-0.038513999,-0.185038000,0.014248000
-0.190863997,-0.007200000,0.052469000,-0.038513999,-0.185038000,0.014248000
-0.190863997,-0.007200000,0.052469000,-0.038513999,-0.185038000,0.014248000
-0.190863997,-0.007200000,0.052469000,-0.038513999,-0.185038000,0.014248000
-0.190863997,-0.007200000,0.052469000,-0.038513999,-0.185038000,0.014248000
-0.190863997,-0.007200000,0.052469000,-0.038513999,-0.185038000,0.014248000
-0.190863997,-0.007200000,0.052469000,-0.038513999,-0.185038000,0.014248000
-0.190863997,-0.007200000,0.052469000,-0.038513999,-0.185038000,0.014248000
-0.190863997,-0.007200000,0.052469000,-0.038513999,-0.185038000,0.014248000
-0.190863997,-0.007200000,0.052469000,-0.038513999,-0.185038000,0.014248000
-0.190863997,-0.007200000,0.052469000,-0.038513999,-0.185038000,0.014248000
-0.190863997,-0.007200000,0.052469000,-0.038513999,-0.185038000,0.014248000
-0.190863997,-0.007200000,0.052469000,-0.038513999,-0.185038000,0.014248000
-0.190863997,-0.007200000,0.052469000,-0.038513999,-0.185038000,0.014248000
-0.190863997,-0.007200000,0.052469000,-0.038513999,-0.185038000,0.014248000
-0.190863997,-0.007200000,0.052469000,-0.038513999,-0.185038000,0.014248000
-0.190863997,-0.007200000,0.052469000,-0.038513999,-0.185038000,0.014248000
-0.190863997,-0.007200000,0.052469000,-0.038513999,-0.185038000,0.014248000
-0.190863997,-0.007200000,0.052469000,-0.038513999,-0.185038000,0.014248000
-0.190863997,-0.007200000,0.052469000,-0.038513999,-0.185038000,0.014248000
-0.190863997,-0.007200000,0.052469000,-0.038513999,-0.185038000,0.014248000
-0.190863997,-0.007200000,0.052469000,-0.038513999,-0.185038000,0.014248000
-0.190863997,-0.007200000,0.052469000,-0.038513999,-0.185038000,0.014248000
-0.190863997,-0.007200000,0.052469000,-0.038513999,-0.185038000,0.014248000
-0.190863997,-0.007200000,0.052469000,-0.038513999,-0.185038000,0.014248000
-0.190863997,-0.007200000,0.052469000,-0.038513999,-0.185038000,0.014248000
-0.190863997,-0.007200000,0.052469000,-0.038513999,-0.185038000,0.014248000
-0.190863997,-0.007200000,0.052469000,-0.038513999,-0.185038000,0.014248000
-0.190863997,-0.007200000,0.052469000,-0.038513999,-0.185038000,0.014248000
-0.190863997,-0.007200000,0.052469000,-0.038513999,-0.185038000,0.014248000
-0.190863997,-0.007200000,0.052469000,-0.038513999,-0.185038000,0.014248000
-0.190863997,-0.007200000,0.052469000,-0.038513999,-0.185038000,0.014248000
-0.190863997,-0.007200000,0.052469000,-0.038513999,-0.185038000,0.014248000
-0.190863997,-0.007200000,0.052469000,-0.038513999,-0.185038000,0.014248000
-0.190863997,-0.007200000,0.052469000,-0.038513999,-0.185038000,0.014248000
-0.190863997,-0.007200000,0.052469000,-0.038513999,-0.185038000,0.014248000
-0.190863997,-0.007200000,0.052469000,-0.038513999,-0.185038000,0.014248000
-0.190863997,-0.007200000,0.052469000,-0.038513999,-0.185038000,0.014248000
-0.190863997,-0.007200000,0.052469000,-0.038513999,-0.185038000,0.014248000
-0.190863997,-0.007200000,0.052469000,-0.038513999,-0.185038000,0.014248000
-0.190863997,-0.007200000,0.052469000,-0.038513999,-0.185038000,0.014248000
-0.190863997,-0.007200000,0.052469000,-0.038513999,-0.185038000,0.014248000
-0.190863997,-0.007200000,0.052469000,-0.038513999,-0.185038000,0.014248000
-0.190863997,-0.007200000,0.052469000,-0.038513999,-0.185038000,0.014248000
-0.190863997,-0.007200000,0.052469000,-0.038513999,-0.185038000,0.014248000
-0.190863997,-0.007200000,0.052469000,-0.038513999,-0.185038000,0.014248000
-0.190863997,-0.007200000,0.052469000,-0.038513999,-0.185038000,0.014248000
-0.190863997,-0.007200000,0.052469000,-0.038513999,-0.185038000,0.014248000
-0.190863997,-0.007200000,0.052469000,-0.038513999,-0.185038000,0.014248000
-0.190863997,-0.007200000,0.052469000,-0.038513999,-0.185038000,0.014248000
-0.190863997,-0.007200000,0.052469000,-0.038513999,-0.185038000,0.014248000
-0.190863997,-0.007200000,0.052469000,-0.038513999,-0.185038000,0.014248000
-0.190863997,-0.007200000,0.052469000,-0.038513999,-0.185038000,0.014248000
-0.190863997,-0.007200000,0.052469000,-0.038513999,-0.185038000,0.014248000
-0.190863997,-0.007200000,0.052469000,-0.038513999,-0.185038000,0.014248000
-0.190863997,-0.007200000,0.052469000,-0.038513999,-0.185038000,0.014248000
-0.190863997,-0.007200000,0.052469000,-0.038513999,-0.185038000,0.014248000
-0.190863997,-0.007200000,0.052469000,-0.038513999,-0.185038000,0.014248000
-0.190863997,-0.007200000,0.052469000,-0.038513999,-0.185038000,0.014248000
-0.190863997,-0.007200000,0.052469000,-0.038513999,-0.185038000,0.014248000
-0.190863997,-0.007200000,0.052469000,-0.038513999,-0.185038000,0.014248000
-0.190863997,-0.007200000,0.052469000,-0.038513999,-0.185038000,0.014248000
-0.190863997,-0.007200000,0.052469000,-0.038513999,-0.185038000,0.014248000
-0.190863997,-0.007200000,0.052469000,-0.038513999,-0.185038000,0.014248000
-0.190863997,-0.007200000,0.052469000,-0.038513999,-0.185038000,0.014248000
-0.190863997,-0.007200000,0.052469000,-0.038513999,-0.185038000,0.014248000
-0.190863997,-0.007200000,0.052469000,-0.038513999,-0.185038000,0.014248000
-0.190863997,-0.007200000,0.052469000,-0.038513999,-0.185038000,0.014248000
-0.190863997,-0.007200000,0.052469000,-0.038513999,-0.185038000,0.014248000
-0.190863997,-0.007200000,0.052469000,-0.038513999,-0.185038000,0.014248000
-0.190863997,-0.007200000,0.052469000,-0.038513999,-0.185038000,0.014248000
-0.190863997,-0.007200000,0.052469000,-0.038513999,-0.185038000,0.014248000
-0.190863997,-0.007200000,0.052469000,-0.038513999,-0.185038000,0.014248000
-0.190863997,-0.007200000,0.052469000,-0.038513999,-0.185038000,0.014248000
-0.190863997,-0.007200000,0.052469000,-0.038513999,-0.185038000,0.014248000
-0.190863997,-0.007200000,0.052469000,-0.038513999,-0.185038000,0.014248000
-0.190863997,-0.007200000,0.052469000,-0.038513999,-0.185038000,0.014248000
-0.190863997,-0.007200000,0.052469000,-0.038513999,-0.185038000,0.014248000
-0.190863997,-0.007200000,0.052469000,-0.038513999,-0.185038000,0.014248000
-0.190863997,-0.007200000,0.052469000,-0.038513999,-0.185038000,0.014248000
-0.190863997,-0.007200000,0.052469000,-0.038513999,-0.185038000,0.014248000
-0.190863997,-0.007200000,0.052469000,-0.038513999,-0.185038000,0.014248000
-0.190863997,-0.007200000,0.052469000,-0.038513999,-0.185038000,0.014248000
-0.190863997,-0.007200000,0.052469000,-0.038513999,-0.185038000,0.014248000
-0.190863997,-0.007200000,0.052469000,-0.038513999,-0.185038000,0.014248000
-0.190863997,-0.007200000,0.052469000,-0.038513999,-0.185038000,0.014248000
-0.190863997,-0.007200000,0.052469000,-0.038513999,-0.185038000,0.014248000
-0.190863997,-0.007200000,0.052469000,-0.038513999,-0.185038000,0.014248000
-0.190863997,-0.007200000,0.052469000,-0.038513999,-0.185038000,0.014248000
-0.190863997,-0.007200000,0.052469000,-0.038513999,-0.185038000,0.014248000
-0.190863997,-0.007200000,0.052469000,-0.038513999,-0.185038000,0.014248000
-0.190863997,-0.007200000,0.052469000,-0.038513999,-0.185038000,0.014248000
-0.190863997,-0.007200000,0.052469000,-0.038513999,-0.185038000,0.014248000
-0.190863997,-0.007200000,0.052469000,-0.038513999,-0.185038000,0.014248000
-0.190863997,-0.007200000,0.052469000,-0.038513999,-0.185038000,0.014248000
-0.190863997,-0.007200000,0.052469000,-0.038513999,-0.185038000,0.014248000
-0.190863997,-0.007200000,0.052469000,-0.038513999,-0.185038000,0.014248000
-0.190863997,-0.007200000,0.052469000,-0.038513999,-0.185038000,0.014248000
-0.190863997,-0.007200000,0.052469000,-0.038513999,-0.185038000,0.014248000
-0.190863997,-0.007200000,0.052469000,-0.038513999,-0.185038000,0.014248000
-0.190863997,-0.007200000,0.052469000,-0.038513999,-0.185038000,0.014248000
-0.190863997,-0.007200000,0.052469000,-0.038513999,-0.185038000,0.014248000
-0.190863997,-0.007200000,0.052469000,-0.038513999,-0.185038000,0.014248000
-0.190863997,-0.007200000,0.052469000,-0.038513999,-0.185038000,0.014248000
-0.190863997,-0.007200000,0.052469000,-0.038513999,-0.185038000,0.014248000
-0.190863997,-0.007200000,0.052469000,-0.038513999,-0.185038000,0.014248000
-0.190863997,-0.007200000,0.052469000,-0.038513999,-0.185038000,0.014248000
-0.190863997,-0.007200000,0.052469000,-0.038513999,-0.185038000,0.014248000
-0.190863997,-0.007200000,0.052469000,-0.038513999,-0.185038000,0.014248000
-0.190863997,-0.007200000,0.052469000,-0.038513999,-0.185038000,0.014248000
-0.190863997,-0.007200000,0.052469000,-0.038513999,-0.185038000,0.014248000
-0.190863997,-0.007200000,0.052469000,-0.038513999,-0.185038000,0.014248000
-0.190863997,-0.007200000,0.052469000,-0.038513999,-0.185038000,0.014248000
-0.190863997,-0.007200000,0.052469000,-0.038513999,-0.185038000,0.014248000
-0.190863997,-0.007200000,0.052469000,-0.038513999,-0.185038000,0.014248000
-0.190863997,-0.007200000,0.052469000,-0.038513999,-0.185038000,0.014248000
-0.190863997,-0.007200000,0.052469000,-0.038513999,-0.185038000,0.014248000
-0.190863997,-0.007200000,0.052469000,-0.038513999,-0.185038000,0.014248000
-0.190863997,-0.007200000,0.052469000,-0.038513999,-0.185038000,0.014248000
-0.190863997,-0.007200000,0.052469000,-0.038513999,-0.185038000,0.014248000
-0.190863997,-0.007200000,0.052469000,-0.038513999,-0.185038000,0.014248000
-0.190863997,-0.007200000,0.052469000,-0.038513999,-0.185038000,0.014248000
-0.190863997,-0.007200000,0.052469000,-0.038513999,-0.185038000,0.014248000
-0.190863997,-0.007200000,0.052469000,-0.038513999,-0.185038000,0.014248000
-0.190863997,-0.007200000,0.052469000,-0.038513999,-0.185038000,0.014248000
-0.190863997,-0.007200000,0.052469000,-0.038513999,-0.185038000,0.014248000
-0.190863997,-0.007200000,0.052469000,-0.038513999,-0.185038000,0.014248000
-0.190863997,-0.007200000,0.052469000,-0.038513999,-0.185038000,0.014248000
-0.190863997,-0.007200000,0.052469000,-0.038513999,-0.185038000,0.014248000
-0.190863997,-0.007200000,0.052469000,-0.038513999,-0.185038000,0.014248000
-0.190863997,-0.007200000,0.052469000,-0.038513999,-0.185038000,0.014248000
-0.190863997,-0.007200000,0.052469000,-0.038513999,-0.185038000,0.014248000
-0.190863997,-0.007200000,0.052469000,-0.038513999,-0.185038000,0.014248000
-0.190863997,-0.007200000,0.052469000,-0.038513999,-0.185038000,0.014248000
-0.190863997,-0.007200000,0.052469000,-0.038513999,-0.185038000,0.014248000
-0.190863997,-0.007200000,0.052469000,-0.038513999,-0.185038000,0.014248000
-0.190863997,-0.007200000,0.052469000,-0.038513999,-0.185038000,0.014248000
-0.190863997,-0.007200000,0.052469000,-0.038513999,-0.185038000,0.014248000
-0.190863997,-0.007200000,0.052469000,-0.038513999,-0.185038000,0.014248000
-0.190863997,-0.007200000,0.052469000,-0.038513999,-0.185038000,0.014248000
-0.190863997,-0.007200000,0.052469000,-0.038513999,-0.185038000,0.014248000
-0.190863997,-0.007200000,0.052469000,-0.038513999,-0.185038000,0.014248000
-0.190863997,-0.007200000,0.052469000,-0.038513999,-0.185038000,0.014248000
-0.190863997,-0.007200000,0.052469000,-0.038513999,-0.185038000,0.014248000
-0.190863997,-0.007200000,0.052469000,-0.038513999,-0.185038000,0.014248000
-0.190863997,-0.007200000,0.052469000,-0.038513999,-0.185038000,0.014248000
-0.190863997,-0.007200000,0.052469000,-0.038513999,-0.185038000,0.014248000
-0.190863997,-0.007200000,0.052469000,-0.038513999,-0.185038000,0.014248000
-0.190863997,-0.007200000,0.052469000,-0.038513999,-0.185038000,0.014248000
-0.190863997,-0.007200000,0.052469000,-0.038513999,-0.185038000,0.014248000
-0.190863997,-0.007200000,0.052469000,-0.038513999,-0.185038000,0.014248000
-0.190863997,-0.007200000,0.052469000,-0.038513999,-0.185038000,0.014248000
-0.190863997,-0.007200000,0.052469000,-0.038513999,-0.185038000,0.014248000
-0.190863997,-0.007200000,0.052469000,-0.038513999,-0.185038000,0.014248000
-0.190863997,-0.007200000,0.052469000,-0.038513999,-0.185038000,0.014248000
-0.190863997,-0.007200000,0.052469000,-0.038513999,-0.185038000,0.014248000
-0.190863997,-0.007200000,0.052469000,-0.038513999,-0.185038000,0.014248000
-0.190863997,-0.007200000,0.052469000,-0.038513999,-0.185038000,0.014248000
-0.190863997,-0.007200000,0.052469000,-0.038513999,-0.185038000,0.014248000
-0.190863997,-0.007200000,0.052469000,-0.038513999,-0.185038000,0.014248000
-0.190859392,-0.007200000,0.052467003,-0.038513198,-0.185038000,0.014247600
-0.190848589,-0.007200800,0.052461199,-0.038511999,-0.185038000,0.014246000
-0.190804407,-0.007208200,0.052436002,-0.038506798,-0.185037002,0.014234601
-0.190788001,-0.007211600,0.052421801,-0.038504999,-0.185038000,0.014227599
-0.190779999,-0.007214000,0.052406002,-0.038504001,-0.185039997,0.014220000
-0.190756798,-0.007218000,0.052363198,-0.038504802,-0.185053200,0.014199800
-0.190724805,-0.007222800,0.052316800,-0.038506802,-0.185072199,0.014177800
-0.190686807,-0.007219800,0.052265402,-0.038510598,-0.185104191,0.014154000
-0.190601200,-0.007202800,0.052154601,-0.038522199,-0.185177997,0.014098000
-0.190548003,-0.007189000,0.052103002,-0.038530000,-0.185203001,0.014066000
-0.190514803,-0.007178199,0.052072600,-0.038531002,-0.185209811,0.014044600
-0.183801785,-0.007764001,0.045408189,-0.035923395,-0.187998012,0.006379589
-0.182136402,-0.007913200,0.043740202,-0.035273202,-0.188706607,0.004471200
-0.182141811,-0.007901400,0.043692399,-0.035275001,-0.188750803,0.004473600
-0.182150006,-0.007884000,0.043639999,-0.035273001,-0.188789994,0.004479000
-0.182156801,-0.007851000,0.043575197,-0.035271000,-0.188842803,0.004490000
-0.183801994,-0.003077000,0.031927001,-0.036566000,-0.199092001,0.006738000
-0.183809802,-0.003072400,0.031925797,-0.036562603,-0.199097589,0.006742600
-0.183816001,-0.003060800,0.031922199,-0.036554597,-0.199099198,0.006752000
-0.183809996,-0.003043000,0.031916998,-0.036545001,-0.199089006,0.006762000
-0.183797002,-0.003015600,0.031915400,-0.036526799,-0.199081808,0.006772600
-0.183787003,-0.002979400,0.031918600,-0.036497600,-0.199095815,0.006781200
-0.183788002,-0.002952400,0.031918000,-0.036476400,-0.199110597,0.006784000
-0.183795005,-0.002910400,0.031907000,-0.036444400,-0.199129000,0.006782000
-0.183789000,-0.002892000,0.031897001,-0.036433000,-0.199122995,0.006778000
-0.183780804,-0.002870000,0.031876199,-0.036422800,-0.199112996,0.006770000
-0.183777198,-0.002853400,0.031850800,-0.036419198,-0.199105591,0.006761800
-0.183774978,-0.002839600,0.031814396,-0.036420200,-0.199094594,0.006752800
-0.183776617,-0.002833400,0.031788800,-0.036424197,-0.199090004,0.006747400
-0.183780998,-0.002827000,0.031769000,-0.036431000,-0.199094996,0.006741000
-0.183788002,-0.002818400,0.031747200,-0.036436800,-0.199105397,0.006735200
-0.183799982,-0.002807000,0.031716600,-0.036442399,-0.199122608,0.006731200
-0.183805615,-0.002801600,0.031699397,-0.036446601,-0.199130595,0.006732200
-0.183810592,-0.002796400,0.031673998,-0.036453199,-0.199139804,0.006735200
-0.180766016,-0.003438995,0.031097006,-0.033379026,-0.196331009,0.010270973
-0.180765599,-0.003439000,0.031097002,-0.033379000,-0.196330607,0.010272000
-0.180762410,-0.003437200,0.031096000,-0.033376202,-0.196328998,0.010273799
-0.180752188,-0.003436000,0.031094801,-0.033371598,-0.196335793,0.010280799
-0.180744588,-0.003436000,0.031089999,-0.033368401,-0.196341798,0.010289000
-0.180740997,-0.003435000,0.031082001,-0.033367999,-0.196343005,0.010295000
-0.180738598,-0.003435400,0.031074401,-0.033366200,-0.196339399,0.010300600
-0.180731192,-0.003440000,0.031057201,-0.033355203,-0.196320191,0.010317600
-0.180730015,-0.003440000,0.031054800,-0.033350799,-0.196318194,0.010321200
-0.180729404,-0.003440000,0.031052399,-0.033347402,-0.196322799,0.010324599
-0.180726007,-0.003444000,0.031036001,-0.033335000,-0.196355000,0.010342000
-0.180723995,-0.003446400,0.031023599,-0.033327602,-0.196377203,0.010352800
-0.180723995,-0.003447000,0.031018600,-0.033324398,-0.196384400,0.010357399
-0.180724397,-0.003447400,0.031013601,-0.033320002,-0.196385980,0.010361800
-0.180728614,-0.003450000,0.031000398,-0.033311397,-0.196387604,0.010370599
-0.180729002,-0.003450000,0.030998999,-0.033310998,-0.196389005,0.010371000
-0.180738002,-0.003448000,0.030995000,-0.033309001,-0.196391612,0.010375399
-0.180748001,-0.003448000,0.030991400,-0.033308201,-0.196384609,0.010380400
-0.180759996,-0.003449200,0.030985400,-0.033306800,-0.196383595,0.010388800
-0.180772603,-0.003451000,0.030979801,-0.033305399,-0.196390212,0.010397400
-0.180782005,-0.003451000,0.030978000,-0.033305001,-0.196392998,0.010403000
-0.180801004,-0.003451000,0.030975997,-0.033305999,-0.196393996,0.010414000
-0.180810988,-0.003452800,0.030974202,-0.033307798,-0.196389616,0.010424000
-0.180823594,-0.003453000,0.030970000,-0.033312201,-0.196380600,0.010439800
-0.180829197,-0.003453000,0.030968400,-0.033314001,-0.196375191,0.010447200
-0.180836007,-0.003454000,0.030965000,-0.033316001,-0.196365997,0.010457000
-0.180833608,-0.003454400,0.030962000,-0.033316799,-0.196368814,0.010461600
-0.177681997,-0.004993000,0.029591000,-0.032575998,-0.204302996,0.016217999
-0.177679002,-0.004998200,0.029624799,-0.032572798,-0.204288200,0.016214600
-0.177679002,-0.005000000,0.029635601,-0.032570999,-0.204282403,0.016213000
-0.177680001,-0.005002000,0.029635999,-0.032570001,-0.204281002,0.016213000
-0.177680001,-0.005002000,0.029635999,-0.032570001,-0.204281002,0.016213000
-0.177680999,-0.005002000,0.029637000,-0.032569200,-0.204285592,0.016213000
-0.177688003,-0.005000200,0.029649001,-0.032554600,-0.204342797,0.016220199
-0.177686006,-0.004994000,0.029667001,-0.032527000,-0.204449996,0.016235000
-0.167147994,-0.005078000,0.027927000,-0.031060001,-0.219207004,0.017476000
-0.167151809,-0.005079800,0.027927801,-0.031060401,-0.219207600,0.017476801
-0.167186797,-0.005087200,0.027936801,-0.031064400,-0.219202593,0.017482400
-0.180784404,-0.007347800,0.031130198,-0.032065999,-0.216759995,0.018106801
-0.180794194,-0.007344800,0.031132599,-0.032065999,-0.216762200,0.018105401
-0.180836007,-0.007325000,0.031138999,-0.032063998,-0.216774002,0.018095000
-0.180846602,-0.007315000,0.031139599,-0.032063000,-0.216766402,0.018086601
-0.188253999,-0.003347000,0.030772001,-0.030525001,-0.202912003,0.011131000
-0.188253805,-0.003344000,0.030771600,-0.030530199,-0.202913001,0.011128200
-0.185048997,-0.001168400,0.030163400,-0.034364000,-0.198727787,0.002947800
-0.184354007,-0.001001000,0.028069999,-0.033858001,-0.185698003,-0.004810000
-0.186370403,-0.000537000,0.023173600,-0.035096399,-0.180115998,-0.013504400
-0.190012410,0.000984800,0.020134199,-0.036977597,-0.181122214,-0.018847801
-0.201793164,0.006344984,0.021967992,-0.039528992,-0.176561221,-0.024892189
-0.213245958,0.014031548,0.023361407,-0.042236984,-0.175422162,-0.028554991
-0.217118964,0.022076912,0.021561023,-0.044070981,-0.182391912,-0.027932014
-0.218009204,0.028695542,0.021848390,-0.043816805,-0.189582333,-0.026674218
-0.222522557,0.031902201,0.022555199,-0.043871596,-0.198749542,-0.024191614
-0.233861059,0.024218962,0.018981772,-0.045129202,-0.198120952,-0.033208873
-0.241016209,0.018316593,0.013612594,-0.044715796,-0.185711384,-0.045610212
-0.246711999,0.019213000,0.014284000,-0.043370999,-0.188380003,-0.043414999
-0.253474593,0.023193384,0.011984404,-0.042596199,-0.179572612,-0.049475193
-0.259625554,0.030050362,0.011430400,-0.041977808,-0.176590800,-0.052379780
-0.263622999,0.037775591,0.012213798,-0.040993001,-0.177262202,-0.056599192
-0.270266593,0.041484393,0.015341383,-0.042302992,-0.173948020,-0.061370380
-0.278090984,0.041873999,0.019551976,-0.044249993,-0.168539032,-0.067289956
-0.283268809,0.040258192,0.021916609,-0.042525187,-0.167172611,-0.074788831
-0.288516611,0.038289398,0.023952002,-0.039228395,-0.163747191,-0.083801217
-0.294568777,0.036697600,0.025913198,-0.034874603,-0.155793607,-0.094429389
-0.298665583,0.034483209,0.027918393,-0.032340605,-0.151916593,-0.103678167
-0.300312012,0.030409999,0.031041000,-0.030010000,-0.149840996,-0.111129999
-0.297766626,0.019691229,0.039117381,-0.022695621,-0.143404216,-0.115907982
-0.293702811,0.011540024,0.045403577,-0.017570810,-0.137161434,-0.119095378
-0.289066225,0.009401631,0.047249787,-0.017404012,-0.132648230,-0.121387184
-0.285730988,0.002420775,0.049764406,-0.014284788,-0.127764389,-0.122067004
-0.282575995,-0.006683000,0.052806001,-0.008787000,-0.121839002,-0.122686997
-0.276885211,-0.011039192,0.056675188,-0.001351019,-0.111693829,-0.128812775
-0.268192440,-0.015616370,0.057083614,0.003740786,-0.104783818,-0.132776201
-0.255885869,-0.022007357,0.052181613,0.004560188,-0.103887253,-0.131411001
-0.244961977,-0.026882209,0.054093413,0.007913613,-0.089638948,-0.130856007
-0.237311006,-0.030166000,0.059620000,0.011626000,-0.066698998,-0.130654007
-0.238441199,-0.030947000,0.060501803,0.009436809,-0.045293652,-0.128653809
-0.240897804,-0.033239376,0.059650805,0.007020607,-0.025509095,-0.127712801
-0.241735414,-0.038683202,0.057644792,0.006358399,-0.007985508,-0.129160821
-0.244456410,-0.033537172,0.056110397,0.006840602,0.011017051,-0.134714410
-0.248597994,-0.022516999,0.054191001,0.006986000,0.030305000,-0.141438007
-0.252536982,-0.015787613,0.049050212,0.003022213,0.046868958,-0.142019600
-0.255942583,-0.015596377,0.044874012,-0.001433980,0.064187907,-0.139114827
-0.258849204,-0.023654575,0.043279018,-0.005223769,0.083271086,-0.133115649
-0.260492384,-0.019988105,0.039297856,-0.009583553,0.093989141,-0.128681839
-0.260578007,-0.010373000,0.034401000,-0.014282000,0.100400001,-0.124011002
-0.258319795,-0.009366798,0.031858403,-0.018303189,0.112752765,-0.114643030
-0.255189151,-0.008894791,0.032128215,-0.024797063,0.124956280,-0.100831278
-0.251623809,-0.006126760,0.035678811,-0.035055250,0.135103032,-0.081846081
-0.249790400,0.008556255,0.035199389,-0.044613224,0.139238805,-0.052426510
-0.248519003,0.026702000,0.033034999,-0.051851001,0.138607994,-0.017739000
-0.245047361,0.025817145,0.035049833,-0.053876806,0.135779962,0.009460059
-0.240415767,0.023809012,0.039116234,-0.055106811,0.129639745,0.035753008
-0.234914169,0.026357796,0.044840429,-0.056815211,0.119675137,0.062909931
-0.230813786,0.020535372,0.050900016,-0.059401207,0.105538160,0.085860454
-0.227882996,0.011981000,0.056127001,-0.061577000,0.089763999,0.106188998
-0.225106999,0.013723386,0.056994200,-0.058109809,0.079105228,0.126649544
-0.223191023,0.022819331,0.057124797,-0.057134587,0.068425454,0.150714070
-0.221379176,0.039108124,0.057833992,-0.061569571,0.055853922,0.180463955
-0.234547570,0.038937107,0.059117384,-0.064230785,0.040046159,0.211689681
-0.257999003,0.030537000,0.063366003,-0.066408001,0.012223000,0.243368998
-0.279562771,0.033452190,0.077699557,-0.070453189,-0.051688202,0.275692523
-0.297535330,0.030267408,0.096374698,-0.071675606,-0.140545279,0.298946321
-0.310114324,0.025912052,0.117253840,-0.068701021,-0.251911491,0.308016568
-0.316096365,0.016791780,0.138544187,-0.067446806,-0.323905647,0.306153685
-0.314938068,0.003487142,0.156618804,-0.066864014,-0.361621648,0.299192101
-0.299397618,0.002483620,0.163877428,-0.064143173,-0.367724955,0.300921232
-0.286673129,0.003116051,0.163549975,-0.063933216,-0.375977516,0.302433193
-0.283601195,0.008290009,0.156044558,-0.068183616,-0.400916696,0.300758362
-0.281456590,0.009454204,0.150005579,-0.069981799,-0.416662633,0.290927947
-0.278241009,0.008486000,0.145567998,-0.069985002,-0.419988990,0.271779001
-0.270309806,-0.000867767,0.143145010,-0.069551207,-0.403175890,0.239838898
-0.254206300,-0.019158678,0.142074198,-0.067170821,-0.366515249,0.195411265
-0.227641627,-0.048225906,0.142943799,-0.061225146,-0.308124840,0.137887686
-0.187097490,-0.059078202,0.141430393,-0.044550743,-0.227529377,0.077993244
-0.137790993,-0.057842001,0.141788006,-0.024868000,-0.131915003,0.018825000
-0.088113122,-0.061696190,0.150352180,-0.018899007,-0.034002248,-0.033170078
-0.050214551,-0.062321015,0.160135567,-0.014140234,0.058528945,-0.075038016
-0.029943297,-0.056836471,0.166252971,-0.006976238,0.140621513,-0.104118228
-0.022032425,-0.042664796,0.169375181,-0.004619998,0.192254424,-0.125269026
-0.024211941,-0.027035149,0.168836012,-0.005833982,0.218760729,-0.138221875
-0.036357969,-0.028661920,0.164037287,-0.008104165,0.228471160,-0.139480442
-0.049241684,-0.028598957,0.159878969,-0.008640990,0.227236167,-0.137363583
-0.058676224,-0.020033976,0.158670396,-0.005969390,0.217772931,-0.134932384
-0.059421390,-0.020555215,0.156808794,-0.004937000,0.203466564,-0.133420601
-0.055018000,-0.026412001,0.154523000,-0.005431000,0.189304993,-0.132645994
-0.053879790,-0.028434813,0.153075993,-0.007634825,0.188384026,-0.131824404
-0.051366769,-0.028588794,0.150887981,-0.008945001,0.189181805,-0.133031219
-0.046143174,-0.026924588,0.147400394,-0.008247999,0.187983990,-0.137178212
-0.039387979,-0.023814589,0.148806617,-0.008772204,0.189251214,-0.140235201
-0.033470001,-0.020950999,0.151889995,-0.009636000,0.190614000,-0.142199993
-0.036503188,-0.024158590,0.147689611,-0.008021405,0.185484618,-0.142736405
-0.039620794,-0.026400801,0.144727007,-0.007766193,0.180860415,-0.143126801
-0.039705805,-0.024562003,0.146056384,-0.010218589,0.179082423,-0.143609196
-0.038104221,-0.025827769,0.147159189,-0.010494810,0.176247627,-0.142875224
-0.035347033,-0.029104959,0.147946984,-0.009560009,0.172278062,-0.141425014
-0.031677052,-0.033141140,0.148216009,-0.009728191,0.165983707,-0.140768811
-0.029888595,-0.037267726,0.148322389,-0.010758772,0.163380772,-0.139456034
-0.031252809,-0.041936364,0.148388594,-0.012726793,0.167035997,-0.136984423
-0.025980493,-0.045998763,0.150092572,-0.012316818,0.163487673,-0.134451628
-0.018360998,-0.047926962,0.151923984,-0.010784001,0.155793935,-0.132047981
-0.020118434,-0.043599345,0.149406970,-0.011214610,0.151627362,-0.130580783
-0.021100987,-0.040828198,0.148129612,-0.012456212,0.148408592,-0.128650978
-0.017324593,-0.043349009,0.150188208,-0.014194402,0.145597383,-0.125677198
-0.018734811,-0.043493994,0.151241004,-0.012651591,0.145909607,-0.125821203
-0.022883000,-0.042266998,0.151610002,-0.009637000,0.147851005,-0.127643004
-0.022496004,-0.044351995,0.152355805,-0.009725597,0.147362798,-0.128129005
-0.023519183,-0.044995010,0.152225003,-0.010702195,0.148520172,-0.127263814
-0.028286574,-0.041227411,0.150684610,-0.011984399,0.152895167,-0.124912411
-0.029051419,-0.041368183,0.149499804,-0.010693029,0.153921619,-0.125047788
-0.027975000,-0.043108974,0.149382979,-0.008281023,0.154017985,-0.126612991
-0.031942189,-0.043825798,0.152746201,-0.008471398,0.160446376,-0.126782805
-0.034710594,-0.043235604,0.155008197,-0.009141398,0.165291995,-0.127158195
-0.034056205,-0.042395607,0.154406413,-0.009661396,0.165562212,-0.128121391
-0.034042001,-0.041553609,0.153895006,-0.009983398,0.165551007,-0.127585217
-0.035218973,-0.040393017,0.152984023,-0.010163997,0.165524006,-0.126337022
-0.040470652,-0.037210561,0.149139166,-0.010561204,0.166782826,-0.126827419
-0.041018564,-0.035818607,0.148226619,-0.010729000,0.165953979,-0.127265409
-0.033131577,-0.036815803,0.152598217,-0.010526199,0.161717400,-0.127143398
-0.031989008,-0.036974799,0.154173404,-0.010301599,0.160907999,-0.127278402
-0.035172999,-0.036442000,0.153288007,-0.010245000,0.162386000,-0.127446994
-0.037864394,-0.038560998,0.149551198,-0.011220397,0.163786590,-0.126739606
-0.039627995,-0.039898992,0.148362190,-0.011034608,0.164354593,-0.126703203
-0.039608188,-0.038673609,0.152033791,-0.008808412,0.163523212,-0.127855197
-0.042963814,-0.039041404,0.150923997,-0.008133001,0.163279608,-0.128016204
-0.047021002,-0.039172001,0.147563994,-0.008883000,0.163105994,-0.127103999
-0.047442000,-0.041900188,0.148238391,-0.011192194,0.162459001,-0.124648809
-0.045971006,-0.042384602,0.149399593,-0.012419800,0.161062211,-0.123573393
-0.043522608,-0.040215768,0.149943396,-0.011412005,0.158900425,-0.125134587
-0.044111572,-0.042424373,0.149923608,-0.011533592,0.157614410,-0.125028208
-0.046228983,-0.044468984,0.149711996,-0.012547987,0.157067999,-0.124034010
-0.045610018,-0.042748839,0.150410384,-0.013891378,0.156555206,-0.123973206
-0.044458598,-0.041631207,0.150767207,-0.014801204,0.156462401,-0.123908594
-0.043387394,-0.042760801,0.150337800,-0.014876999,0.156919807,-0.123567000
-0.041814197,-0.041139390,0.150581405,-0.014585000,0.156407207,-0.124274604
-0.040716000,-0.038275000,0.151418999,-0.013947000,0.156113997,-0.125593007
-0.043091394,-0.038113598,0.152414188,-0.013004202,0.159470588,-0.126302198
-0.045129593,-0.038316801,0.153257206,-0.012429001,0.163019180,-0.126493201
-0.045641601,-0.038157400,0.153774798,-0.012511800,0.165469989,-0.126010597
-0.044896416,-0.037635606,0.153500810,-0.012168006,0.165292621,-0.126167804
-0.043977007,-0.036931016,0.152738020,-0.011414022,0.163824037,-0.126807988
-0.046400353,-0.037552383,0.152295008,-0.010593211,0.165240765,-0.127619192
-0.047572821,-0.038860351,0.151958004,-0.010022009,0.166506588,-0.128403187
-0.045896001,-0.040490799,0.151702195,-0.009873798,0.166612804,-0.128967404
-0.048760884,-0.039342556,0.150514573,-0.009702997,0.167167217,-0.129277200
-0.052956000,-0.036506999,0.149251997,-0.009601000,0.167850003,-0.129338995
-0.050056957,-0.036901399,0.150401607,-0.009664403,0.168187201,-0.129295006
-0.046761613,-0.037322994,0.151124194,-0.010450592,0.166698605,-0.128800809
-0.044798389,-0.041552782,0.150391996,-0.012133206,0.162556589,-0.127586186
-0.043011416,-0.038501833,0.150583595,-0.013099194,0.161267608,-0.127451792
-0.041723002,-0.037388999,0.151363999,-0.013009000,0.161776006,-0.128119007
-0.041140996,-0.038119100,0.151986599,-0.010827573,0.161106199,-0.129059806
-0.041775394,-0.040325571,0.152579203,-0.009352602,0.160920396,-0.129709795
-0.043859608,-0.041124038,0.153080598,-0.009828402,0.161742195,-0.129862189
-0.045313984,-0.043092780,0.152633607,-0.010145797,0.161890000,-0.129700810
-0.045917001,-0.045639999,0.151850000,-0.010235000,0.161704004,-0.129296005
-0.045732014,-0.041234024,0.152290985,-0.009683210,0.161993384,-0.128914207
-0.043873616,-0.040820599,0.153415799,-0.009615997,0.163235590,-0.128636003
-0.040386189,-0.041794203,0.155062392,-0.010705604,0.165777013,-0.128670394
-0.039512597,-0.044133518,0.154832214,-0.011272998,0.164278835,-0.128822207
-0.041152000,-0.042052999,0.153014004,-0.011304000,0.160862997,-0.129199997
-0.045459729,-0.042496227,0.149318859,-0.010186623,0.160436183,-0.129787996
-0.047516599,-0.043254353,0.147831798,-0.009636400,0.161477596,-0.129953802
-0.045051664,-0.041681934,0.150386751,-0.010394795,0.163740188,-0.129378811
-0.041812833,-0.042952280,0.151950181,-0.010390203,0.163043618,-0.129600406
-0.039475001,-0.043116000,0.152365997,-0.009970000,0.161008000,-0.130413994
-0.042178359,-0.041274216,0.151057824,-0.009727202,0.161750987,-0.130994797
-0.044042602,-0.039823245,0.149971604,-0.010385193,0.162461013,-0.130887210
-0.042919431,-0.037191350,0.150028199,-0.012266187,0.162279993,-0.130051196
-0.040926766,-0.037809841,0.151116833,-0.011435164,0.162548020,-0.130669221
-0.039666001,-0.039113000,0.152625993,-0.009490000,0.163411006,-0.131953001
-0.042277232,-0.038950793,0.153431401,-0.010408416,0.165321812,-0.131843597
-0.045040645,-0.037911206,0.152569354,-0.011753023,0.166310996,-0.130852774
-0.046660412,-0.038045608,0.149471179,-0.012751602,0.165464610,-0.128996998
-0.048562840,-0.038753837,0.147466779,-0.012401983,0.165224209,-0.129507229
-0.050409000,-0.037741002,0.146384001,-0.011480000,0.165435001,-0.131208003
-0.052395213,-0.038089383,0.145785391,-0.011763206,0.166155994,-0.130846396
-0.049674265,-0.036775500,0.145927221,-0.012194205,0.164233297,-0.130619600
-0.040614970,-0.035628594,0.146896407,-0.012354202,0.158294365,-0.131309003
-0.039966863,-0.037452675,0.147282794,-0.012629005,0.157570839,-0.130654365
-0.043871999,-0.039452001,0.147438005,-0.012857000,0.160071999,-0.129563004
-0.043126583,-0.038660780,0.147688210,-0.012427394,0.160776198,-0.130402029
-0.039496031,-0.037028603,0.150892362,-0.012113000,0.161753386,-0.130921602
-0.032852978,-0.040312413,0.158319220,-0.012072800,0.163476020,-0.130288392
-0.031247981,-0.040090606,0.159211025,-0.011540408,0.165067375,-0.130925193
-0.033659000,-0.037583001,0.156115994,-0.010958000,0.166599005,-0.132121995
-0.037800740,-0.039125971,0.155315012,-0.011594787,0.168959558,-0.132148206
-0.040040795,-0.039765600,0.154276013,-0.011691203,0.168974206,-0.132176802
-0.039498225,-0.040252220,0.152320832,-0.010570213,0.165409088,-0.132678807
-0.038271412,-0.040453985,0.151170209,-0.010550794,0.162266016,-0.132750809
-0.038019001,-0.041820999,0.150271997,-0.011012000,0.160246000,-0.132772997
-0.045229681,-0.040578462,0.147720248,-0.010258814,0.162914336,-0.134013176
-0.047692221,-0.039794602,0.148354977,-0.009601802,0.165775776,-0.134514391
-0.040382482,-0.040490158,0.154246330,-0.009499002,0.167145371,-0.133449823
-0.041863903,-0.040134154,0.153778329,-0.009254394,0.167712808,-0.132980585
-0.047540002,-0.038428999,0.149683997,-0.009172000,0.167676002,-0.133150995
-0.044743158,-0.038565204,0.148187995,-0.010249212,0.167337596,-0.134170413
-0.042004004,-0.039388794,0.148825988,-0.010860201,0.166932404,-0.135088801
-0.041697592,-0.041789599,0.151958212,-0.010359601,0.166704208,-0.135367796
-0.039002843,-0.040959619,0.154237792,-0.011061186,0.168196768,-0.135907590
-0.035843000,-0.038865000,0.155015007,-0.012756000,0.170021996,-0.136389002
-0.038371146,-0.037205823,0.151937470,-0.015645154,0.168052047,-0.135504410
-0.040417794,-0.037109599,0.150049001,-0.016885201,0.166017413,-0.135229588
-0.040332381,-0.038919386,0.151633784,-0.014952037,0.165220410,-0.136564985
-0.043135352,-0.038051028,0.151327819,-0.012716630,0.165926367,-0.137502193
-0.046181962,-0.035921052,0.150239021,-0.011009021,0.167141974,-0.137624994
-0.041711688,-0.034461625,0.151769370,-0.012774164,0.166437626,-0.135001048
-0.037987761,-0.033005979,0.152372181,-0.013364572,0.164749563,-0.134119630
-0.037392404,-0.031795993,0.150709182,-0.010935596,0.162211001,-0.136726409
-0.039394055,-0.031825420,0.149854392,-0.012678465,0.163899451,-0.135776162
-0.042709999,-0.033064999,0.149608001,-0.015854999,0.167409003,-0.133379996
-0.042454991,-0.036015227,0.149663806,-0.012476356,0.165891781,-0.135413617
-0.043112986,-0.037933189,0.149088606,-0.011233792,0.165641382,-0.135595411
-0.046204209,-0.038203593,0.147444397,-0.015184414,0.168737814,-0.131656587
-0.045537628,-0.036470626,0.148176789,-0.015413219,0.169786006,-0.131757975
-0.042764001,-0.034341000,0.150016993,-0.013681000,0.169111997,-0.133708999
-0.043604583,-0.033836402,0.148556828,-0.015442763,0.167263836,-0.130860448
-0.043226410,-0.034277197,0.148076400,-0.016838796,0.166334406,-0.128822401
-0.040167473,-0.035524189,0.150011152,-0.016662616,0.167252377,-0.129396796
-0.037491817,-0.033165254,0.151910782,-0.015290020,0.168788180,-0.128933415
-0.036113001,-0.029252000,0.152888000,-0.013681000,0.170322001,-0.127511993
-0.038827635,-0.033237252,0.150762767,-0.013923207,0.170351982,-0.124831378
-0.039503612,-0.036063604,0.151783973,-0.014779595,0.170934603,-0.123034008
-0.035306986,-0.033339385,0.158503830,-0.015894802,0.172743604,-0.123253800
-0.033470005,-0.031132214,0.159252435,-0.015902206,0.170899838,-0.123839393
-0.033307999,-0.029988000,0.157339007,-0.015186000,0.168172002,-0.124563999
-0.033577807,-0.030651014,0.161959648,-0.014401193,0.172400057,-0.125206411
-0.034763593,-0.031991191,0.164702982,-0.014019201,0.176460192,-0.125663787
-0.037506204,-0.033144400,0.162606195,-0.014304200,0.177948207,-0.125896990
-0.036140237,-0.032460619,0.161295012,-0.013956408,0.176168635,-0.126105994
-0.033050001,-0.030716000,0.160675004,-0.013464000,0.172849000,-0.126053005
-0.033925772,-0.030369997,0.160337389,-0.014122186,0.171803206,-0.124859214
-0.035570595,-0.030848196,0.160768792,-0.015230194,0.172081798,-0.123896599
-0.036704168,-0.032001399,0.162155390,-0.016547581,0.173613191,-0.123805597
-0.038218383,-0.031723212,0.161095023,-0.017052799,0.173742011,-0.123866603
-0.039902970,-0.031023003,0.158832043,-0.016897006,0.173036009,-0.124021001
-0.041597992,-0.032267183,0.158215404,-0.016209411,0.173105985,-0.124068603
-0.039964736,-0.031468883,0.159435511,-0.015845798,0.172149464,-0.124707565
-0.033628047,-0.028098645,0.162760392,-0.016146606,0.169503644,-0.126253963
-0.036755532,-0.029477462,0.160071105,-0.014867166,0.168369204,-0.128178224
-0.044733834,-0.033233926,0.154077128,-0.013114030,0.167885020,-0.129797965
-0.046295397,-0.032092780,0.150979370,-0.014028013,0.165733382,-0.129044786
-0.045614038,-0.031118382,0.149993986,-0.014332225,0.163941428,-0.128418803
-0.043356992,-0.032673810,0.151305005,-0.012933194,0.163365394,-0.128756806
-0.042895392,-0.034066994,0.151573211,-0.012583796,0.162446618,-0.129023001
-0.043873999,-0.035657000,0.151265994,-0.013146000,0.161715001,-0.129263997
-0.044067420,-0.040311351,0.152800217,-0.013808807,0.162154019,-0.129788205
-0.047414109,-0.040740184,0.152888775,-0.014143197,0.164213061,-0.130181208
-0.053921811,-0.039867960,0.150218189,-0.013625398,0.167900011,-0.130340397
-0.051293083,-0.037690792,0.150379419,-0.013487602,0.166155338,-0.130122989
-0.044027999,-0.040143002,0.151995003,-0.013384000,0.161798999,-0.129734993
-0.042796604,-0.037979662,0.151652396,-0.012401788,0.162294805,-0.130704209
-0.043456193,-0.037370391,0.151552394,-0.012099398,0.162895605,-0.130859613
-0.044639006,-0.040337995,0.152419001,-0.013189603,0.162022591,-0.129117787
-0.046490580,-0.038829185,0.150274426,-0.013166009,0.160516411,-0.128499210
-0.048530001,-0.039167002,0.147216007,-0.012375000,0.159284994,-0.128867000
-0.049220599,-0.039422590,0.148759767,-0.012158806,0.161001563,-0.130415171
-0.049682401,-0.040054206,0.150747404,-0.010951011,0.163161397,-0.132286593
-0.049995400,-0.044356391,0.151553407,-0.008057193,0.164628804,-0.134004593
-0.049388610,-0.041566845,0.152729183,-0.008478777,0.165530384,-0.131923839
-0.048916999,-0.037416000,0.153766006,-0.010658000,0.166015998,-0.128358006
-0.050388575,-0.037216596,0.153114617,-0.010675805,0.166131601,-0.129732758
-0.051914595,-0.038985793,0.152153000,-0.010825397,0.166792586,-0.130213410
-0.052928008,-0.041825354,0.151336402,-0.011776389,0.168384597,-0.127880231
-0.050878838,-0.043501396,0.150838599,-0.011647007,0.166154653,-0.128045782
-0.047321077,-0.043032035,0.151104987,-0.011117006,0.162597060,-0.129551977
-0.046248008,-0.040391855,0.154313952,-0.011947784,0.164496958,-0.129508406
-0.045222640,-0.039133150,0.155358449,-0.012497399,0.165962800,-0.128775030
-0.043337226,-0.040339813,0.152155057,-0.012201605,0.164997607,-0.127526417
-0.042522628,-0.041224971,0.150087848,-0.012119599,0.164916396,-0.127848759
-0.042224005,-0.041873984,0.149163008,-0.012186999,0.165440992,-0.128881991
-0.042171605,-0.042423800,0.149382979,-0.012207599,0.166213572,-0.128980801
-0.042612415,-0.042335004,0.149939209,-0.012256802,0.166851401,-0.128433570
-0.043694191,-0.042640429,0.150423586,-0.012402786,0.167179808,-0.127313033
-0.043901794,-0.042954620,0.150672406,-0.013723431,0.167045385,-0.125967771
-0.043113984,-0.044286031,0.150694981,-0.015358004,0.166620001,-0.124920011
-0.042285193,-0.045124415,0.150131196,-0.015095791,0.166280806,-0.125602007
-0.041412387,-0.043821141,0.151132852,-0.014385588,0.166672617,-0.127113640
-0.040716000,-0.040337585,0.154629618,-0.013649397,0.168191403,-0.129280612
-0.041324619,-0.039537407,0.156298220,-0.012986389,0.168115184,-0.129954398
-0.042360999,-0.040961999,0.156503007,-0.012420000,0.167116001,-0.129712999
-0.040332377,-0.039903581,0.155096784,-0.012071798,0.166485593,-0.129780009
-0.038788408,-0.039287198,0.154931992,-0.011912400,0.166150808,-0.129822001
-0.038864605,-0.039688405,0.157168016,-0.011926800,0.166148797,-0.129826397
-0.041481964,-0.039935410,0.157237619,-0.011856601,0.168402761,-0.129715398
-0.044461999,-0.039556000,0.156262994,-0.011796000,0.171138003,-0.129662007
-0.040771872,-0.039301995,0.157843977,-0.011891399,0.169255257,-0.130368590
-0.037402611,-0.038492411,0.158227801,-0.011761403,0.166616201,-0.130658194
-0.036760587,-0.037794009,0.156039849,-0.011206205,0.164653003,-0.130045816
-0.038511164,-0.036669806,0.154748812,-0.011374393,0.165491775,-0.129341811
-0.041643001,-0.036855001,0.154165998,-0.011829000,0.168056995,-0.128671005
-0.043750770,-0.038400371,0.153849408,-0.011403808,0.170198381,-0.128361806
-0.045196995,-0.039046600,0.153333411,-0.011113400,0.170834810,-0.128210604
-0.045576204,-0.039446812,0.152401015,-0.011277400,0.169276431,-0.128175810
-0.045526799,-0.039565384,0.151609808,-0.011155002,0.168941796,-0.127806202
-0.045385998,-0.040218998,0.150685027,-0.010720010,0.169156000,-0.127378002
-0.046464585,-0.041111395,0.148670033,-0.010127610,0.167615429,-0.127690390
-0.047243796,-0.040729806,0.147837400,-0.009665201,0.166942596,-0.128198788
-0.047653005,-0.039354201,0.149151012,-0.009440999,0.168262213,-0.128807604
-0.048033997,-0.039410390,0.150108591,-0.009138604,0.169543386,-0.129146397
-0.047841001,-0.040413000,0.150582001,-0.008881000,0.170175999,-0.129145995
-0.045392837,-0.040979996,0.150090218,-0.009187393,0.168023050,-0.128334016
-0.045095388,-0.040630005,0.149450004,-0.009620197,0.167073399,-0.128241807
-0.048831161,-0.038860008,0.149106428,-0.009954598,0.169173390,-0.129503995
-0.048254430,-0.038230408,0.147510424,-0.009502610,0.167637035,-0.129858404
-0.045853045,-0.038389996,0.145556048,-0.008730015,0.164485052,-0.129593998
-0.046952818,-0.039154414,0.145291001,-0.009071406,0.165065408,-0.129431203
-0.048036013,-0.039799400,0.146198437,-0.009549808,0.167302668,-0.129333198
-0.048257396,-0.040310197,0.148237199,-0.009855401,0.170737207,-0.129394189
-0.046844959,-0.039800376,0.147637367,-0.009862797,0.169357345,-0.129525989
-0.043844000,-0.039282002,0.146253005,-0.009649000,0.165617004,-0.129639000
-0.039696559,-0.040244803,0.149531439,-0.009296397,0.165969819,-0.129626602
-0.038644992,-0.040801402,0.151580602,-0.009416597,0.166926384,-0.129509598
-0.042288013,-0.040294208,0.150259793,-0.010346403,0.167388991,-0.129040003
-0.041504037,-0.041116990,0.149677798,-0.010435605,0.166707814,-0.128477007
-0.038975000,-0.041965000,0.149665996,-0.010017000,0.165776998,-0.128104001
-0.042679131,-0.042812794,0.149303406,-0.010381793,0.167688161,-0.127958804
-0.044884805,-0.042261012,0.149171203,-0.010682999,0.168974802,-0.128225803
-0.043091811,-0.040445201,0.149449810,-0.010627403,0.168405622,-0.129056185
-0.045030959,-0.040764190,0.147649840,-0.010383003,0.166543841,-0.129381806
-0.047869001,-0.042087000,0.145536005,-0.010150000,0.164483994,-0.129297003
-0.042495098,-0.041571803,0.148585945,-0.010475393,0.165365979,-0.128972605
-0.039191000,-0.041201003,0.150967002,-0.010842398,0.166517407,-0.128953010
-0.041383211,-0.040962800,0.150588796,-0.011078199,0.167040408,-0.129451796
-0.043338783,-0.041478395,0.150314808,-0.010648608,0.168650374,-0.129583001
-0.044530999,-0.041811999,0.150245994,-0.010048000,0.170319006,-0.129465997
-0.042616840,-0.041545019,0.150932401,-0.010583987,0.169073433,-0.129134417
-0.042281590,-0.040962402,0.150174007,-0.010917800,0.168101400,-0.129127607
-0.045500368,-0.040744599,0.146759644,-0.010452809,0.168673992,-0.129762992
-0.043926448,-0.041419398,0.147547573,-0.010073604,0.167751610,-0.129546806
-0.040149067,-0.042358983,0.150453940,-0.009885001,0.166400015,-0.129006013
-0.042120151,-0.042146612,0.150140017,-0.010298791,0.167711362,-0.129605994
-0.044210777,-0.042225979,0.149792790,-0.010860983,0.168789983,-0.129803613
-0.044513609,-0.043366395,0.150434390,-0.011400394,0.168351620,-0.128872618
-0.044251412,-0.042347312,0.150695398,-0.011262618,0.167251050,-0.129156560
-0.043900013,-0.040637024,0.150665000,-0.010770009,0.166197017,-0.130024984
-0.043063574,-0.042764507,0.151035219,-0.010632798,0.166716844,-0.129369974
-0.043144777,-0.044138618,0.151133403,-0.010550205,0.167049602,-0.129184380
-0.044269212,-0.042753953,0.150720209,-0.010421997,0.166395381,-0.130145833
-0.044083185,-0.041519776,0.151784033,-0.010220395,0.166243404,-0.130269602
-0.043157954,-0.041145016,0.153262973,-0.010210024,0.166285992,-0.129874006
-0.041154176,-0.041988004,0.151758969,-0.011494813,0.165176779,-0.129609197
-0.040519811,-0.042713009,0.150526389,-0.011833985,0.165089622,-0.129406601
-0.042160012,-0.042354800,0.150672793,-0.010341394,0.166813806,-0.129302397
-0.043123007,-0.042309403,0.148653746,-0.009697398,0.165941373,-0.129667014
-0.043547001,-0.042699002,0.145914003,-0.009762000,0.163807005,-0.130115002
-0.043829001,-0.042237993,0.147889435,-0.010207806,0.164998218,-0.129469797
-0.044335797,-0.042652994,0.149470001,-0.010823396,0.165951401,-0.128796399
-0.045188397,-0.043638401,0.148863599,-0.011471601,0.165464401,-0.128554404
-0.043120436,-0.043316215,0.148837388,-0.011083210,0.164876610,-0.128883392
-0.040603001,-0.042373002,0.148857996,-0.010347000,0.164220005,-0.129311994
-0.044583518,-0.041978791,0.146902427,-0.011176383,0.163000017,-0.128628224
-0.047424577,-0.042108387,0.146727145,-0.011792794,0.163835913,-0.128387392
-0.046350837,-0.042424403,0.149780363,-0.011582810,0.167801157,-0.129118592
-0.043878034,-0.041884601,0.149891615,-0.010941808,0.167597234,-0.129084811
-0.041456062,-0.041083019,0.148259059,-0.010242019,0.165326074,-0.128649011
-0.044048868,-0.041510798,0.148640960,-0.011111354,0.167692885,-0.128714189
-0.044921644,-0.041959591,0.149230778,-0.011408016,0.168266460,-0.128658205
-0.041668691,-0.042260613,0.149574816,-0.010390778,0.164829507,-0.128277987
-0.039273709,-0.042685609,0.150279537,-0.010568137,0.164059132,-0.127550468
-0.038879000,-0.043001000,0.150694996,-0.011358000,0.165095001,-0.127040997
-0.042389642,-0.043380011,0.148563176,-0.010630790,0.163588196,-0.128308609
-0.045148827,-0.044048008,0.147797018,-0.010329807,0.164009839,-0.129108399
-0.045665354,-0.044888780,0.149950683,-0.011221029,0.168048292,-0.128587589
-0.041932866,-0.042415634,0.151450783,-0.011881996,0.168561220,-0.128681794
-0.036745001,-0.038566001,0.152024001,-0.012190000,0.166676998,-0.129309997
-0.037576221,-0.038434800,0.151802003,-0.012032397,0.166738406,-0.129804805
-0.038753007,-0.037842967,0.151573405,-0.012074207,0.167071000,-0.130019799
-0.038343802,-0.035428420,0.151680201,-0.012555196,0.167329594,-0.129876196
-0.039058987,-0.035563190,0.152140394,-0.012348406,0.168197587,-0.130252182
-0.040702999,-0.037296001,0.152446002,-0.011875000,0.169134006,-0.130735993
-0.044196635,-0.037776805,0.151100188,-0.012311006,0.168975592,-0.129994392
-0.045424823,-0.038354360,0.149638027,-0.012551802,0.167976245,-0.129539207
-0.043081835,-0.039005209,0.148671418,-0.012196811,0.166214228,-0.129965186
-0.042799793,-0.038216215,0.148587391,-0.011468610,0.165801391,-0.130361393
-0.044156000,-0.037314001,0.148842007,-0.010834000,0.166431993,-0.130538002
-0.046038531,-0.037972555,0.147740036,-0.011694556,0.167593747,-0.129985631
-0.046586186,-0.039203223,0.148049042,-0.012076793,0.168577015,-0.129413992
-0.044938423,-0.040667579,0.150857970,-0.011208410,0.168997794,-0.129097000
-0.044178203,-0.041126192,0.151156008,-0.010999598,0.167737424,-0.128618196
-0.045064904,-0.041856978,0.149577096,-0.011274984,0.166110024,-0.128143013
-0.050658263,-0.042775609,0.147816777,-0.011715605,0.168717444,-0.128237396
-0.054540761,-0.043505386,0.146880805,-0.011964397,0.170800775,-0.128511190
-0.054205816,-0.043983221,0.147418782,-0.011777816,0.170733422,-0.128938988
-0.053761207,-0.042039439,0.148045391,-0.010368021,0.170784384,-0.129336804
-0.052907001,-0.039200999,0.148689002,-0.008335000,0.170554996,-0.130025998
-0.049209364,-0.038953811,0.149657816,-0.005765779,0.168396562,-0.132610232
-0.046431653,-0.039450403,0.150252789,-0.005362360,0.165799469,-0.133587420
-0.045703381,-0.039295413,0.150259808,-0.008158257,0.163140565,-0.131589159
-0.045044206,-0.038623206,0.151047796,-0.008394413,0.163861781,-0.132356763
-0.044619001,-0.037528999,0.152086005,-0.007687000,0.166353002,-0.134151995
-0.043259386,-0.036197975,0.152011991,-0.010546435,0.166197181,-0.131865770
-0.042938612,-0.036265224,0.151316985,-0.012554811,0.165855199,-0.129890576
-0.044618148,-0.038690545,0.150102422,-0.012188802,0.166028187,-0.129757002
-0.048368201,-0.040337238,0.149589598,-0.012765245,0.167113274,-0.129359782
-0.051771998,-0.040913001,0.149716005,-0.013745000,0.168375000,-0.128828004
-0.047382545,-0.040499598,0.150662810,-0.014206199,0.167458981,-0.128255203
-0.047325425,-0.039408233,0.150917828,-0.012432710,0.168297514,-0.129439518
-0.056218516,-0.038246177,0.149837002,-0.007592315,0.172357857,-0.133176669
-0.052299120,-0.037854802,0.151810765,-0.007716370,0.170926049,-0.133313835
-0.042378999,-0.037315000,0.155134007,-0.010414000,0.167226002,-0.131623000
-0.044293225,-0.036614206,0.155480623,-0.009454066,0.170411021,-0.132687330
-0.046145588,-0.036477797,0.155414805,-0.008592397,0.171977565,-0.133316398
-0.044296447,-0.037254963,0.155668184,-0.008929992,0.168965444,-0.132542610
-0.042254224,-0.038497392,0.156731382,-0.009305196,0.168623388,-0.132195607
-0.041655999,-0.039512999,0.157574996,-0.009722000,0.170259997,-0.132159993
-0.046201058,-0.039651398,0.155132368,-0.010680407,0.172457218,-0.131917596
-0.050320320,-0.039678805,0.152943030,-0.009781481,0.173552394,-0.132303163
-0.051799197,-0.039723203,0.152328208,-0.006025837,0.172738016,-0.133597583
-0.051036224,-0.039154813,0.152686998,-0.006883365,0.172710791,-0.132814422
-0.049352001,-0.037558001,0.153587997,-0.010201000,0.173152000,-0.131000996
-0.049120791,-0.034239944,0.154200390,-0.010684403,0.173294187,-0.131151974
-0.049020823,-0.033584118,0.153839827,-0.011204165,0.172981411,-0.130653232
-0.048469387,-0.038671125,0.152116388,-0.012570610,0.172081605,-0.128691569
-0.047996804,-0.040844798,0.153794363,-0.011784021,0.173626572,-0.128997386
-0.047874000,-0.040782001,0.156832993,-0.009623000,0.176192999,-0.130680993
-0.049937129,-0.040507026,0.155456275,-0.007515869,0.176291823,-0.131982967
-0.048751310,-0.039451763,0.155539647,-0.007628440,0.175194755,-0.131919980
-0.042304080,-0.037545409,0.159104168,-0.010988356,0.173194438,-0.129857227
-0.042342559,-0.038233474,0.157973647,-0.011365548,0.172902629,-0.128302947
-0.046174001,-0.040309001,0.154421002,-0.009973000,0.173620999,-0.127651006
-0.045969591,-0.040260389,0.153884202,-0.009672002,0.173208997,-0.129596621
-0.046734449,-0.039568190,0.154859230,-0.011039855,0.174310848,-0.130099371
-0.049984671,-0.039111208,0.157142445,-0.014573249,0.177862063,-0.127497941
-0.051135201,-0.038594611,0.156919822,-0.013535237,0.178042412,-0.127046987
-0.051236000,-0.038384002,0.155535996,-0.010412000,0.176734000,-0.128059000
-0.053436026,-0.038305808,0.156637222,-0.011861023,0.179269046,-0.128841817
-0.054092985,-0.037444547,0.157036573,-0.012578784,0.180352390,-0.129852027
-0.051761720,-0.036408864,0.155672446,-0.010786494,0.178060740,-0.131195694
-0.051137805,-0.038780048,0.156343877,-0.010198812,0.176720768,-0.132642865
-0.052129000,-0.043173000,0.157396004,-0.010256000,0.176135004,-0.133867994
-0.054544419,-0.040282622,0.153729558,-0.009224989,0.175574183,-0.134334207
-0.055062838,-0.045035407,0.151858792,-0.009707927,0.175438583,-0.132939473
-0.052495729,-0.041740641,0.154240474,-0.013081056,0.176122412,-0.129758939
-0.050018825,-0.042575393,0.156429172,-0.012948420,0.176142007,-0.129593596
-0.048854999,-0.042842001,0.157538995,-0.010920000,0.175780997,-0.131047994
-0.052805848,-0.041507382,0.154487565,-0.010408800,0.175261408,-0.130433977
-0.056109235,-0.041299026,0.153521836,-0.011286838,0.176198453,-0.128773361
-0.055951014,-0.043657035,0.157072663,-0.013761831,0.179235250,-0.126192987
-0.057172585,-0.043252021,0.156405836,-0.012645233,0.179257214,-0.128369346
-0.058022000,-0.040993001,0.153696999,-0.010195000,0.176981002,-0.132666007
-0.053675950,-0.039439984,0.154714823,-0.012279831,0.173731178,-0.132259369
-0.051228605,-0.037465144,0.155759007,-0.014361223,0.172188789,-0.130677372
-0.053788949,-0.034693420,0.155699611,-0.014924793,0.173649192,-0.128868252
-0.055282041,-0.036406189,0.154702336,-0.015464829,0.172782704,-0.126270667
-0.055527002,-0.040206000,0.153612003,-0.015419000,0.170848995,-0.123770997
-0.055167589,-0.038556378,0.154519215,-0.012271964,0.171343803,-0.123772003
-0.054190431,-0.039815053,0.155506179,-0.010740587,0.172110587,-0.122534886
-0.052492406,-0.047049366,0.155846983,-0.012685855,0.172433525,-0.118533298
-0.054308765,-0.049727596,0.154166222,-0.013915993,0.166727096,-0.116278611
-0.057238001,-0.049095001,0.152353004,-0.014330000,0.159154996,-0.115290001
-0.055919483,-0.048311837,0.155684620,-0.014128828,0.160867035,-0.114669211
-0.054770604,-0.047371179,0.159069628,-0.012375139,0.163351014,-0.115067825
-0.055627413,-0.046618614,0.160724774,-0.008712430,0.163777411,-0.116737977
-0.053630441,-0.045550812,0.161120400,-0.010212755,0.162446022,-0.116904005
-0.051031001,-0.044689000,0.160141006,-0.014177000,0.160016999,-0.116159998
-0.054223046,-0.045849018,0.156684965,-0.013744988,0.157902569,-0.116105802
-0.055433057,-0.047355957,0.154711396,-0.013344584,0.155278504,-0.116089612
-0.051538836,-0.048682392,0.155872971,-0.014299789,0.151913643,-0.115938790
-0.052716162,-0.047496825,0.156670779,-0.014201807,0.151775777,-0.117214173
-0.056735002,-0.045483999,0.157248005,-0.013832000,0.153800994,-0.118882999
-0.057094600,-0.046816129,0.158179164,-0.015770914,0.155640319,-0.118095055
-0.057649568,-0.046778664,0.158950984,-0.016000051,0.157552943,-0.117656589
-0.059194021,-0.043503348,0.159359008,-0.012949537,0.159561440,-0.118651628
-0.057919227,-0.043896772,0.159702808,-0.012418790,0.159661025,-0.119083598
-0.055824999,-0.046213001,0.159566000,-0.013350000,0.158903003,-0.118854001
-0.058504261,-0.047811359,0.157780081,-0.012784623,0.160264134,-0.117330059
-0.059432376,-0.047073741,0.156689197,-0.013563843,0.160966992,-0.116683610
-0.056097448,-0.041977264,0.157121181,-0.016734745,0.160147607,-0.118022591
-0.054972596,-0.041735977,0.158057988,-0.018644387,0.161276966,-0.116863236
-0.055105001,-0.044778999,0.159031004,-0.019678000,0.162432998,-0.114648998
-0.053289779,-0.046208408,0.158870786,-0.020855412,0.157708541,-0.114995211
-0.051992394,-0.046901174,0.158917591,-0.021454992,0.153320685,-0.116336152
-0.051856466,-0.047070198,0.159578800,-0.021155426,0.151615426,-0.118337952
-0.054423988,-0.047871582,0.159669399,-0.018550441,0.151284009,-0.120395586
-0.047637001,-0.049263999,0.159656003,-0.015482000,0.151262000,-0.122694001
-0.051450416,-0.052324846,0.159889579,-0.016828300,0.149293095,-0.126927644
-0.047460489,-0.054582763,0.159869418,-0.018784352,0.146862879,-0.127803266
-0.045225240,-0.054253612,0.158972219,-0.020078190,0.144712597,-0.123390049
-0.045648575,-0.053296611,0.158438608,-0.019903608,0.147291541,-0.123888567
-0.048431881,-0.051798083,0.158021018,-0.018515084,0.153137684,-0.127490833
-0.052171014,-0.049860470,0.157078028,-0.015874311,0.158999532,-0.129325926
-0.056868970,-0.049101386,0.156952560,-0.014341411,0.166005373,-0.131428123
-0.062441628,-0.050222404,0.158198595,-0.014908992,0.174319848,-0.134153351
-0.070108533,-0.048119031,0.157149941,-0.015051002,0.181162030,-0.135988116
-0.076659717,-0.044504151,0.154050171,-0.014371060,0.187453642,-0.137824878
-0.079021901,-0.043424629,0.148599625,-0.011331538,0.195741832,-0.141962796
-0.080295376,-0.042044267,0.143953308,-0.009340821,0.205212489,-0.147886589
-0.080292337,-0.038983673,0.141492561,-0.009819333,0.215658829,-0.155617863
-0.077061802,-0.035179246,0.139426529,-0.011159074,0.221446931,-0.162850291
-0.071249671,-0.031098768,0.137482882,-0.012590990,0.222759873,-0.169320270
-0.063927531,-0.026507359,0.134799764,-0.011943789,0.218581751,-0.174250841
-0.057798095,-0.024099590,0.133002982,-0.011454001,0.214299947,-0.177869052
-0.054354947,-0.024611384,0.132839799,-0.011920027,0.212104708,-0.180134073
-0.054314844,-0.021978412,0.132297158,-0.012951051,0.208647430,-0.182849735
-0.056563001,-0.018248999,0.131839007,-0.014672000,0.204780996,-0.184625000
-0.057909414,-0.018557217,0.132956013,-0.018458838,0.202855796,-0.181711152
-0.059832063,-0.021317277,0.134294227,-0.019011946,0.201394379,-0.175863653
-0.059284531,-0.026374765,0.135446623,-0.014146312,0.199890137,-0.167356759
-0.059001625,-0.032074738,0.135273814,-0.014656762,0.197503030,-0.158780098
-0.056216002,-0.036862001,0.134735003,-0.017380999,0.193082005,-0.150829002
-0.059176780,-0.036322381,0.136053815,-0.013379550,0.183017492,-0.145756364
-0.054233812,-0.034031950,0.137647420,-0.011136413,0.171896979,-0.140851691
-0.047583632,-0.030939057,0.138793364,-0.013579775,0.161609769,-0.135248706
-0.043090664,-0.028577618,0.142591149,-0.013095822,0.155088648,-0.130809635
-0.035282999,-0.027558001,0.147762999,-0.010707000,0.150168002,-0.126881003
-0.030671977,-0.028710419,0.150599018,-0.008390578,0.141287714,-0.121595338
-0.034906775,-0.030950107,0.152597934,-0.007494789,0.134444550,-0.117249101
-0.034861960,-0.033792034,0.154439867,-0.008845613,0.131622910,-0.114797726
-0.033646181,-0.032837827,0.157431155,-0.007904422,0.127850443,-0.112249032
-0.033171002,-0.029664000,0.160380006,-0.005721000,0.123961002,-0.110018998
-0.032009028,-0.026543725,0.159874052,-0.004261846,0.121547863,-0.108778842
-0.033867497,-0.024633382,0.159647420,-0.003893608,0.121425822,-0.107343361
-0.041074440,-0.024730019,0.160976991,-0.004905593,0.124249712,-0.105138645
-0.049619503,-0.021769252,0.159570441,-0.004312016,0.129910722,-0.103152022
-0.056680001,-0.017367000,0.157051995,-0.002706000,0.136650994,-0.100709997
-0.054309353,-0.016252998,0.157871217,-0.001683590,0.140015021,-0.096462950
-0.051996592,-0.016066799,0.159137234,-0.000362565,0.144020304,-0.089873843
-0.053220954,-0.016365191,0.159926414,0.001475577,0.150040060,-0.080432847
-0.056409366,-0.016673997,0.158084035,0.002075399,0.158081904,-0.065485984
-0.060759999,-0.017526999,0.154321000,0.001022000,0.166567996,-0.049020998
-0.064270034,-0.021446846,0.150067359,-0.002943251,0.171686634,-0.039903536
-0.066736348,-0.025285702,0.145778731,-0.008503612,0.173709810,-0.036557637
-0.068158336,-0.027381839,0.141852051,-0.015194489,0.172448784,-0.039564427
-0.074100114,-0.022169292,0.140029222,-0.019296173,0.176207125,-0.052291021
-0.082401998,-0.011159000,0.139974996,-0.021978000,0.184624001,-0.073462002
-0.087645233,0.003093367,0.141120940,-0.025705837,0.197571605,-0.102767326
-0.090641230,0.018105092,0.143291458,-0.029465869,0.212846518,-0.131289735
-0.091084197,0.032372534,0.146506712,-0.032927502,0.229473293,-0.155109569
-0.089843020,0.044692479,0.151636124,-0.039026525,0.243245468,-0.175767988
-0.088802986,0.055097509,0.157550722,-0.047198564,0.253923535,-0.191101372
-0.093272656,0.065539479,0.161872834,-0.056926697,0.260601848,-0.194149375
-0.099174619,0.064935669,0.163525194,-0.064736612,0.264889687,-0.190119594
-0.105551295,0.047885984,0.161785439,-0.069145940,0.267140239,-0.180576205
-0.110232964,0.028450210,0.159982204,-0.071636587,0.262649477,-0.170575708
-0.111970998,0.010016000,0.158019006,-0.071464002,0.253077000,-0.161046997
-0.106401294,-0.000094312,0.155219331,-0.065099917,0.241444513,-0.153607637
-0.101139486,-0.004117161,0.151900306,-0.059068929,0.229341760,-0.149545461
-0.098850504,-0.001745667,0.148319244,-0.055868272,0.217561245,-0.149703398
-0.090940505,0.002444346,0.146538422,-0.051302053,0.204164743,-0.149916396
-0.078800999,0.006289000,0.147046998,-0.046425000,0.191103995,-0.149840996
-0.064497173,0.004062560,0.152343139,-0.044223070,0.183510631,-0.149366856
-0.054971952,0.000003724,0.157756865,-0.041953087,0.178315341,-0.145479187
-0.054242797,-0.004760880,0.161460549,-0.038671464,0.174763694,-0.136603415
-0.053159408,-0.012076912,0.162722200,-0.035690628,0.168446481,-0.124394342
-0.052521974,-0.020856563,0.162093043,-0.033362098,0.160984337,-0.109587781
-0.057473712,-0.028789043,0.160444677,-0.032389782,0.156090766,-0.092390746
-0.060643595,-0.034721449,0.158958226,-0.032962151,0.153547049,-0.078171745
-0.060661763,-0.037902787,0.158213794,-0.035190780,0.153782159,-0.069513172
-0.063190803,-0.036479823,0.158523560,-0.034495547,0.158453554,-0.060112022
-0.067230105,-0.032811020,0.159201980,-0.032563042,0.164870113,-0.051694799
-0.068887360,-0.033695132,0.158610448,-0.034090914,0.166196406,-0.049240220
-0.070238136,-0.034072220,0.157442629,-0.035129800,0.165367037,-0.049066398
-0.071553051,-0.032472905,0.155829564,-0.034316771,0.163012326,-0.049966633
-0.072812043,-0.027975945,0.155224204,-0.033633180,0.160571694,-0.050827429
-0.074648872,-0.022486217,0.155797958,-0.032748062,0.159198016,-0.052400883
-0.080076858,-0.023330655,0.157932624,-0.030117774,0.162848651,-0.056109656
-0.083074406,-0.017375316,0.161811113,-0.028985810,0.165666431,-0.063098378
-0.080779687,-0.014542628,0.167626962,-0.030424206,0.165108278,-0.073529124
-0.075893179,-0.011828292,0.172030374,-0.028881002,0.157588273,-0.083634004
-0.069688000,-0.012543000,0.175233006,-0.025293000,0.144468993,-0.092370003
-0.067926250,-0.009435356,0.178092033,-0.020659763,0.127579018,-0.097414643
-0.066930525,-0.005159915,0.179010004,-0.022971563,0.111457899,-0.102173500
-0.061021984,-0.000389736,0.177287847,-0.036018148,0.098295599,-0.107903250
-0.048285171,0.008799883,0.175123423,-0.046582304,0.091016449,-0.117798880
-0.033493999,0.019866001,0.171811000,-0.054531999,0.089983001,-0.130127996
-0.027953604,0.027194062,0.164316118,-0.059673034,0.096494310,-0.139933109
-0.029406682,0.032219499,0.158357725,-0.061053187,0.111585796,-0.152644694
-0.038977068,0.034858830,0.155999854,-0.058049474,0.136226460,-0.170462787
-0.049873158,0.027917877,0.151897997,-0.054463446,0.165004462,-0.193059236
-0.065164998,0.015923999,0.146217003,-0.049929999,0.193983003,-0.217884004
-0.074832290,0.007701322,0.140153542,-0.043136332,0.213948756,-0.239658594
-0.083782196,0.004303013,0.135522544,-0.038869157,0.227839231,-0.258157760
-0.092681743,0.007055276,0.133304313,-0.039406873,0.235744953,-0.272573292
-0.095479012,0.012275724,0.128764063,-0.043197945,0.238466993,-0.278785586
-0.090416998,0.019440001,0.123516001,-0.048558000,0.237775996,-0.278454006
-0.084662080,0.020993400,0.121058784,-0.051539026,0.237201601,-0.274260134
-0.073622741,0.017261047,0.120836020,-0.053907245,0.236117184,-0.267665684
-0.070506983,0.007071413,0.122722544,-0.056074172,0.234504849,-0.259686589
-0.069842175,-0.002699509,0.126200154,-0.056637801,0.231037050,-0.249640912
-0.073008999,-0.011147000,0.130539000,-0.055822998,0.225913003,-0.238628998
-0.075777471,-0.019142881,0.134750038,-0.054162178,0.219288111,-0.229269296
-0.077188127,-0.026430385,0.137280762,-0.050812133,0.211609647,-0.219155937
-0.079053007,-0.033030115,0.137314990,-0.045446094,0.202996820,-0.207505614
-0.071636520,-0.034966603,0.138676792,-0.041638430,0.190720752,-0.197678089
-0.058470000,-0.032488000,0.141225994,-0.038566999,0.175523996,-0.189033002
-0.048382238,-0.024563186,0.145337626,-0.033793598,0.158243328,-0.179953769
-0.040931374,-0.016569806,0.149106100,-0.030368460,0.141771674,-0.170916468
-0.036873050,-0.010810857,0.151858136,-0.029501423,0.127558857,-0.161912382
-0.032642856,-0.011030765,0.156062335,-0.027937420,0.115609720,-0.152451098
-0.029478081,-0.015050806,0.160297841,-0.025492143,0.106684372,-0.142489523
-0.032492045,-0.018347230,0.160895586,-0.021065352,0.103293389,-0.131183282
-0.036640674,-0.020202016,0.160207391,-0.017678356,0.103785247,-0.121344820
-0.040429689,-0.020047812,0.158878237,-0.016618220,0.107874095,-0.114325933
-0.047888502,-0.019457009,0.157856017,-0.015598810,0.114094123,-0.107669868
-0.056600001,-0.018248999,0.157414004,-0.014338000,0.121854998,-0.101999000
-0.059671417,-0.015869370,0.158523813,-0.011969774,0.129776284,-0.099358186
-0.062553473,-0.012536717,0.160387546,-0.010081038,0.139271677,-0.097568646
-0.067017734,-0.008661047,0.162729338,-0.009289416,0.150900766,-0.095770091
-0.069166794,-0.007472401,0.165988147,-0.008162014,0.162769884,-0.089280888
-0.070088997,-0.007948000,0.168902993,-0.007197000,0.173765004,-0.078198999
-0.072129294,-0.007978794,0.168723673,-0.007255566,0.180740774,-0.061177365
-0.073160015,-0.009229729,0.164113626,-0.009812072,0.187236175,-0.043213133
-0.071944989,-0.012276545,0.154073820,-0.015800865,0.194408491,-0.026663452
-0.074976549,-0.015088970,0.143408924,-0.022947719,0.196850598,-0.017135866
-0.081456639,-0.016231017,0.132858515,-0.029784704,0.196905956,-0.016420832
-0.089809425,-0.013102025,0.123196743,-0.032715131,0.199059248,-0.029616594
-0.099881656,-0.003655796,0.117802285,-0.034203358,0.207002833,-0.055968203
-0.111446247,0.013437202,0.118370742,-0.035366364,0.223101825,-0.096145555
-0.114415295,0.034318030,0.122626424,-0.037589237,0.242593303,-0.138004780
-0.111925997,0.058371998,0.129843995,-0.041648999,0.264001012,-0.178362995
-0.109967284,0.088197589,0.138681412,-0.048625045,0.285681963,-0.211630255
-0.108918607,0.112433188,0.147672921,-0.060006373,0.302719593,-0.230534881
-0.109243020,0.126108319,0.155820459,-0.075768262,0.312386125,-0.230290353
-0.108217619,0.115324631,0.157879606,-0.086583108,0.311950654,-0.217165798
-0.106564082,0.087959401,0.154870197,-0.092328809,0.302023649,-0.195836082
-0.106396407,0.059017189,0.147809327,-0.090784565,0.281674802,-0.173403710
-0.104221724,0.035742562,0.140904784,-0.086092159,0.256068647,-0.155283257
-0.098578036,0.023115426,0.135994062,-0.079277374,0.227389246,-0.144999057
-0.094138250,0.023592500,0.131927043,-0.071572065,0.207116753,-0.145223022
-0.089696258,0.032069597,0.129414096,-0.063639387,0.194413543,-0.152619615
-0.082642332,0.038082980,0.130078316,-0.056296460,0.188183129,-0.160473675
-0.073177978,0.041821647,0.134212926,-0.052481972,0.187358439,-0.167989746
-0.060721491,0.042492732,0.142190441,-0.053588234,0.191515714,-0.173919022
-0.052763350,0.037804049,0.148744449,-0.054212779,0.194764420,-0.170287907
-0.049399063,0.029558593,0.154273316,-0.054261975,0.195375711,-0.157675013
-0.052707456,0.021509711,0.160515457,-0.053607389,0.188000306,-0.135790735
-0.058685135,0.010538135,0.164141834,-0.052969191,0.179465443,-0.108459406
-0.065963313,-0.004662881,0.163775027,-0.052809007,0.172271296,-0.077328742
-0.067503922,-0.021414330,0.162698150,-0.052399382,0.170249641,-0.055426702
-0.065907001,-0.036993999,0.161567003,-0.050788999,0.171344995,-0.041209999
-0.067411408,-0.044302844,0.161831409,-0.044563524,0.170798182,-0.030817524
-0.065734930,-0.045383647,0.162172586,-0.039609484,0.169451058,-0.027511984
-0.059707314,-0.039702930,0.162266001,-0.038359150,0.167366385,-0.033032481
-0.060802348,-0.028108556,0.162194997,-0.035782434,0.167824984,-0.044594452
-0.066629000,-0.013300000,0.162466004,-0.033064000,0.169689998,-0.060252000
-0.072175443,-0.000941879,0.163961411,-0.033318408,0.171488404,-0.076440163
-0.073434353,0.006646675,0.167511299,-0.032220140,0.168108255,-0.090435244
-0.068004906,0.007325785,0.173571706,-0.027985260,0.156875655,-0.100473836
-0.066521190,0.008665383,0.176731780,-0.026195006,0.143031955,-0.106404364
-0.065641999,0.011250000,0.176917002,-0.027535999,0.127636001,-0.110501997
-0.064059511,0.016921064,0.172907546,-0.034526091,0.112620249,-0.119049892
-0.057883151,0.022241678,0.167030662,-0.043779597,0.098497309,-0.126944140
-0.040149659,0.025777858,0.160115927,-0.054091204,0.085971549,-0.132490531
-0.025492335,0.036598410,0.154402003,-0.063316762,0.082739845,-0.134320587
-0.014790000,0.051837999,0.150821999,-0.070099004,0.088757001,-0.134619996
-0.020391317,0.065947130,0.151333824,-0.070276782,0.105483219,-0.138186648
-0.032707401,0.075047217,0.154201880,-0.068804234,0.130521134,-0.145883307
-0.050381389,0.076870337,0.158672646,-0.067340158,0.163357660,-0.158684298
-0.073755324,0.071252696,0.157703251,-0.066417404,0.200508595,-0.178688347
-0.100339003,0.062123999,0.151357993,-0.065278001,0.237215996,-0.203162000
-0.121040225,0.057733703,0.140419722,-0.062080737,0.263032943,-0.227250248
-0.134090975,0.057699043,0.126334086,-0.060396798,0.278999239,-0.247847974
-0.136999339,0.062385082,0.110007674,-0.061815761,0.284169227,-0.262940586
-0.126380801,0.068827130,0.099336088,-0.063791975,0.278912514,-0.269550771
-0.108785003,0.075590998,0.094439998,-0.065907001,0.266916990,-0.269286990
-0.094718471,0.080363236,0.097129457,-0.067682214,0.254742682,-0.264608711
-0.083919682,0.080512889,0.104261741,-0.067571841,0.243004531,-0.256320506
-0.077333249,0.074419372,0.114849791,-0.064811461,0.232660785,-0.244780049
-0.079029739,0.064625919,0.124354899,-0.061896630,0.225522250,-0.232785910
-0.085600004,0.052136999,0.131770998,-0.058803000,0.219714001,-0.221013993
-0.090672046,0.038189780,0.134440571,-0.055191156,0.209877223,-0.210811585
-0.089991555,0.024756402,0.133360475,-0.051379122,0.201395601,-0.202931792
-0.080629081,0.013215339,0.128547698,-0.047465064,0.196155950,-0.197968289
-0.072884664,0.011714761,0.124692634,-0.045138415,0.186631918,-0.194247231
-0.067145213,0.016076805,0.122341082,-0.043895062,0.174114645,-0.190853208
-0.068883494,0.017682772,0.122351542,-0.042893041,0.161408722,-0.185772642
-0.065557890,0.017264452,0.126290619,-0.041245468,0.149047166,-0.178797260
-0.051896218,0.014338243,0.134884223,-0.038499452,0.137418836,-0.169617772
-0.046263814,0.013182603,0.142819926,-0.036684811,0.126239315,-0.163060248
-0.045871999,0.013437000,0.149546996,-0.035200998,0.116274998,-0.158289999
-0.044722788,0.014832815,0.153656229,-0.032850567,0.109629348,-0.153253943
-0.044522777,0.015033639,0.155505374,-0.028263789,0.104039386,-0.148040548
-0.046102967,0.012707050,0.154969439,-0.020832524,0.098915845,-0.142573550
-0.045677822,0.010603618,0.151802242,-0.016330831,0.098926574,-0.132722527
-0.047672000,0.008618000,0.147149995,-0.013885000,0.104579002,-0.119903997
-0.066640489,0.006513291,0.142677963,-0.011311892,0.117890328,-0.106548131
-0.083584845,0.003048341,0.141118586,-0.009659436,0.136934146,-0.095777467
-0.091540053,-0.002251710,0.144109920,-0.009253386,0.161335930,-0.089239709
-0.098908931,-0.006057160,0.147982955,-0.010934771,0.183442593,-0.085357621
-0.104997709,-0.007890015,0.151647851,-0.014118837,0.202059135,-0.082276218
-0.109568432,-0.003085294,0.153433591,-0.017109472,0.214719415,-0.074789360
-0.112976506,0.004952518,0.149219051,-0.020647880,0.221392080,-0.065137520
-0.114726186,0.015172662,0.136877656,-0.024846528,0.221232295,-0.053683423
-0.114113726,0.017702106,0.124586344,-0.027474891,0.212310046,-0.042247936
-0.113696940,0.015790062,0.113534510,-0.029347895,0.199984521,-0.034596201
-0.119783081,0.016667731,0.105892636,-0.032156270,0.195451826,-0.040518139
-0.127629176,0.019405866,0.102868780,-0.035679679,0.200359195,-0.055367362
-0.135677546,0.024419559,0.105379209,-0.040061086,0.217007414,-0.078524396
-0.134447336,0.036640439,0.113083616,-0.044266768,0.243555680,-0.111115128
-0.127784997,0.054935001,0.124765001,-0.049283002,0.276692986,-0.148626000
-0.122497357,0.078990653,0.138722941,-0.056798086,0.311799765,-0.182672709
-0.123112425,0.102435566,0.149308771,-0.066733882,0.341751456,-0.208092541
-0.132070154,0.122531146,0.153239161,-0.078599095,0.362545550,-0.220986128
-0.147774220,0.126068413,0.147176147,-0.085827194,0.366345644,-0.219036818
-0.163490996,0.115580998,0.135686994,-0.088884003,0.355304003,-0.205649003
-0.161755323,0.091979124,0.128141344,-0.089263789,0.332129896,-0.185365587
-0.152990386,0.068402588,0.122017890,-0.086462505,0.302654386,-0.164568812
-0.139948428,0.050852835,0.117079705,-0.079941198,0.269376218,-0.146467492
-0.129728884,0.043876417,0.114944413,-0.073413268,0.237564534,-0.130960733
-0.118864998,0.044730000,0.116015002,-0.067358002,0.208544999,-0.118672997
-0.096090347,0.049298853,0.121586666,-0.063357167,0.184800595,-0.111609146
-0.077319331,0.051082972,0.129437566,-0.060483351,0.169341370,-0.108099356
-0.068856150,0.046762928,0.139197811,-0.058571231,0.164250642,-0.107654825
-0.060528092,0.038995095,0.148349106,-0.057125013,0.164070383,-0.105436027
-0.055271000,0.029045001,0.156018004,-0.055982001,0.167705998,-0.100667998
-0.062231101,0.018551897,0.159737408,-0.055162791,0.174230471,-0.091170281
-0.072056912,0.012211682,0.161182582,-0.052978501,0.180444434,-0.078417435
-0.081786111,0.012429811,0.160823390,-0.048558477,0.184838280,-0.062673554
-0.092726469,0.012140004,0.160205215,-0.045338430,0.186129794,-0.048788533
-0.101672001,0.010585000,0.159392998,-0.042824000,0.185313001,-0.037834998
-0.100749388,0.006286178,0.158044249,-0.039703127,0.185159221,-0.032357711
-0.094214022,0.004750621,0.157528207,-0.037112158,0.183274925,-0.033301089
-0.083309174,0.008274278,0.158546567,-0.035553634,0.178670481,-0.041924581
-0.078343414,0.015335284,0.159783781,-0.033789821,0.176361024,-0.053599067
-0.077781998,0.024676001,0.161134005,-0.031709000,0.175018996,-0.067580000
-0.077728406,0.033318698,0.162108004,-0.028478565,0.172023565,-0.083239958
-0.078351177,0.042026546,0.163545147,-0.025247702,0.164838105,-0.096899837
-0.079709940,0.049787268,0.165785789,-0.022494189,0.151943475,-0.106589243
-0.084756330,0.054411761,0.165887415,-0.025863137,0.138012543,-0.112153366
-0.088923000,0.058352999,0.163267002,-0.035149001,0.124675997,-0.114440002
-0.080772087,0.066088691,0.155089512,-0.052266996,0.116008721,-0.115524605
-0.067526288,0.074735738,0.147790372,-0.070367076,0.107931294,-0.115793794
-0.053722352,0.083777972,0.143919840,-0.086450160,0.099357836,-0.115533620
-0.049769193,0.097824827,0.142668203,-0.094503954,0.102977097,-0.112590656
-0.055317000,0.112001002,0.143255994,-0.095416002,0.118358001,-0.112047002
-0.070671789,0.114042178,0.144377410,-0.089623317,0.147116929,-0.127160206
-0.089901850,0.110850140,0.143496081,-0.082529597,0.181674719,-0.150221214
-0.110457398,0.103997700,0.139326915,-0.076380886,0.218898326,-0.179231599
-0.128819942,0.101261616,0.132640481,-0.073496215,0.249707118,-0.209281296
-0.144630000,0.102895997,0.124054000,-0.073717996,0.272112995,-0.236165002
-0.154296815,0.111418799,0.114017598,-0.077538207,0.280008912,-0.249312282
-0.151402339,0.119600996,0.106067792,-0.080971733,0.277785599,-0.253102779
-0.138081297,0.124937974,0.101578027,-0.082156800,0.266585469,-0.248229742
-0.122736976,0.123001456,0.101974577,-0.081348613,0.252789974,-0.240550488
-0.107732683,0.115626425,0.106412731,-0.079077117,0.238645658,-0.230613530
-0.096568942,0.106060259,0.114476621,-0.076528318,0.229572117,-0.218782514
-0.091400854,0.093001649,0.122870162,-0.072627753,0.221982628,-0.206766754
-0.093749106,0.076133542,0.130102292,-0.066981308,0.215111688,-0.195337415
-0.100390032,0.058917269,0.133474901,-0.061929889,0.214027673,-0.185565755
-0.108088702,0.042441789,0.134144977,-0.057333231,0.216008931,-0.177681357
-0.109530829,0.030119039,0.134188995,-0.052699383,0.215638280,-0.172815949
-0.104878061,0.019971702,0.135400921,-0.048629913,0.210595846,-0.169230893
-0.093232304,0.011873325,0.138687789,-0.045399990,0.199059054,-0.166227505
-0.085096940,0.010282092,0.141184270,-0.043123111,0.181959599,-0.160768211
-0.080961168,0.014271735,0.142542958,-0.041822050,0.161162078,-0.153680354
-0.080922440,0.023834229,0.141592696,-0.041879833,0.139450893,-0.146575183
-0.079211161,0.029833928,0.139725849,-0.042448655,0.120389372,-0.141019091
-0.073831990,0.028155252,0.137326300,-0.043223031,0.106192030,-0.137832761
-0.068025596,0.023877725,0.136805385,-0.041548580,0.101533398,-0.135965466
-0.062653862,0.018458709,0.138073146,-0.038194820,0.104828395,-0.135327026
-0.061064061,0.012724683,0.141668260,-0.034527175,0.114493906,-0.136559680
-0.065112203,0.010039434,0.144855410,-0.031534392,0.124580711,-0.136000410
-0.075631678,0.012416328,0.146357611,-0.029772963,0.132451266,-0.131988496
-0.082916230,0.018145306,0.146245956,-0.028763371,0.142192841,-0.129396930
-0.087050073,0.025368268,0.145700037,-0.028695064,0.153695658,-0.127449900
-0.087441832,0.030297000,0.147287965,-0.030404191,0.167079717,-0.125327706
-0.089399889,0.034794096,0.151596323,-0.032672048,0.181257501,-0.117974780
-0.095369130,0.039391667,0.158989489,-0.034976263,0.195671171,-0.102745436
-0.098036617,0.039507508,0.157989591,-0.036882270,0.206778601,-0.081754029
-0.099042997,0.035652000,0.150379002,-0.038706001,0.213944003,-0.057668000
-0.098202191,0.023659458,0.138878465,-0.041480631,0.215068787,-0.035299994
-0.098978847,0.011726380,0.125872329,-0.044430859,0.212247103,-0.019552156
-0.103364639,0.003211195,0.112752497,-0.047078248,0.206094697,-0.013680914
-0.114908040,0.010584644,0.105998836,-0.047408208,0.204679400,-0.024632808
-0.129170999,0.029832000,0.104579002,-0.047099002,0.209374994,-0.050705999
-0.135864034,0.054301471,0.106524237,-0.049941242,0.224575788,-0.092095271
-0.135397106,0.079727300,0.112542167,-0.054780908,0.245558441,-0.137186706
-0.126754165,0.103688970,0.123142585,-0.061271235,0.270824462,-0.180886060
-0.119265072,0.123404622,0.133117899,-0.070762083,0.298610300,-0.212477937
-0.115053996,0.136232004,0.141372994,-0.081275001,0.324820012,-0.229830995
-0.120552480,0.134262517,0.145366818,-0.089152865,0.340242505,-0.224950463
-0.129950821,0.122728884,0.145017341,-0.093655258,0.344223559,-0.206186920
-0.141607255,0.102419391,0.140133515,-0.094447829,0.334994704,-0.176004797
-0.143430635,0.084853962,0.135473639,-0.090625063,0.317778826,-0.147416472
-0.138359994,0.071075998,0.130915999,-0.083387002,0.295094013,-0.123030998
-0.132391721,0.064512566,0.125763550,-0.074259907,0.270659953,-0.109364510
-0.125232235,0.062915191,0.122148074,-0.066721983,0.248003647,-0.103232101
-0.116969787,0.065905154,0.121111184,-0.062623248,0.229207903,-0.104225151
-0.106992483,0.067360751,0.123711526,-0.061955728,0.216878578,-0.107302345
-0.096755996,0.066330999,0.129048005,-0.063128002,0.210912004,-0.110483997
-0.090031020,0.059746534,0.135649711,-0.062657237,0.213121206,-0.109528109
-0.085903853,0.051342897,0.142546251,-0.061441325,0.217867211,-0.105062895
-0.084370986,0.042468168,0.149057120,-0.059573635,0.222868741,-0.096783794
-0.087905064,0.034771722,0.151687235,-0.058012743,0.223374933,-0.086471140
-0.093987435,0.028447550,0.151538029,-0.056331202,0.220262378,-0.075244106
-0.098040275,0.025243286,0.150756627,-0.053183742,0.214869440,-0.064894184
-0.099490412,0.023487931,0.150150418,-0.049954642,0.209865928,-0.057753216
-0.097647332,0.022621822,0.150272787,-0.047166593,0.206526354,-0.055270214
-0.093250751,0.023673682,0.149919227,-0.044883121,0.203714967,-0.057632904
-0.087165616,0.026587684,0.149409041,-0.043209150,0.200827330,-0.063784324
-0.080303192,0.029803237,0.149376407,-0.042285770,0.196489707,-0.071806945
-0.075619146,0.030140610,0.149474397,-0.042284407,0.191351086,-0.080669977
-0.074950889,0.045871660,0.149721608,-0.043657713,0.185752317,-0.090380400
-0.073553316,0.052274883,0.152647331,-0.043945007,0.183595389,-0.097111478
-0.072131000,0.054256000,0.157271996,-0.042647000,0.182283998,-0.101985998
-0.071967021,0.051715299,0.161815673,-0.037168227,0.175483257,-0.107374698
-0.074473113,0.047900949,0.165315658,-0.033380963,0.164406538,-0.110837452
-0.078741141,0.045859415,0.167244598,-0.033895921,0.148748145,-0.111453809
-0.079874389,0.046798497,0.165500060,-0.040622398,0.130567983,-0.110669538
-0.070520997,0.050478000,0.160446003,-0.052032001,0.112820998,-0.108231001
-0.064725757,0.058261357,0.150528952,-0.066452302,0.102774605,-0.103058651
-0.055526093,0.068536237,0.142371684,-0.078491189,0.100715034,-0.098786734
-0.054316334,0.081235588,0.138575643,-0.085466720,0.108170912,-0.097315133
-0.060471978,0.089938477,0.137368590,-0.087552190,0.127003774,-0.104495049
-0.072568998,0.094207004,0.138192996,-0.085704997,0.156755999,-0.120920002
-0.089846805,0.091543399,0.141125888,-0.080871046,0.200943649,-0.150721207
-0.108354114,0.086843692,0.142523199,-0.075159885,0.244793028,-0.184646890
-0.130499408,0.081986219,0.140728518,-0.069685079,0.281910419,-0.219080374
-0.149828583,0.085498512,0.132168517,-0.067212559,0.304087996,-0.246458381
-0.164433002,0.095417000,0.119191997,-0.068180002,0.312386990,-0.264919996
-0.164959043,0.109722599,0.104658574,-0.074028708,0.306989253,-0.267729729
-0.155284926,0.121545792,0.094704077,-0.079946905,0.294037104,-0.261978239
-0.136084631,0.127818167,0.092188768,-0.083903149,0.275968581,-0.249961257
-0.112376422,0.126083523,0.096677721,-0.085170388,0.259718925,-0.238605663
-0.090695001,0.117495999,0.106338002,-0.083538003,0.244820997,-0.227597997
-0.087113500,0.103249863,0.119333453,-0.077446505,0.229801148,-0.215155721
-0.091552541,0.086998068,0.129859760,-0.069620833,0.218947440,-0.203755796
-0.101453230,0.070497110,0.134970948,-0.060990166,0.214206666,-0.194459349
-0.109364122,0.055672683,0.135620296,-0.052961282,0.210647985,-0.188812628
-0.112896003,0.044399001,0.132955000,-0.046394002,0.207210004,-0.185395002
-0.103415519,0.042669766,0.128224015,-0.044103041,0.202817231,-0.181306362
-0.093342245,0.042909194,0.124959968,-0.042796165,0.193041131,-0.176665500
-0.086960167,0.042409815,0.124966778,-0.041363418,0.175554946,-0.171140313
-0.075207911,0.041078113,0.127285197,-0.040996984,0.158976778,-0.165593326
-0.061973002,0.038499001,0.131032005,-0.040931001,0.143930003,-0.160050005
-0.057005867,0.032639630,0.135491878,-0.039028458,0.130508512,-0.153882802
-0.056906637,0.028568160,0.139180765,-0.037054528,0.123634607,-0.146828011
-0.061078906,0.028106023,0.141259789,-0.035649639,0.125920281,-0.138887778
-0.064496912,0.026024085,0.141283154,-0.033073071,0.133427411,-0.130000427
-0.068294004,0.021507001,0.140109003,-0.029832000,0.143867001,-0.119603001
-0.075930655,0.012194826,0.139582217,-0.026773518,0.152640462,-0.105098635
-0.083943188,0.002793288,0.139164433,-0.024225794,0.160354435,-0.089712448
-0.090898305,-0.004277319,0.138785988,-0.022307811,0.166850254,-0.074625455
-0.093344197,-0.005077503,0.140170887,-0.023156894,0.174456954,-0.064428285
-0.092756070,-0.001337407,0.142824724,-0.025338821,0.181850359,-0.058250550
-0.093090802,0.002945394,0.146107271,-0.025720803,0.185769513,-0.055518687
-0.090885714,0.009227157,0.148846656,-0.025430188,0.186069965,-0.050916854
-0.085352913,0.017824838,0.150257841,-0.024607996,0.182358295,-0.041958373
-0.079889938,0.025333166,0.146072417,-0.025692675,0.176839992,-0.033328541
-0.076444998,0.030710001,0.137434006,-0.028542999,0.170818001,-0.027477000
-0.079926953,0.029210299,0.125380903,-0.032942384,0.165873334,-0.030003918
-0.087389588,0.029988470,0.115463242,-0.039540559,0.167237118,-0.042629160
-0.097816870,0.036357969,0.110257812,-0.048818614,0.177941680,-0.067240790
-0.099529579,0.051738787,0.113501132,-0.057897035,0.197968304,-0.101481400
-0.095922999,0.073803000,0.123202004,-0.066393003,0.225746006,-0.140700996
-0.092918463,0.098844521,0.136556044,-0.071411207,0.260156125,-0.176615238
-0.096271962,0.126329601,0.146508530,-0.078068972,0.295100480,-0.203901649
-0.108779088,0.155593961,0.148994252,-0.087960787,0.327670038,-0.218521267
-0.126655132,0.169671357,0.142916426,-0.098703906,0.351305783,-0.217238560
-0.145508006,0.168647006,0.131472006,-0.107607998,0.363766015,-0.204015002
-0.156595469,0.147019297,0.120847605,-0.109486945,0.358091623,-0.185681343
-0.160355985,0.120748833,0.113926955,-0.105883904,0.341100514,-0.165523425
-0.155735776,0.096171781,0.112499192,-0.096626602,0.314670771,-0.145453960
-0.144475609,0.082579672,0.114268526,-0.086631775,0.286275387,-0.129286408
-0.127653003,0.077694997,0.118587002,-0.076958001,0.256610990,-0.117127001
-0.104999185,0.078843892,0.125293911,-0.070545614,0.225305244,-0.109713420
-0.083685622,0.078954957,0.131317303,-0.066115923,0.199267566,-0.105428331
-0.066978306,0.074565731,0.135672301,-0.063514039,0.182045251,-0.103682235
-0.052017003,0.066192977,0.140753627,-0.061990961,0.174087659,-0.101959541
-0.041138001,0.055831999,0.145964995,-0.060851000,0.172726005,-0.099059001
-0.041776013,0.047098123,0.149649292,-0.058423311,0.172605962,-0.091720358
-0.047229722,0.040868096,0.151629835,-0.056117162,0.175087690,-0.082811415
-0.055556200,0.037634633,0.151605561,-0.054495875,0.180384725,-0.073396213
-0.067415521,0.036351394,0.150872469,-0.053105675,0.182304606,-0.063326649
-0.077881999,0.035388999,0.149952993,-0.051662002,0.182707995,-0.053849000
-0.073425338,0.031221185,0.149829999,-0.049259104,0.186845392,-0.047929574
-0.068026550,0.029335810,0.149878204,-0.047296375,0.190773860,-0.045452982
-0.066724814,0.031821996,0.150113598,-0.046380624,0.192917377,-0.046985328
-0.066940136,0.031035651,0.150723353,-0.044707321,0.193540007,-0.052348748
-0.068017997,0.029185999,0.151786998,-0.042312998,0.192627996,-0.060148999
-0.067894593,0.032551318,0.153694123,-0.039323188,0.190167189,-0.067321427
-0.069093779,0.035712156,0.155003548,-0.034644488,0.185215086,-0.073472172
-0.072756156,0.034833997,0.155157208,-0.027737115,0.177138612,-0.078069098
-0.075390756,0.036639519,0.155269802,-0.022926036,0.163455933,-0.083602652
-0.076704003,0.040544000,0.154613003,-0.021825001,0.145940006,-0.089458004
-0.067325555,0.043153644,0.150877491,-0.029174246,0.127578095,-0.094542094
-0.055504873,0.051524162,0.146500722,-0.041719411,0.110324368,-0.098641112
-0.035256114,0.068735033,0.142356873,-0.058670685,0.095498376,-0.101462945
-0.025753066,0.087258592,0.139285699,-0.073169351,0.091494232,-0.103844479
-0.027192000,0.103500001,0.137541994,-0.083250999,0.099334002,-0.108113997
-0.038380187,0.108662367,0.137348786,-0.082865357,0.123423934,-0.119310394
-0.055047967,0.107196316,0.138139635,-0.078733906,0.159826249,-0.139188111
-0.075725988,0.100130722,0.139417619,-0.072857924,0.207548454,-0.169115350
-0.097943142,0.094285570,0.137007415,-0.066309914,0.252574384,-0.203689918
-0.121786997,0.091820002,0.131026000,-0.061299998,0.291079998,-0.238762006
-0.150876254,0.098797381,0.121498041,-0.063606590,0.313822955,-0.265914679
-0.171772093,0.111102894,0.110250756,-0.071009792,0.322752029,-0.282196015
-0.177489012,0.127583921,0.098498389,-0.082934812,0.317288011,-0.284835249
-0.165225625,0.138586268,0.091226935,-0.089686543,0.302897155,-0.277297348
-0.138989002,0.142386004,0.089101002,-0.091279000,0.282561988,-0.262327999
-0.113277569,0.132888392,0.096072398,-0.087423041,0.260665685,-0.243738204
-0.095940776,0.115730807,0.106513225,-0.080306627,0.241076037,-0.225157440
-0.091874376,0.092090704,0.118934169,-0.070628382,0.226103649,-0.208231539
-0.096863389,0.066265866,0.129847556,-0.062980399,0.215681702,-0.191379637
-0.105919003,0.040945999,0.138179004,-0.056848001,0.209203005,-0.175984994
-0.108251013,0.022826619,0.140317589,-0.050525449,0.206787080,-0.166163325
-0.105365895,0.010685559,0.140049249,-0.045389351,0.202493921,-0.158407420
-0.096994981,0.004891871,0.138650015,-0.042039048,0.193564832,-0.151644930
-0.088435933,0.002764429,0.138148203,-0.040359855,0.179525211,-0.145085812
-0.079388000,0.003323000,0.138510004,-0.039873999,0.161886007,-0.139520004
-0.069093585,0.005258729,0.140081525,-0.039956413,0.142854035,-0.137196720
-0.059950642,0.006350802,0.141207963,-0.039788239,0.125882640,-0.136750787
-0.053228900,0.005362798,0.141234189,-0.038955830,0.113085777,-0.137919366
-0.049935292,0.006660840,0.142743453,-0.036886770,0.107852899,-0.139703467
-0.049676999,0.009087000,0.145137995,-0.034483001,0.108732000,-0.140806004
-0.052703056,0.011166730,0.146615952,-0.033637814,0.113360740,-0.137411803
-0.054933954,0.012010393,0.148062870,-0.033279832,0.120672539,-0.132147253
-0.054728765,0.011411414,0.149607167,-0.033068992,0.130202591,-0.125719935
-0.058385827,0.010760773,0.150324002,-0.033974260,0.140587628,-0.119119331
-0.064645350,0.009790124,0.150943875,-0.035532847,0.151959792,-0.111920781
-0.070940919,0.007475914,0.153996468,-0.037225343,0.165271446,-0.103914782
-0.079941824,0.003992100,0.156585440,-0.037130773,0.177914634,-0.090584047
-0.092363343,-0.000909693,0.157511234,-0.034428798,0.188684717,-0.069867365
-0.098231457,0.003200423,0.152751446,-0.032181930,0.196527407,-0.050509155
-0.098939002,0.012164000,0.143399000,-0.030432001,0.200819999,-0.034439001
-0.097310483,0.014700884,0.129939124,-0.029361583,0.198783994,-0.024833892
-0.097526051,0.016762851,0.117847592,-0.031007066,0.197402209,-0.027773203
-0.101595894,0.019710213,0.109762579,-0.036495365,0.199645117,-0.047070682
-0.106285021,0.024486989,0.111061841,-0.044406973,0.207556024,-0.080225036
-0.109288000,0.034960002,0.119506001,-0.053787999,0.221305996,-0.122377999
-0.103441909,0.065362595,0.131673232,-0.062911592,0.242218047,-0.165566772
-0.096329749,0.100179225,0.144883335,-0.073139131,0.267595381,-0.202250987
-0.090427615,0.134285003,0.157401830,-0.084183775,0.296620846,-0.227864087
-0.094901994,0.161959663,0.162664860,-0.095320851,0.321606338,-0.235903189
-0.106610000,0.178313002,0.161208004,-0.104304999,0.340077013,-0.229102001
-0.121691942,0.165927052,0.153803214,-0.107908264,0.345068336,-0.211053818
-0.133381963,0.141703069,0.144472018,-0.105860502,0.339963615,-0.187909126
-0.138304204,0.110872634,0.135009617,-0.097688735,0.325295061,-0.162353843
-0.134540275,0.085713282,0.127535731,-0.087758362,0.307454616,-0.141547650
-0.123878554,0.067622066,0.122249708,-0.076919951,0.287625939,-0.125738859
-0.108102322,0.061697062,0.120281309,-0.066700578,0.266998500,-0.116211355
-0.090546034,0.060759999,0.119716994,-0.058951076,0.248949274,-0.111478545
-0.072646700,0.062380996,0.120032743,-0.054844968,0.235299110,-0.111138701
-0.057667833,0.060199030,0.123380005,-0.052594740,0.226128906,-0.108533248
-0.047111001,0.055608001,0.128563002,-0.051975001,0.220868006,-0.103968002
-0.046055749,0.051863562,0.133144453,-0.053537913,0.219439000,-0.098572426
-0.050390724,0.047126889,0.136118442,-0.053735968,0.219295397,-0.091216221
-0.059288666,0.040259436,0.136788413,-0.051226828,0.219449952,-0.081534594
-0.067096137,0.034733664,0.136617243,-0.049988627,0.218540683,-0.071559817
-0.072416000,0.028983001,0.136471003,-0.048919000,0.215775996,-0.061553001
-0.071040571,0.017587310,0.138103157,-0.044962116,0.208779499,-0.051723227
-0.065751858,0.010302926,0.141368881,-0.040850926,0.200806841,-0.044049874
-0.057136379,0.011120924,0.146414489,-0.037559841,0.192924589,-0.039906032
-0.048952669,0.018023200,0.151577815,-0.036571205,0.181951284,-0.040065084
-0.041886002,0.027476000,0.156734005,-0.037514001,0.170148998,-0.044870000
-0.037846014,0.032738075,0.161829889,-0.040811192,0.163915277,-0.056208655
-0.034491122,0.035897031,0.166034490,-0.040208716,0.156977430,-0.071006119
-0.031133417,0.034801979,0.168872774,-0.032698371,0.146933272,-0.087926492
-0.032645486,0.036853552,0.168995768,-0.023181945,0.130210370,-0.100662835
-0.038004000,0.041912999,0.166207001,-0.016431000,0.110235997,-0.109265000
-0.041500330,0.050771017,0.158759236,-0.025068641,0.094092742,-0.113438144
-0.039197661,0.060617995,0.149182603,-0.040658355,0.083728053,-0.114935018
-0.028266968,0.070566967,0.138347402,-0.060918599,0.081253693,-0.114569813
-0.024017550,0.084904902,0.129555479,-0.080726221,0.091664061,-0.113824554
-0.026272999,0.098890997,0.123419002,-0.095486000,0.114619002,-0.114982001
-0.036118671,0.100574315,0.121912599,-0.092506766,0.152532220,-0.122650325
-0.050666515,0.092360526,0.121875599,-0.081076518,0.197810158,-0.140809089
-0.069184534,0.074632123,0.122052021,-0.063450351,0.247375488,-0.171762109
-0.095335707,0.060481478,0.120540708,-0.046617918,0.287683666,-0.209286481
-0.126858994,0.052285001,0.116080001,-0.033479001,0.318253994,-0.248745993
-0.161031500,0.056033477,0.105062112,-0.031390883,0.337337881,-0.280873656
-0.180415764,0.068321742,0.093678385,-0.038985450,0.343158782,-0.303298771
-0.183144718,0.088745646,0.084701404,-0.056540772,0.334593505,-0.313355446
-0.163123071,0.104296327,0.082698941,-0.072148301,0.318316609,-0.310466945
-0.128832996,0.111877002,0.086870000,-0.083355002,0.296395987,-0.298655003
-0.091684893,0.103063419,0.098274842,-0.084436506,0.271459669,-0.285146594
-0.064153790,0.083089098,0.111861482,-0.079857871,0.246067300,-0.271415114
-0.053842425,0.052932583,0.126189947,-0.070842966,0.222035259,-0.258421063
-0.059832498,0.026083166,0.136785656,-0.063423611,0.201090395,-0.244382694
-0.074533999,0.003566000,0.143418998,-0.058065999,0.183754995,-0.229817003
-0.080652192,-0.010463031,0.143375665,-0.056349963,0.171847999,-0.216138780
-0.077983215,-0.017820435,0.140870631,-0.055557474,0.161678821,-0.202502936
-0.064125441,-0.018490808,0.137379065,-0.054627836,0.151881814,-0.188636646
-0.054331236,-0.017955560,0.134495899,-0.052517094,0.140578702,-0.177810818
-0.048020002,-0.017549001,0.132599995,-0.048937000,0.128542006,-0.169701993
-0.046160363,-0.019443553,0.132624850,-0.042720761,0.117191158,-0.162996650
-0.045513123,-0.022751877,0.134292394,-0.035156049,0.108720951,-0.159324929
-0.044977210,-0.027619537,0.137597755,-0.026658760,0.104468420,-0.159345016
-0.045324054,-0.029753244,0.139427647,-0.019342922,0.106925040,-0.157117069
-0.047642000,-0.030833000,0.140051007,-0.013296000,0.114127003,-0.152058005
-0.052318372,-0.033072904,0.139560431,-0.008629148,0.122152239,-0.142989442
-0.058232524,-0.035135038,0.139076993,-0.006785396,0.131349996,-0.129955292
-0.064808056,-0.036497772,0.139068767,-0.008459553,0.141691983,-0.112797685
-0.072864361,-0.038062856,0.141458347,-0.010959117,0.153208688,-0.101823270
-0.081242003,-0.040134002,0.146139994,-0.013895000,0.166539997,-0.096901000
-0.087705761,-0.045521200,0.153898448,-0.016672490,0.183944046,-0.099636607
-0.093050696,-0.044691082,0.162125960,-0.019346252,0.201715559,-0.102704838
-0.097421348,-0.033597920,0.169746131,-0.021937748,0.218055561,-0.102901280
-0.098170459,-0.012847413,0.168906480,-0.024114292,0.226358742,-0.094262615
-0.095911004,0.010303000,0.159961000,-0.026177000,0.227829993,-0.079641998
-0.089424483,0.018949855,0.140953094,-0.029496036,0.224197835,-0.063677825
-0.086753428,0.017767673,0.120625608,-0.034755129,0.217918247,-0.052969456
-0.091587447,0.007066518,0.102833651,-0.042508237,0.210128874,-0.051463269
-0.101661995,0.006961870,0.094928391,-0.051219821,0.209884405,-0.063989632
-0.112649001,0.015542000,0.095473997,-0.059245002,0.218061000,-0.088861004
-0.114271656,0.029242706,0.103283778,-0.062107943,0.238009989,-0.125375956
-0.111412972,0.051410794,0.113553755,-0.063290931,0.265270799,-0.165785879
-0.105056286,0.083678544,0.124222636,-0.064292930,0.298424721,-0.206676662
-0.102742039,0.116038978,0.130531743,-0.069474570,0.333071768,-0.239255637
-0.105392002,0.143809006,0.132010996,-0.078006998,0.364252001,-0.260661006
-0.118112504,0.157053560,0.126052916,-0.089533687,0.380012512,-0.262760997
-0.130344391,0.151907668,0.119943358,-0.097466603,0.382368088,-0.249726564
-0.138112932,0.124681197,0.116875425,-0.099464014,0.370622933,-0.222138017
-0.137819454,0.094542161,0.116844922,-0.097067669,0.350606084,-0.189768121
-0.130824000,0.066368997,0.119250998,-0.091334000,0.325044006,-0.155486003
-0.118263185,0.052103162,0.123520799,-0.081997812,0.298232287,-0.124665767
-0.104101941,0.048325475,0.128185630,-0.073614746,0.273370683,-0.100152493
-0.090214439,0.055281926,0.132663935,-0.068095498,0.252464384,-0.084184237
-0.080337480,0.053626932,0.134967849,-0.064123064,0.236816466,-0.076030821
-0.074445471,0.047045566,0.136247844,-0.061759185,0.226324901,-0.073758148
-0.073470972,0.044935659,0.139007270,-0.061559379,0.221799076,-0.074281730
-0.073806994,0.042403527,0.142263874,-0.061570391,0.221090406,-0.076129645
-0.073962957,0.038281452,0.145736143,-0.060881618,0.223413378,-0.078181595
-0.078340195,0.037549119,0.148380265,-0.060139447,0.223087698,-0.076581605
-0.084811002,0.039193001,0.150244996,-0.059140999,0.220948994,-0.071382999
-0.088670269,0.040420763,0.151452571,-0.057275686,0.219203487,-0.061007462
-0.091934465,0.040711392,0.151594788,-0.055399165,0.216406733,-0.052650686
-0.094721340,0.039923027,0.150487453,-0.053861000,0.212075770,-0.049498014
-0.092540696,0.040802911,0.151171699,-0.051954731,0.207487896,-0.048560590
-0.087150998,0.042112000,0.152808994,-0.050028000,0.202617005,-0.049215000
-0.082089186,0.040301457,0.153351188,-0.049012028,0.196840405,-0.050284535
-0.079027325,0.040396854,0.153345823,-0.048601199,0.193833470,-0.052104458
-0.079166189,0.049156871,0.152874604,-0.048737831,0.195270151,-0.054933675
-0.080168709,0.053618424,0.152945384,-0.045508895,0.197977781,-0.063762091
-0.082397997,0.056479000,0.153864995,-0.039494000,0.199842006,-0.078628004
-0.086785801,0.049461596,0.156688869,-0.029598400,0.196039468,-0.100810200
