Han-tp28/mjlab/export/vr_m3_1_mode2_csv/walk_forward_amateur_001__A001/joint_pos.csv
joint_0,joint_1,joint_2,joint_3,joint_4,joint_5,joint_6,joint_7,joint_8,joint_9,joint_10,joint_11,joint_12,joint_13,joint_14,joint_15,joint_16,joint_17,joint_18,joint_19,joint_20,joint_21,joint_22,joint_23,joint_24,joint_25,joint_26,joint_27,joint_28
0.030982999,0.120256998,0.161522001,0.154403001,-0.161542997,-0.083394997,0.037027001,-0.075765997,-0.282211989,0.121358000,-0.156069994,0.060148999,-0.054813001,1.344547033,1.614097953,1.198963046,1.278305054,-0.185038000,-0.190863997,0.052469000,0.525748014,-1.691781044,-0.504335999,1.391219974,0.014248000,-0.007200000,-0.038513999,0.000000000,0.000000000
0.031501599,0.120243795,0.161763400,0.153266802,-0.161187202,-0.084000200,0.037039600,-0.075599000,-0.281279206,0.121245399,-0.158177793,0.059515201,-0.054815598,1.344552040,1.614066124,1.198961020,1.278301954,-0.185038000,-0.190859392,0.052467003,0.525747180,-1.691648722,-0.504336417,1.391220450,0.014247600,-0.007200000,-0.038513198,0.000000000,0.000000000
0.031929400,0.120230794,0.161756605,0.152381212,-0.160646588,-0.084122002,0.037115999,-0.075426601,-0.280812413,0.121178001,-0.159294397,0.058991402,-0.054821603,1.344563365,1.614017248,1.198954344,1.278295398,-0.185038000,-0.190848589,0.052461199,0.525745988,-1.691435456,-0.504337013,1.391222715,0.014246000,-0.007200800,-0.038511999,0.000000000,0.000000000
0.031071998,0.120243602,0.161291003,0.153908789,-0.160741597,-0.083354600,0.037047002,-0.075397797,-0.281017393,0.121225797,-0.158659607,0.058739398,-0.054850001,1.344614625,1.613891125,1.198920012,1.278262854,-0.185037002,-0.190804407,0.052436002,0.525751412,-1.690836549,-0.504330575,1.391226292,0.014234601,-0.007208200,-0.038506798,0.000000000,0.000000000
0.030768000,0.120260194,0.161261201,0.154405400,-0.160896987,-0.083392598,0.036942601,-0.075455599,-0.281271219,0.121273398,-0.157579795,0.059900600,-0.054865204,1.344631672,1.613846302,1.198909163,1.278244615,-0.185038000,-0.190788001,0.052421801,0.525754571,-1.690601707,-0.504327416,1.391227007,0.014227599,-0.007211600,-0.038504999,0.000000000,0.000000000
0.030212000,0.120439000,0.161419004,0.155647993,-0.161799997,-0.083913997,0.036869001,-0.075502999,-0.281448990,0.121310003,-0.156731993,0.061120000,-0.054882001,1.344638944,1.613813996,1.198905945,1.278224945,-0.185039997,-0.190779999,0.052406002,0.525753021,-1.690418005,-0.504328012,1.391226053,0.014220000,-0.007214000,-0.038504001,0.000000000,0.000000000
0.030301601,0.120505802,0.161558807,0.155442595,-0.161456794,-0.084015399,0.036819801,-0.075439401,-0.281143010,0.121253997,-0.157897800,0.058309000,-0.054918200,1.344658613,1.613743424,1.198895216,1.278172493,-0.185053200,-0.190756798,0.052363198,0.525746644,-1.689994574,-0.504333615,1.391217470,0.014199800,-0.007218000,-0.038504802,0.000000000,0.000000000
0.030268800,0.120491594,0.161502197,0.155518383,-0.161222190,-0.083797805,0.036834400,-0.075464398,-0.281093597,0.121234603,-0.158374786,0.056807399,-0.054953203,1.344685555,1.613668919,1.198876739,1.278113842,-0.185072199,-0.190724805,0.052316800,0.525736988,-1.689547062,-0.504341245,1.391205907,0.014177800,-0.007222800,-0.038506802,0.000000000,0.000000000
0.029305801,0.120574594,0.161096394,0.157363400,-0.161824614,-0.083394401,0.036812201,-0.075538002,-0.281580597,0.121315196,-0.157066599,0.058394201,-0.054985203,1.344716668,1.613596678,1.198851466,1.278050184,-0.185104191,-0.190686807,0.052265402,0.525717020,-1.689113855,-0.504359186,1.391190529,0.014154000,-0.007219800,-0.038510598,0.000000000,0.000000000
0.029871600,0.120496601,0.161253005,0.156057000,-0.161101401,-0.083650395,0.036807001,-0.075486198,-0.281738997,0.121308595,-0.157088190,0.058752395,-0.055045001,1.344791770,1.613444328,1.198789358,1.277909756,-0.185177997,-0.190601200,0.052154601,0.525659442,-1.688218832,-0.504410982,1.391151667,0.014098000,-0.007202800,-0.038522199,0.000000000,0.000000000
0.030739000,0.120398000,0.161587000,0.154045001,-0.160175994,-0.084177002,0.036752999,-0.075383000,-0.281610012,0.121270999,-0.157947004,0.058277000,-0.055066999,1.344845057,1.613348961,1.198747039,1.277837992,-0.185203001,-0.190548003,0.052103002,0.525618017,-1.687684059,-0.504449010,1.391127944,0.014066000,-0.007189000,-0.038530000,0.000000000,0.000000000
0.030875800,0.120429799,0.161472201,0.153749198,-0.159860611,-0.084327400,0.036684602,-0.075277999,-0.280964792,0.121224806,-0.158631593,0.057409000,-0.055083800,1.344880581,1.613293171,1.198720455,1.277796388,-0.185209811,-0.190514803,0.052072600,0.525591016,-1.687361360,-0.504474998,1.391117334,0.014044600,-0.007178199,-0.038531002,0.000000000,0.000000000
0.031797200,0.120462999,0.160356611,0.154568404,-0.160119191,-0.084387600,0.038334601,-0.075330399,-0.281455398,0.121563405,-0.158736601,0.057389997,-0.055104602,1.346941590,1.612132788,1.199698448,1.271650314,-0.187998012,-0.183801785,0.045408189,0.523004651,-1.683166265,-0.504895568,1.388304591,0.006379589,-0.007764001,-0.035923395,0.000000000,0.000000000
0.032088604,0.120465800,0.160265803,0.154445201,-0.160223007,-0.084322602,0.038603198,-0.075479999,-0.282070786,0.121733002,-0.157005996,0.058824200,-0.055113200,1.347439408,1.611809373,1.199960828,1.270116448,-0.188706607,-0.182136402,0.043740202,0.522362411,-1.682039618,-0.504997611,1.387602925,0.004471200,-0.007913200,-0.035273202,0.000000000,0.000000000
0.032733798,0.120439596,0.160383806,0.152887195,-0.159181595,-0.084510595,0.038525600,-0.075375602,-0.281956613,0.121726997,-0.157021001,0.058329403,-0.055154402,1.347422361,1.611723542,1.199980259,1.270069361,-0.188750803,-0.182141811,0.043692399,0.522341013,-1.681677341,-0.505019009,1.387601972,0.004473600,-0.007901400,-0.035275001,0.000000000,0.000000000
0.033798002,0.120336004,0.160479993,0.150447994,-0.157533005,-0.084843002,0.038500998,-0.075199999,-0.281605005,0.121661000,-0.158094004,0.056775000,-0.055202000,1.347412944,1.611644030,1.199993014,1.270019054,-0.188789994,-0.182150006,0.043639999,0.522312999,-1.681313038,-0.505047977,1.387604952,0.004479000,-0.007884000,-0.035273001,0.000000000,0.000000000
0.034338001,0.120327398,0.160615802,0.149116799,-0.156741589,-0.085230798,0.038397603,-0.075202204,-0.281766415,0.121671394,-0.158158004,0.055678800,-0.055261400,1.347408056,1.611548424,1.199998021,1.269952297,-0.188842803,-0.182156801,0.043575197,0.522265017,-1.680868626,-0.505095959,1.387609363,0.004490000,-0.007851000,-0.035271000,0.000000000,0.000000000
0.030083001,0.121819600,0.159563199,0.152705610,-0.158001408,-0.085548997,0.036306601,-0.074034199,-0.282726228,0.121443003,-0.157105193,0.055957001,-0.055767000,1.348996162,1.610190868,1.201318979,1.268777013,-0.199092001,-0.183801994,0.031927001,0.518233001,-1.676784992,-0.505850971,1.388133049,0.006738000,-0.003077000,-0.036566000,0.000000000,0.000000000
0.028807599,0.122018598,0.159382597,0.155294597,-0.159202203,-0.085186802,0.036135800,-0.074024200,-0.282561004,0.121513605,-0.155471802,0.059019998,-0.055774000,1.348991513,1.610108614,1.201330543,1.268776774,-0.199097589,-0.183809802,0.031925797,0.518227220,-1.676555753,-0.505859196,1.388137817,0.006742600,-0.003072400,-0.036562603,0.000000000,0.000000000
0.029260602,0.121944003,0.159512401,0.154192001,-0.158479199,-0.085317194,0.036140598,-0.073916405,-0.282424182,0.121465005,-0.156262606,0.058433004,-0.055788200,1.348990202,1.609997988,1.201344848,1.268776059,-0.199099198,-0.183816001,0.031922199,0.518212557,-1.676239491,-0.505877972,1.388149619,0.006752000,-0.003060800,-0.036554597,0.000000000,0.000000000
0.030283000,0.121802002,0.159705997,0.151760995,-0.157067001,-0.085679002,0.036143001,-0.073776998,-0.282382011,0.121385999,-0.157915995,0.056044001,-0.055801999,1.348999977,1.609912038,1.201347947,1.268774986,-0.199089006,-0.183809996,0.031916998,0.518190980,-1.675979018,-0.505903006,1.388164043,0.006762000,-0.003043000,-0.036545001,0.000000000,0.000000000
0.029871602,0.121852204,0.159399807,0.152527392,-0.157298595,-0.085725799,0.035959799,-0.073955402,-0.282657385,0.121468395,-0.156217799,0.056477800,-0.055824399,1.349011183,1.609803677,1.201351166,1.268776417,-0.199081808,-0.183797002,0.031915400,0.518155992,-1.675659180,-0.505943179,1.388188839,0.006772600,-0.003015600,-0.036526799,0.000000000,0.000000000
0.029328000,0.121977203,0.159129202,0.153658614,-0.157676190,-0.085637800,0.035835601,-0.074012399,-0.282729000,0.121525794,-0.154757395,0.057173997,-0.055866402,1.349012375,1.609658599,1.201363921,1.268774629,-0.199095815,-0.183787003,0.031918600,0.518107951,-1.675252199,-0.506000817,1.388227940,0.006781200,-0.002979400,-0.036497600,0.000000000,0.000000000
0.029126201,0.122032002,0.159103602,0.153949589,-0.157582000,-0.085351795,0.035750400,-0.073878601,-0.282393783,0.121527202,-0.154761598,0.057479199,-0.055905402,1.349004030,1.609557152,1.201380372,1.268766403,-0.199110597,-0.183788002,0.031918000,0.518071651,-1.674961329,-0.506044626,1.388256431,0.006784000,-0.002952400,-0.036476400,0.000000000,0.000000000
0.029791001,0.121944003,0.159329206,0.152380601,-0.156497389,-0.085456997,0.035732400,-0.073830999,-0.282353401,0.121474601,-0.155787796,0.056122396,-0.055974200,1.348986983,1.609418154,1.201409578,1.268740416,-0.199129000,-0.183795005,0.031907000,0.518011391,-1.674540043,-0.506116211,1.388295054,0.006782000,-0.002910400,-0.036444400,0.000000000,0.000000000
0.030249000,0.121968001,0.159550995,0.151330993,-0.155796006,-0.085825004,0.035778999,-0.073757000,-0.282481015,0.121416003,-0.156966999,0.054513000,-0.056005001,1.348989010,1.609366059,1.201416016,1.268723965,-0.199122995,-0.183789000,0.031897001,0.517982006,-1.674360037,-0.506151974,1.388308048,0.006778000,-0.002892000,-0.036433000,0.000000000,0.000000000
0.029840000,0.122060202,0.159612805,0.152144194,-0.156259194,-0.086232200,0.035659801,-0.073678799,-0.282192171,0.121483207,-0.155532390,0.056615803,-0.056048200,1.348991990,1.609310389,1.201422572,1.268693805,-0.199112996,-0.183780804,0.031876199,0.517944217,-1.674139619,-0.506193995,1.388317823,0.006770000,-0.002870000,-0.036422800,0.000000000,0.000000000
0.029354801,0.122178003,0.159529597,0.153050795,-0.156574994,-0.086284205,0.035564199,-0.073574200,-0.282051623,0.121530600,-0.154349595,0.057877999,-0.056094997,1.348991275,1.609266281,1.201431036,1.268653393,-0.199105591,-0.183777198,0.031850800,0.517914772,-1.673935413,-0.506228805,1.388318419,0.006761800,-0.002853400,-0.036419198,0.000000000,0.000000000
0.029077601,0.122177996,0.159317598,0.153432190,-0.156231612,-0.085654795,0.035538800,-0.073567003,-0.282236993,0.121532202,-0.154359192,0.056731604,-0.056151599,1.348987818,1.609224200,1.201441646,1.268596411,-0.199094594,-0.183774978,0.031814396,0.517890155,-1.673706055,-0.506258011,1.388310432,0.006752800,-0.002839600,-0.036420200,0.000000000,0.000000000
0.029769398,0.122109801,0.159579799,0.151903600,-0.155277207,-0.085738003,0.035561398,-0.073519200,-0.282583207,0.121492207,-0.155225992,0.055253200,-0.056193601,1.348980188,1.609194517,1.201455116,1.268551230,-0.199090004,-0.183776617,0.031788800,0.517876625,-1.673541307,-0.506273389,1.388298512,0.006747400,-0.002833400,-0.036424197,0.000000000,0.000000000
0.030580999,0.122065999,0.160010993,0.150222003,-0.154502004,-0.086235002,0.035564002,-0.073475003,-0.282869011,0.121463999,-0.156173006,0.054033998,-0.056233000,1.348961949,1.609158993,1.201475978,1.268507957,-0.199094996,-0.183780998,0.031769000,0.517862022,-1.673375010,-0.506290019,1.388283014,0.006741000,-0.002827000,-0.036431000,0.000000000,0.000000000
0.030315202,0.122252800,0.159958392,0.150770202,-0.154887006,-0.086498395,0.035405200,-0.073439002,-0.282477200,0.121501610,-0.154943585,0.054736000,-0.056278601,1.348937750,1.609119415,1.201502562,1.268457174,-0.199105397,-0.183788002,0.031747200,0.517844439,-1.673191428,-0.506308973,1.388263941,0.006735200,-0.002818400,-0.036436800,0.000000000,0.000000000
0.030086402,0.122336999,0.159733012,0.151156411,-0.154892802,-0.086426996,0.035292599,-0.073397599,-0.282109797,0.121517807,-0.154298604,0.055324201,-0.056337997,1.348906755,1.609073758,1.201536298,1.268391609,-0.199122608,-0.183799982,0.031716600,0.517823637,-1.672963142,-0.506332994,1.388241053,0.006731200,-0.002807000,-0.036442399,0.000000000,0.000000000
0.030015802,0.122304402,0.159360409,0.151117802,-0.154311404,-0.085960403,0.035329398,-0.073278196,-0.282057405,0.121467397,-0.155321807,0.055076599,-0.056372002,1.348889470,1.609049082,1.201555610,1.268354774,-0.199130595,-0.183805615,0.031699397,0.517812252,-1.672835588,-0.506344855,1.388226628,0.006732200,-0.002801600,-0.036446601,0.000000000,0.000000000
0.029999800,0.122339599,0.159327403,0.151096195,-0.154187411,-0.086057603,0.035297602,-0.073223799,-0.282034576,0.121483594,-0.155104205,0.055429600,-0.056421801,1.348867416,1.609019518,1.201579213,1.268300533,-0.199139804,-0.183810592,0.031673998,0.517799616,-1.672657967,-0.506358385,1.388208032,0.006735200,-0.002796400,-0.036453199,0.000000000,0.000000000
0.028262014,0.124127984,0.160187006,0.154883966,-0.156315982,-0.086881995,0.034735005,-0.071771018,-0.280997008,0.121435001,-0.153998002,0.055571999,-0.058611985,1.346685052,1.607898951,1.203995943,1.262225032,-0.196331009,-0.180766016,0.031097006,0.513862014,-1.669756055,-0.507417023,1.381407142,0.010270973,-0.003438995,-0.033379026,0.000000000,0.000000000
0.028116200,0.124231197,0.160374001,0.155249208,-0.156663597,-0.086748794,0.034649201,-0.071707599,-0.280617207,0.121413410,-0.154062390,0.056104802,-0.058612399,1.346685410,1.607882977,1.203998804,1.262225032,-0.196330607,-0.180765599,0.031097002,0.513860166,-1.669714451,-0.507419825,1.381407380,0.010272000,-0.003439000,-0.033379000,0.000000000,0.000000000
0.027942602,0.124193199,0.160321996,0.155435592,-0.156522200,-0.086562805,0.034562599,-0.071777396,-0.280656815,0.121405996,-0.154252008,0.055441596,-0.058615599,1.346689582,1.607842803,1.204002738,1.262223244,-0.196328998,-0.180762410,0.031096000,0.513853610,-1.669611812,-0.507428229,1.381410599,0.010273799,-0.003437200,-0.033376202,0.000000000,0.000000000
0.028301802,0.124080203,0.159963995,0.154533193,-0.155396000,-0.086642191,0.034668002,-0.071854800,-0.281418800,0.121411204,-0.154551402,0.053008400,-0.058624998,1.346697807,1.607758522,1.204010606,1.262216449,-0.196335793,-0.180752188,0.031094801,0.513845384,-1.669395924,-0.507441998,1.381416321,0.010280799,-0.003436000,-0.033371598,0.000000000,0.000000000
0.028029997,0.124162197,0.160252199,0.155094594,-0.155831009,-0.086972594,0.034580402,-0.071827203,-0.281205624,0.121421203,-0.154189005,0.053911991,-0.058635399,1.346704960,1.607699156,1.204014182,1.262207747,-0.196341798,-0.180744588,0.031089999,0.513839602,-1.669234753,-0.507450640,1.381420135,0.010289000,-0.003436000,-0.033368401,0.000000000,0.000000000
0.027868999,0.124283001,0.160690993,0.155474007,-0.156377003,-0.087066002,0.034439001,-0.071679004,-0.280544996,0.121432997,-0.153556004,0.056340002,-0.058644999,1.346709967,1.607666969,1.204015970,1.262199044,-0.196343005,-0.180740997,0.031082001,0.513836026,-1.669134021,-0.507457018,1.381422997,0.010295000,-0.003435000,-0.033367999,0.000000000,0.000000000
0.026039999,0.124181196,0.159357801,0.158931196,-0.156871796,-0.084751204,0.034465201,-0.071702003,-0.280764818,0.121446200,-0.153265804,0.055981997,-0.058655400,1.346715212,1.607640505,1.204017878,1.262190819,-0.196339399,-0.180738598,0.031074401,0.513833582,-1.669048548,-0.507461786,1.381427169,0.010300600,-0.003435400,-0.033366200,0.000000000,0.000000000
0.025844598,0.124078400,0.158975393,0.159290805,-0.156543195,-0.084030807,0.034516402,-0.071701005,-0.280828208,0.121432997,-0.153744206,0.054956403,-0.058679599,1.346728802,1.607565284,1.204026818,1.262177944,-0.196320191,-0.180731192,0.031057201,0.513831973,-1.668815851,-0.507469773,1.381441593,0.010317600,-0.003440000,-0.033355203,0.000000000,0.000000000
0.028400196,0.124056399,0.160456792,0.154148012,-0.155074999,-0.086481191,0.034472402,-0.071617797,-0.280516028,0.121357597,-0.155258790,0.053862002,-0.058686201,1.346730232,1.607541084,1.204030037,1.262175798,-0.196318194,-0.180730015,0.031054800,0.513831019,-1.668747544,-0.507472157,1.381446123,0.010321200,-0.003440000,-0.033350799,0.000000000,0.000000000
0.028383799,0.124150999,0.160672009,0.154202014,-0.155344799,-0.087134399,0.034440398,-0.071673997,-0.280643821,0.121389806,-0.154495195,0.054365002,-0.058691800,1.346730947,1.607518911,1.204032540,1.262173414,-0.196322799,-0.180729404,0.031052399,0.513831019,-1.668691039,-0.507474005,1.381450653,0.010324599,-0.003440000,-0.033347402,0.000000000,0.000000000
0.027609000,0.124225996,0.160218999,0.155653000,-0.155664995,-0.086741000,0.034375999,-0.071749002,-0.281013012,0.121487997,-0.152608007,0.055335000,-0.058715999,1.346734047,1.607442975,1.204041004,1.262156010,-0.196355000,-0.180726007,0.031036001,0.513832986,-1.668483019,-0.507477999,1.381464005,0.010342000,-0.003444000,-0.033335000,0.000000000,0.000000000
0.028280396,0.124081194,0.160237804,0.154226601,-0.155062407,-0.086985394,0.034344200,-0.071805000,-0.281222194,0.121464998,-0.152849004,0.054073803,-0.058732800,1.346734524,1.607387424,1.204048872,1.262144208,-0.196377203,-0.180723995,0.031023599,0.513832986,-1.668330312,-0.507481396,1.381472349,0.010352800,-0.003446400,-0.033327602,0.000000000,0.000000000
0.028147401,0.124065802,0.160283804,0.154536992,-0.155332997,-0.087003395,0.034324996,-0.071870402,-0.281389773,0.121462800,-0.152996406,0.053513400,-0.058739200,1.346733093,1.607358575,1.204055190,1.262139559,-0.196384400,-0.180723995,0.031018600,0.513831198,-1.668254375,-0.507485569,1.381476402,0.010357399,-0.003447000,-0.033324398,0.000000000,0.000000000
0.027529601,0.124208003,0.160402402,0.155775607,-0.155789599,-0.086591795,0.034268599,-0.071864203,-0.281514198,0.121498398,-0.152278990,0.054631405,-0.058745399,1.346734166,1.607331634,1.204061508,1.262135029,-0.196385980,-0.180724397,0.031013601,0.513830006,-1.668179989,-0.507488608,1.381479859,0.010361800,-0.003447400,-0.033320002,0.000000000,0.000000000
0.027429599,0.124246202,0.160528198,0.155997008,-0.155798808,-0.086534396,0.034295000,-0.071868002,-0.281258404,0.121485204,-0.152511194,0.055438001,-0.058758199,1.346733451,1.607268214,1.204078794,1.262125373,-0.196387604,-0.180728614,0.031000398,0.513827384,-1.668004155,-0.507496178,1.381486654,0.010370599,-0.003450000,-0.033311397,0.000000000,0.000000000
0.027687000,0.124293998,0.160595000,0.155359998,-0.155451000,-0.086822003,0.034299001,-0.071760997,-0.280826986,0.121444002,-0.153356001,0.055720001,-0.058759000,1.346732974,1.607262015,1.204081059,1.262123942,-0.196389005,-0.180729002,0.030998999,0.513827026,-1.667986989,-0.507497013,1.381487012,0.010371000,-0.003450000,-0.033310998,0.000000000,0.000000000
0.027757801,0.124171600,0.160409197,0.155090794,-0.155155391,-0.086871400,0.034238201,-0.071707599,-0.280570209,0.121404395,-0.153592199,0.055278204,-0.058761999,1.346723557,1.607224226,1.204098344,1.262120605,-0.196391612,-0.180738002,0.030995000,0.513822019,-1.667892218,-0.507503986,1.381487012,0.010375399,-0.003448000,-0.033309001,0.000000000,0.000000000
0.027913399,0.124105603,0.160355389,0.154696405,-0.154874191,-0.086892396,0.034171000,-0.071723200,-0.280638605,0.121439204,-0.153245807,0.054682601,-0.058761999,1.346716642,1.607192397,1.204114437,1.262118220,-0.196384609,-0.180748001,0.030991400,0.513819218,-1.667807102,-0.507507622,1.381486177,0.010380400,-0.003448000,-0.033308201,0.000000000,0.000000000
0.027693400,0.124189802,0.160531595,0.155126601,-0.155143410,-0.086842202,0.034117799,-0.071898401,-0.281120002,0.121498004,-0.152103007,0.054220803,-0.058764201,1.346708298,1.607151628,1.204133391,1.262112379,-0.196383595,-0.180759996,0.030985400,0.513818979,-1.667696953,-0.507510006,1.381484747,0.010388800,-0.003449200,-0.033306800,0.000000000,0.000000000
0.027935598,0.124173805,0.160586596,0.154577002,-0.154836208,-0.086818196,0.034099400,-0.071887404,-0.281090617,0.121484600,-0.152376592,0.054205798,-0.058766000,1.346698046,1.607110262,1.204151750,1.262105227,-0.196390212,-0.180772603,0.030979801,0.513818383,-1.667587042,-0.507511616,1.381482363,0.010397400,-0.003451000,-0.033305399,0.000000000,0.000000000
0.028010000,0.124123000,0.160518005,0.154388994,-0.154728994,-0.086809002,0.034104001,-0.071817003,-0.280755013,0.121436998,-0.153328001,0.054648999,-0.058766000,1.346690059,1.607084990,1.204164982,1.262102008,-0.196392998,-0.180782005,0.030978000,0.513817012,-1.667521000,-0.507514000,1.381479979,0.010403000,-0.003451000,-0.033305001,0.000000000,0.000000000
0.027483199,0.124163806,0.160389200,0.155338794,-0.155115992,-0.086809196,0.034043401,-0.071818396,-0.280602813,0.121454805,-0.152831003,0.055681400,-0.058761001,1.346675038,1.607030630,1.204192400,1.262099028,-0.196393996,-0.180801004,0.030975997,0.513813019,-1.667386174,-0.507517993,1.381474972,0.010414000,-0.003451000,-0.033305999,0.000000000,0.000000000
0.027576201,0.124162003,0.160431996,0.155151799,-0.155107394,-0.087057807,0.034062799,-0.071832202,-0.280644596,0.121467404,-0.152371392,0.056183998,-0.058755599,1.346669555,1.606998444,1.204205632,1.262096286,-0.196389616,-0.180810988,0.030974202,0.513813972,-1.667300224,-0.507516980,1.381469607,0.010424000,-0.003452800,-0.033307798,0.000000000,0.000000000
0.027916800,0.124127202,0.160626397,0.154416591,-0.154967204,-0.087591797,0.034072801,-0.071901605,-0.280943811,0.121481001,-0.152278602,0.055653200,-0.058746602,1.346665978,1.606952190,1.204221606,1.262090802,-0.196380600,-0.180823594,0.030970000,0.513811827,-1.667171717,-0.507519245,1.381459594,0.010439800,-0.003453000,-0.033312201,0.000000000,0.000000000
0.028287601,0.124086395,0.160729796,0.153574407,-0.154411003,-0.087459601,0.034027800,-0.071866602,-0.280769795,0.121458799,-0.152737603,0.055233605,-0.058741800,1.346665382,1.606931686,1.204227805,1.262088299,-0.196375191,-0.180829197,0.030968400,0.513809383,-1.667113543,-0.507520616,1.381455779,0.010447200,-0.003453000,-0.033314001,0.000000000,0.000000000
0.028097000,0.124089003,0.160646006,0.153937995,-0.154336005,-0.086988002,0.034007002,-0.071811996,-0.280481011,0.121421002,-0.153306007,0.055025000,-0.058735002,1.346665025,1.606902957,1.204236031,1.262084961,-0.196365997,-0.180836007,0.030965000,0.513806999,-1.667032003,-0.507523000,1.381450057,0.010457000,-0.003454000,-0.033316001,0.000000000,0.000000000
0.027675599,0.124044195,0.160405010,0.154756799,-0.154928803,-0.087053403,0.034081399,-0.071852803,-0.281082213,0.121466592,-0.152672201,0.055467401,-0.058733195,1.346671104,1.606891394,1.204232812,1.262080908,-0.196368814,-0.180833608,0.030962000,0.513806581,-1.666995764,-0.507523000,1.381447434,0.010461600,-0.003454400,-0.033316799,0.000000000,0.000000000
0.026371000,0.123120196,0.157725990,0.153701991,-0.153754592,-0.086906999,0.033896800,-0.072653599,-0.283966601,0.121337801,-0.152778804,0.055219598,-0.059083998,1.349483013,1.605808020,1.205716014,1.256232023,-0.204302996,-0.177681997,0.029591000,0.511385024,-1.664637089,-0.508499980,1.380988955,0.016217999,-0.004993000,-0.032575998,0.000000000,0.000000000
0.026786201,0.123128608,0.157822192,0.152834594,-0.153140992,-0.086924002,0.033821799,-0.072656006,-0.283383578,0.121262208,-0.154062197,0.053280592,-0.059065003,1.349491239,1.605697155,1.205728650,1.256260395,-0.204288200,-0.177679002,0.029624799,0.511389196,-1.664459586,-0.508503020,1.380992174,0.016214600,-0.004998200,-0.032572798,0.000000000,0.000000000
0.026351396,0.123199597,0.157667994,0.153709009,-0.153448999,-0.086751804,0.033796601,-0.072642401,-0.283350587,0.121279001,-0.153849199,0.052898601,-0.059058398,1.349493027,1.605663300,1.205732584,1.256269693,-0.204282403,-0.177679002,0.029635601,0.511390984,-1.664408803,-0.508502007,1.380993962,0.016213000,-0.005000000,-0.032570999,0.000000000,0.000000000
0.026261000,0.123153001,0.157521993,0.153879002,-0.153496996,-0.086512998,0.033838000,-0.072650000,-0.283621997,0.121330999,-0.152817994,0.053738002,-0.059057999,1.349493027,1.605651975,1.205734015,1.256271005,-0.204281002,-0.177680001,0.029635999,0.511394024,-1.664387941,-0.508500993,1.380995035,0.016213000,-0.005002000,-0.032570001,0.000000000,0.000000000
0.025595602,0.123286203,0.157622397,0.155344605,-0.154661998,-0.086770803,0.033811200,-0.072688200,-0.283554196,0.121343203,-0.152496800,0.055321999,-0.059057996,1.349493027,1.605651975,1.205734015,1.256271005,-0.204281002,-0.177680001,0.029635999,0.511394024,-1.664387941,-0.508500993,1.380995035,0.016213000,-0.005002000,-0.032570001,0.000000000,0.000000000
0.026136793,0.123243600,0.157737404,0.154287010,-0.154239208,-0.086921602,0.033874400,-0.072639003,-0.283425987,0.121317804,-0.153163403,0.055352006,-0.059057999,1.349491954,1.605641842,1.205734968,1.256271005,-0.204285592,-0.177680999,0.029637000,0.511394024,-1.664372206,-0.508500993,1.380995750,0.016213000,-0.005002000,-0.032569200,0.000000000,0.000000000
0.025944799,0.123199202,0.157467008,0.154739201,-0.154115990,-0.086630598,0.034042802,-0.072567999,-0.283303797,0.121233001,-0.154996395,0.052933000,-0.059051998,1.349474788,1.605499506,1.205754995,1.256284714,-0.204342797,-0.177688003,0.029649001,0.511394203,-1.664139748,-0.508508623,1.381011486,0.016220199,-0.005000200,-0.032554600,0.000000000,0.000000000
0.026053797,0.123185195,0.157493800,0.154539809,-0.154141799,-0.086669199,0.034082398,-0.072569191,-0.283678174,0.121281594,-0.154302001,0.053833991,-0.059039004,1.349455953,1.605250955,1.205775976,1.256306052,-0.204449996,-0.177686006,0.029667001,0.511389971,-1.663730025,-0.508526027,1.381039977,0.016235000,-0.004994000,-0.032527000,0.000000000,0.000000000
0.026064003,0.122813992,0.156543002,0.155050978,-0.154528007,-0.086818002,0.034800999,-0.073059000,-0.285156012,0.121505998,-0.152541012,0.056370988,-0.059068002,1.349673033,1.604140997,1.207165003,1.255542994,-0.219207004,-0.167147994,0.027927000,0.512700975,-1.661524057,-0.508876026,1.381047010,0.017476000,-0.005078000,-0.031060001,0.000000000,0.000000000
0.026427602,0.122802198,0.156329393,0.154339403,-0.153926790,-0.087022603,0.034792401,-0.073029399,-0.284781009,0.121502399,-0.152464598,0.055907995,-0.059066799,1.349669814,1.604119301,1.207171082,1.255544662,-0.219207600,-0.167151809,0.027927801,0.512702823,-1.661486387,-0.508874178,1.381046534,0.017476801,-0.005079800,-0.031060401,0.000000000,0.000000000
0.026551001,0.122841001,0.156369403,0.154193401,-0.153813183,-0.086978793,0.034810401,-0.073018000,-0.284373581,0.121444598,-0.153387010,0.054576002,-0.059057198,1.349633455,1.604040980,1.207216382,1.255556345,-0.219202593,-0.167186797,0.027936801,0.512711823,-1.661362648,-0.508867800,1.381042361,0.017482400,-0.005087200,-0.031064400,0.000000000,0.000000000
0.026657403,0.123457000,0.157112807,0.154354602,-0.154387593,-0.086773008,0.034754802,-0.072521798,-0.283941597,0.121525794,-0.155342400,0.052724201,-0.058763999,1.349059582,1.602965832,1.208724737,1.255328178,-0.216759995,-0.180784404,0.031130198,0.513609767,-1.659365177,-0.509319186,1.379847050,0.018106801,-0.007347800,-0.032065999,0.000000000,0.000000000
0.025746197,0.123542204,0.156930402,0.156390399,-0.155596197,-0.086400405,0.034830201,-0.072572798,-0.284383804,0.121590003,-0.154572397,0.053932209,-0.058763999,1.349050760,1.602931976,1.208737850,1.255329609,-0.216762200,-0.180794194,0.031132599,0.513606787,-1.659310818,-0.509323835,1.379847050,0.018105401,-0.007344800,-0.032065999,0.000000000,0.000000000
0.025015000,0.123507999,0.156448007,0.157865003,-0.156273007,-0.086171001,0.034852002,-0.072618999,-0.284934998,0.121692002,-0.152750000,0.056225002,-0.058761001,1.349007964,1.602820992,1.208788991,1.255332947,-0.216774002,-0.180836007,0.031138999,0.513592005,-1.659142971,-0.509346008,1.379845023,0.018095000,-0.007325000,-0.032063998,0.000000000,0.000000000
0.025721796,0.123411804,0.156540811,0.156369001,-0.155414999,-0.086593002,0.034826402,-0.072527997,-0.284253389,0.121587403,-0.154302195,0.054614805,-0.058757201,1.349001050,1.602783203,1.208801627,1.255333424,-0.216766402,-0.180846602,0.031139599,0.513580203,-1.659083843,-0.509359658,1.379842639,0.018086601,-0.007315000,-0.032063000,0.000000000,0.000000000
0.026280802,0.123272598,0.156298205,0.156147599,-0.155371591,-0.086859599,0.035310198,-0.072587006,-0.283835202,0.121638797,-0.155466810,0.054042995,-0.058150999,1.354072094,1.601760149,1.209370017,1.252091169,-0.202912003,-0.188253999,0.030772001,0.511686981,-1.657279015,-0.510254025,1.378145933,0.011131000,-0.003347000,-0.030525001,0.000000000,0.000000000
0.025954399,0.123305202,0.156105593,0.156810790,-0.155701205,-0.086832598,0.035332799,-0.072628401,-0.283989996,0.121688396,-0.154448196,0.055943187,-0.058146801,1.354071736,1.601745963,1.209372640,1.252088547,-0.202913001,-0.188253805,0.030771600,0.511682391,-1.657255411,-0.510259628,1.378140211,0.011128200,-0.003344000,-0.030530199,0.000000000,0.000000000
0.026292399,0.122820005,0.156547397,0.155594602,-0.155202806,-0.086547598,0.035108000,-0.073048204,-0.284352809,0.121529400,-0.153551206,0.056155000,-0.058724999,1.354422569,1.600737572,1.210443974,1.248429298,-0.198727787,-0.185048997,0.030163400,0.509034395,-1.655569792,-0.511201203,1.372164488,0.002947800,-0.001168400,-0.034364000,0.000000000,0.000000000
0.026566001,0.123051003,0.156820998,0.154612005,-0.154882997,-0.086516000,0.034972001,-0.072832003,-0.285077006,0.121506996,-0.153464004,0.054901000,-0.058825001,1.356484056,1.599748969,1.211084008,1.244616985,-0.185698003,-0.184354007,0.028069999,0.504805982,-1.653964996,-0.512308002,1.368895054,-0.004810000,-0.001001000,-0.033858001,0.000000000,0.000000000
0.025217600,0.123477593,0.156355008,0.156195194,-0.155568391,-0.087206408,0.034254201,-0.072531596,-0.284583390,0.121564597,-0.154831409,0.052811995,-0.058859002,1.354820490,1.598721266,1.211754441,1.241205692,-0.180115998,-0.186370403,0.023173600,0.503548026,-1.652320981,-0.512788415,1.360977650,-0.013504400,-0.000537000,-0.035096399,0.000000000,0.000000000
0.024040200,0.123692401,0.156243205,0.157416999,-0.156125605,-0.087421000,0.033495799,-0.072414599,-0.283927798,0.121594399,-0.155451998,0.052262798,-0.058690403,1.351398826,1.597682834,1.212255359,1.238636255,-0.181122214,-0.190012410,0.020134199,0.504232585,-1.650666833,-0.512851596,1.353960872,-0.018847801,0.000984800,-0.036977597,0.000000000,0.000000000
0.023161601,0.123508804,0.156939805,0.157781810,-0.156451002,-0.086716801,0.032629199,-0.072730199,-0.283612996,0.121639594,-0.154512599,0.054374598,-0.058128200,1.348879576,1.596413136,1.211785555,1.231711388,-0.176561221,-0.201793164,0.021967992,0.502369583,-1.648561835,-0.512998998,1.345397711,-0.024892189,0.006344984,-0.039528992,0.000000000,0.000000000
0.022435009,0.123507395,0.157139808,0.157750785,-0.156660795,-0.086730398,0.031901006,-0.072691001,-0.283659995,0.121585399,-0.153862000,0.055585194,-0.057655200,1.346138477,1.594857454,1.209802389,1.222909689,-0.175422162,-0.213245958,0.023361407,0.497556835,-1.645879984,-0.513002217,1.334446907,-0.028554991,0.014031548,-0.042236984,0.000000000,0.000000000
0.021193014,0.124118991,0.156797007,0.159123987,-0.157617003,-0.087200992,0.031344008,-0.072097011,-0.284027994,0.121684998,-0.153809980,0.055713005,-0.057354003,1.341565967,1.593191028,1.206392169,1.214775085,-0.182391912,-0.217118964,0.021561023,0.491015077,-1.642905116,-0.512583017,1.322464108,-0.027932014,0.022076912,-0.044070981,0.000000000,0.000000000
0.020031210,0.125011384,0.156979203,0.160986990,-0.158626407,-0.087532595,0.030916404,-0.071442805,-0.284237623,0.121857196,-0.155085981,0.053755220,-0.057112809,1.331626654,1.590244293,1.198403835,1.204875708,-0.189582333,-0.218009204,0.021848390,0.484333038,-1.637691498,-0.510360837,1.309564590,-0.026674218,0.028695542,-0.043816805,0.000000000,0.000000000
0.018848006,0.125436604,0.157122999,0.162693590,-0.159546405,-0.087627999,0.030347005,-0.071214400,-0.284233391,0.121977404,-0.155288607,0.053051595,-0.056199007,1.319642067,1.587222815,1.188001871,1.192899704,-0.198749542,-0.222522557,0.022555199,0.478225231,-1.632332802,-0.507049561,1.297473192,-0.024191614,0.031902201,-0.043871596,0.000000000,0.000000000
0.017877996,0.124908999,0.157090202,0.162973791,-0.159725994,-0.087370001,0.029364197,-0.071714804,-0.283968598,0.121940605,-0.153393790,0.054956406,-0.057320412,1.264092207,1.575101495,1.132591367,1.179549336,-0.198120952,-0.233861059,0.018981772,0.454486609,-1.613753796,-0.489408642,1.281402230,-0.033208873,0.024218962,-0.045129202,0.000000000,0.000000000
0.017355999,0.125106394,0.157243401,0.163352817,-0.160148203,-0.087553799,0.028770398,-0.071523398,-0.283293396,0.121970199,-0.153843805,0.053830992,-0.059063002,1.152472496,1.562638521,1.016201735,1.175433874,-0.185711384,-0.241016209,0.013612594,0.415702909,-1.599640965,-0.451417089,1.268916368,-0.045610212,0.018316593,-0.044715796,0.000000000,0.000000000
0.016348001,0.125843003,0.157337993,0.165401995,-0.161511004,-0.087941997,0.028457999,-0.070974000,-0.282763004,0.122142002,-0.155360997,0.051392000,-0.057312001,1.098245025,1.562674046,0.960752010,1.171452045,-0.188380003,-0.246711999,0.014284000,0.396111995,-1.596485972,-0.428676993,1.260535002,-0.043414999,0.019213000,-0.043370999,0.000000000,0.000000000
0.014870804,0.126109213,0.157238990,0.167385787,-0.162435591,-0.087712601,0.028030001,-0.070978999,-0.283977211,0.122188196,-0.153977200,0.052175798,-0.056177802,0.995826840,1.561871648,0.856118441,1.177542925,-0.179572612,-0.253474593,0.011984404,0.353245318,-1.585256219,-0.382143497,1.253003597,-0.049475193,0.023193384,-0.042596199,0.000000000,0.000000000
0.013807003,0.126093194,0.157069206,0.169053584,-0.163320005,-0.087518603,0.027865199,-0.071161598,-0.284687996,0.122249193,-0.153057396,0.053608589,-0.054082412,0.907136023,1.561747909,0.765432477,1.182994723,-0.176590800,-0.259625554,0.011430400,0.321719140,-1.575785637,-0.341435015,1.244465828,-0.052379780,0.030050362,-0.041977808,0.000000000,0.000000000
0.013527400,0.125817209,0.156914800,0.169950008,-0.164097592,-0.087583996,0.027963798,-0.071392998,-0.284009606,0.122375399,-0.153743595,0.054902196,-0.051454205,0.822411478,1.558847427,0.678172290,1.187212586,-0.177262202,-0.263622999,0.012213798,0.302516013,-1.563695908,-0.305004030,1.231625795,-0.056599192,0.037775591,-0.040993001,0.000000000,0.000000000
0.012867603,0.126457602,0.156429395,0.171606183,-0.165344000,-0.087921202,0.028138001,-0.070861004,-0.284015417,0.122511208,-0.155329198,0.053131614,-0.049296007,0.743082523,1.552624941,0.594057083,1.189822912,-0.173948020,-0.270266593,0.015341383,0.282868475,-1.547729254,-0.274464101,1.217585802,-0.061370380,0.041484393,-0.042302992,0.000000000,0.000000000
0.011940005,0.127435997,0.155876994,0.173567981,-0.166732982,-0.088330001,0.028238000,-0.070082001,-0.284467012,0.122642003,-0.156900987,0.050411012,-0.047308013,0.670837402,1.543244958,0.515990496,1.190963030,-0.168539032,-0.278090984,0.019551976,0.265392095,-1.527584076,-0.250166148,1.202699065,-0.067289956,0.041873999,-0.044249993,0.000000000,0.000000000
0.010882996,0.127204806,0.156015009,0.174711198,-0.167433202,-0.088277593,0.027769398,-0.070478000,-0.284829378,0.122622401,-0.155805588,0.052466214,-0.044626988,0.608785808,1.531014442,0.449245363,1.190776348,-0.167172611,-0.283268809,0.021916609,0.256530195,-1.503411889,-0.232628733,1.186966181,-0.074788831,0.040258192,-0.042525187,0.000000000,0.000000000
0.010246200,0.127014011,0.156004399,0.175858811,-0.168212593,-0.088188000,0.027720401,-0.070776798,-0.285014808,0.122617409,-0.154899806,0.054571602,-0.041889798,0.554200947,1.515447140,0.393747121,1.189948201,-0.163747191,-0.288516611,0.023952002,0.253139198,-1.474751353,-0.220899388,1.169217944,-0.083801217,0.038289398,-0.039228395,0.000000000,0.000000000
0.010287802,0.127284199,0.155553803,0.177232191,-0.169314787,-0.088204600,0.028457999,-0.070532396,-0.284940213,0.122689992,-0.155206203,0.055106800,-0.039318599,0.505486846,1.495824814,0.349407047,1.189023376,-0.155793607,-0.294568777,0.025913198,0.254549205,-1.441288471,-0.214858413,1.148843288,-0.094429389,0.036697600,-0.034874603,0.000000000,0.000000000
0.008758808,0.128036588,0.155725211,0.178731591,-0.170161605,-0.088594601,0.026669214,-0.070155405,-0.284699202,0.124386586,-0.156852797,0.052632418,-0.036306612,0.465856552,1.472664118,0.317112684,1.186639786,-0.151916593,-0.298665583,0.027918393,0.259815365,-1.404345155,-0.212758601,1.128355742,-0.103678167,0.034483209,-0.032340605,0.000000000,0.000000000
0.006483000,0.128804997,0.156198993,0.180081993,-0.170790002,-0.089010999,0.023505000,-0.069931999,-0.284298986,0.127065003,-0.158974007,0.049451999,-0.033558000,0.436526000,1.446231008,0.295215011,1.181771994,-0.149840996,-0.300312012,0.031041000,0.267309994,-1.365337968,-0.211992994,1.108003020,-0.111129999,0.030409999,-0.030010000,0.000000000,0.000000000
0.005450602,0.128273413,0.156167805,0.180571407,-0.171292603,-0.088439807,0.022791600,-0.070416197,-0.283684015,0.126827598,-0.157975808,0.051873393,-0.032297403,0.420414031,1.416833282,0.280313641,1.172032475,-0.143404216,-0.297766626,0.039117381,0.277530789,-1.326149106,-0.210145414,1.086966038,-0.115907982,0.019691229,-0.022695621,0.000000000,0.000000000
0.004858803,0.127836794,0.155979604,0.181019604,-0.171839416,-0.088052407,0.022697600,-0.070768200,-0.283454210,0.126331002,-0.157159612,0.054035597,-0.031728003,0.412817419,1.385150552,0.268420458,1.159245014,-0.137161434,-0.293702811,0.045403577,0.286646366,-1.287057519,-0.205597043,1.067572713,-0.119095378,0.011540024,-0.017570810,0.000000000,0.000000000
0.004561204,0.127985597,0.155718803,0.181667387,-0.172484398,-0.088283196,0.022734202,-0.070680805,-0.283873200,0.126465797,-0.157692596,0.053915799,-0.031534202,0.411697388,1.352051258,0.256844670,1.144125342,-0.132648230,-0.289066225,0.047249787,0.293950558,-1.247603536,-0.198267668,1.050814509,-0.121387184,0.009401631,-0.017404012,0.000000000,0.000000000
0.003883198,0.128198206,0.155685201,0.182684600,-0.173305005,-0.088471599,0.022068996,-0.070764802,-0.284039021,0.127561405,-0.158489197,0.053897202,-0.031793602,0.415060222,1.318824530,0.243827775,1.126087785,-0.127764389,-0.285730988,0.049764406,0.299513996,-1.208910108,-0.187595367,1.036465406,-0.122067004,0.002420775,-0.014284788,0.000000000,0.000000000
0.002933000,0.128392994,0.155800000,0.184011996,-0.174280003,-0.088551000,0.020865999,-0.071037002,-0.284016997,0.129458994,-0.159476995,0.053886000,-0.032641999,0.422073007,1.286069036,0.227413997,1.105267048,-0.121839002,-0.282575995,0.052806001,0.302349001,-1.171265006,-0.172910005,1.024685025,-0.122686997,-0.006683000,-0.008787000,0.000000000,0.000000000
0.001928403,0.128292412,0.155935600,0.185492009,-0.175396994,-0.088298000,0.019649003,-0.071575001,-0.284031212,0.131366789,-0.160206407,0.053549796,-0.034529395,0.434492558,1.254752278,0.204133451,1.079304218,-0.111693829,-0.276885211,0.056675188,0.301652610,-1.133901715,-0.154400855,1.014160633,-0.128812775,-0.011039192,-0.001351019,0.000000000,0.000000000
0.001042004,0.128372401,0.155845597,0.187251389,-0.176464602,-0.088147208,0.018764604,-0.071838796,-0.283846408,0.133052200,-0.161602989,0.052987806,-0.036003195,0.443481594,1.225256920,0.177229941,1.055036306,-0.104783818,-0.268192440,0.057083614,0.300782382,-1.097144127,-0.135033697,1.005610704,-0.132776201,-0.015616370,0.003740786,0.000000000,0.000000000
0.000374202,0.128815800,0.155411795,0.189344198,-0.177404195,-0.088260405,0.018447600,-0.071594402,-0.283373594,0.134272382,-0.163988188,0.052247204,-0.036625192,0.447471976,1.196991205,0.150169805,1.034076571,-0.103887253,-0.255885869,0.052181613,0.301420808,-1.061507463,-0.116634749,0.998590827,-0.131411001,-0.022007357,0.004560188,0.000000000,0.000000000
0.000635202,0.128823012,0.155642599,0.190304801,-0.178383797,-0.087959997,0.019021403,-0.071699999,-0.283183008,0.134572998,-0.164276987,0.053185806,-0.037832003,0.449712992,1.169368148,0.121323124,1.012528896,-0.089638948,-0.244961977,0.054093413,0.301203609,-1.026667476,-0.096668944,0.991586089,-0.130856007,-0.026882209,0.007913613,0.000000000,0.000000000
0.001218000,0.128602996,0.156170994,0.190647006,-0.179291993,-0.087549999,0.019773999,-0.072015002,-0.283163011,0.134562001,-0.163392007,0.054830998,-0.039278999,0.450735986,1.142336965,0.091351002,0.990562975,-0.066698998,-0.237311006,0.059620000,0.300033003,-0.992775977,-0.075574003,0.985243976,-0.130654007,-0.030166000,0.011626000,0.000000000,0.000000000
0.000406003,0.128686205,0.155978009,0.191737995,-0.179828405,-0.087885201,0.018678002,-0.072201200,-0.283109814,0.135921389,-0.163409203,0.054792002,-0.039923400,0.452313781,1.116420984,0.061627679,0.966910839,-0.045293652,-0.238441199,0.060501803,0.298761427,-0.960513294,-0.055796050,0.980111837,-0.128653809,-0.030947000,0.009436809,0.000000000,0.000000000
-0.000058401,0.128856808,0.156033397,0.192656398,-0.180381596,-0.088164002,0.017759202,-0.072307199,-0.282822788,0.137476593,-0.164688796,0.054029606,-0.039919399,0.449896634,1.090554357,0.033988532,0.946491301,-0.025509095,-0.240897804,0.059650805,0.298660785,-0.929407358,-0.036736097,0.974875808,-0.127712801,-0.033239376,0.007020607,0.000000000,0.000000000
0.000414601,0.129068404,0.156668603,0.193169594,-0.181131601,-0.088104598,0.017746199,-0.072317198,-0.282203197,0.138819203,-0.167538822,0.052768797,-0.039661802,0.443237752,1.063355684,0.011286890,0.930461764,-0.007985508,-0.241735414,0.057644792,0.299862802,-0.899407864,-0.018126702,0.968785763,-0.129160821,-0.038683202,0.006358399,0.000000000,0.000000000
0.000167198,0.128973201,0.156727597,0.193751797,-0.181914598,-0.088135801,0.017661400,-0.072514199,-0.282071203,0.139019400,-0.167303786,0.053410605,-0.040170401,0.438586175,1.035854578,-0.010886458,0.912407994,0.011017051,-0.244456410,0.056110397,0.299286216,-0.870250702,0.001825652,0.962040782,-0.134714410,-0.033537172,0.006840602,0.000000000,0.000000000
-0.000430000,0.128742993,0.156415999,0.194490001,-0.182689995,-0.088192001,0.017619999,-0.072779000,-0.282247007,0.138655007,-0.165687993,0.054859001,-0.040870000,0.434374005,1.008790016,-0.033599999,0.893526971,0.030305000,-0.248597994,0.054191001,0.298166007,-0.841659009,0.022640999,0.954429984,-0.141438007,-0.022516999,0.006986000,0.000000000,0.000000000
-0.000256000,0.128881201,0.156267405,0.195430800,-0.183336407,-0.088307001,0.018112198,-0.072714798,-0.282311022,0.139029801,-0.167164996,0.054202601,-0.041289002,0.429880202,0.981905818,-0.055240743,0.874794006,0.046868958,-0.252536982,0.049050212,0.298867404,-0.814058304,0.043518342,0.944464624,-0.142019600,-0.015787613,0.003022213,0.000000000,0.000000000
-0.000575395,0.128747210,0.155876994,0.196942002,-0.183732405,-0.087363213,0.018170401,-0.072918996,-0.282376200,0.139951602,-0.168586984,0.053663000,-0.042001996,0.426387429,0.955688536,-0.078057274,0.855065107,0.064187907,-0.255942583,0.044874012,0.299636394,-0.787762940,0.065565884,0.933012664,-0.139114827,-0.015596377,-0.001433980,0.000000000,0.000000000
-0.001794795,0.128092796,0.155139193,0.199066192,-0.183757007,-0.084894009,0.017409606,-0.073617592,-0.282449007,0.141409993,-0.168909192,0.053973399,-0.042925991,0.423495233,0.930839360,-0.104055598,0.834635377,0.083271086,-0.258849204,0.043279018,0.300179392,-0.762944996,0.089177817,0.920482039,-0.133115649,-0.023654575,-0.005223769,0.000000000,0.000000000
-0.001647009,0.127785400,0.155815989,0.198709622,-0.183906406,-0.085270777,0.016905405,-0.074148595,-0.282221794,0.141976207,-0.168224812,0.054738991,-0.043598395,0.419102848,0.907151818,-0.130368337,0.818275154,0.093989141,-0.260492384,0.039297856,0.299912006,-0.738962412,0.113890342,0.908483744,-0.128681839,-0.019988105,-0.009583553,0.000000000,0.000000000
-0.000650000,0.127684996,0.157183006,0.197143003,-0.184155002,-0.087123998,0.016669000,-0.074547000,-0.281735003,0.142158002,-0.167417005,0.055558998,-0.044261001,0.414081007,0.884566009,-0.157343000,0.804557025,0.100400001,-0.260578007,0.034401000,0.298978001,-0.715633988,0.139652997,0.896714985,-0.124011002,-0.010373000,-0.014282000,0.000000000,0.000000000
0.000152598,0.127415001,0.157349199,0.197608411,-0.184530795,-0.087048002,0.017020199,-0.074919000,-0.281002402,0.143261597,-0.169135004,0.055369005,-0.045020599,0.408929825,0.863263011,-0.188377917,0.791359425,0.112752765,-0.258319795,0.031858403,0.298880398,-0.693362236,0.165658116,0.883449852,-0.114643030,-0.009366798,-0.018303189,0.000000000,0.000000000
0.000002593,0.127266988,0.157707006,0.198358610,-0.184728801,-0.086617798,0.016331587,-0.075253204,-0.280340821,0.144612014,-0.169844598,0.055191401,-0.045334399,0.402176559,0.842821598,-0.221803844,0.780264139,0.124956280,-0.255189151,0.032128215,0.297944993,-0.672622025,0.193725407,0.871829152,-0.100831278,-0.008894791,-0.024797063,0.000000000,0.000000000
-0.001548007,0.127349198,0.158701211,0.198951200,-0.184635594,-0.086226396,0.013924390,-0.075532004,-0.279888600,0.146001995,-0.168234989,0.055359196,-0.045528598,0.394099951,0.822547078,-0.256332397,0.771531403,0.135103032,-0.251623809,0.035678811,0.294834971,-0.654054523,0.225360572,0.863443375,-0.081846081,-0.006126760,-0.035055250,0.000000000,0.000000000
-0.002378001,0.127643600,0.159194201,0.199922413,-0.184923798,-0.086126998,0.012620798,-0.075467400,-0.279185772,0.147300810,-0.169069216,0.054373596,-0.046347003,0.385753781,0.802332938,-0.290221274,0.765485406,0.139238805,-0.249790400,0.035199389,0.290850401,-0.637013555,0.257027090,0.854819417,-0.052426510,0.008556255,-0.044613224,0.000000000,0.000000000
-0.002625000,0.127976999,0.159446001,0.200964004,-0.185432002,-0.086191997,0.012214000,-0.075243004,-0.278382987,0.148166001,-0.170756996,0.053194001,-0.047479998,0.377038985,0.782467008,-0.323960990,0.761035025,0.138607994,-0.248519003,0.033034999,0.285818994,-0.621173978,0.289425999,0.846979976,-0.017739000,0.026702000,-0.051851001,0.000000000,0.000000000
-0.002593800,0.127837986,0.160163224,0.201384604,-0.185873404,-0.085982993,0.012164000,-0.075481802,-0.277879208,0.147921994,-0.169145375,0.054538019,-0.048669413,0.368136913,0.763282418,-0.358764768,0.755860329,0.135779962,-0.245047361,0.035049833,0.278997123,-0.606570423,0.325795770,0.843503714,0.009460059,0.025817145,-0.053876806,0.000000000,0.000000000
-0.002986206,0.128046408,0.160841405,0.202273816,-0.186491013,-0.085990198,0.011968996,-0.075362198,-0.277342379,0.147512004,-0.167528987,0.055802803,-0.049405802,0.357786894,0.744735479,-0.394180655,0.751038969,0.129639745,-0.240415767,0.039116234,0.272292376,-0.593095303,0.361223847,0.839385509,0.035753008,0.023809012,-0.055106811,0.000000000,0.000000000
-0.004217805,0.128933996,0.161309004,0.204223007,-0.187455803,-0.086387604,0.011259396,-0.074608192,-0.276650786,0.147518799,-0.167147800,0.056054395,-0.049122598,0.344679952,0.726852536,-0.430638552,0.747092605,0.119675137,-0.234914169,0.044840429,0.267016947,-0.581014931,0.393235981,0.832196534,0.062909931,0.026357796,-0.056815211,0.000000000,0.000000000
-0.004960401,0.129542395,0.161841005,0.205888808,-0.188235804,-0.086324796,0.010356598,-0.074299000,-0.275909990,0.148905203,-0.168935001,0.054550994,-0.049249999,0.331473947,0.710407138,-0.465765089,0.741935968,0.105538160,-0.230813786,0.050900016,0.261522979,-0.570425570,0.424049854,0.827255368,0.085860454,0.020535372,-0.059401207,0.000000000,0.000000000
-0.005416000,0.129776001,0.162349001,0.207206994,-0.188766003,-0.085902996,0.009424000,-0.074396998,-0.275263011,0.150731996,-0.171116993,0.052746002,-0.049697001,0.318708003,0.695859015,-0.499374986,0.734682977,0.089763999,-0.227882996,0.056127001,0.255730003,-0.561053991,0.453557998,0.823144972,0.106188998,0.011981000,-0.061577000,0.000000000,0.000000000
-0.006108198,0.129178405,0.162542596,0.207773194,-0.188618004,-0.085154399,0.009014601,-0.074932799,-0.275256783,0.150110811,-0.168355808,0.054860994,-0.049823001,0.306260824,0.683400035,-0.532087505,0.724678874,0.079105228,-0.225106999,0.056994200,0.249944404,-0.552426398,0.480520517,0.816250265,0.126649544,0.013723386,-0.058109809,0.000000000,0.000000000
-0.006269202,0.128808603,0.162898198,0.207867801,-0.188509807,-0.084945597,0.008752202,-0.075285599,-0.274872214,0.149801403,-0.166965798,0.056071203,-0.050021399,0.294097066,0.673164606,-0.562864065,0.712565482,0.068425454,-0.223191023,0.057124797,0.244636819,-0.544679821,0.505537510,0.808584273,0.150714070,0.022819331,-0.057134587,0.000000000,0.000000000
-0.005609003,0.129074395,0.163600609,0.207571998,-0.188710198,-0.085641399,0.008497603,-0.075199395,-0.273709595,0.150802195,-0.169274390,0.054612808,-0.050519407,0.284179449,0.665352643,-0.589518011,0.696797132,0.055853922,-0.221379176,0.057833992,0.240612417,-0.538245678,0.528341234,0.799973667,0.180463955,0.039108124,-0.061569571,0.000000000,0.000000000
-0.005638994,0.129087597,0.164010793,0.207920790,-0.188698396,-0.085372008,0.007703813,-0.075345799,-0.272962630,0.152166173,-0.170425788,0.053258017,-0.049225025,0.273573101,0.659924030,-0.617259860,0.675790429,0.040046159,-0.234547570,0.059117384,0.239365593,-0.533062637,0.542276323,0.788932145,0.211689681,0.038937107,-0.064230785,0.000000000,0.000000000
-0.006046000,0.128902003,0.164286003,0.208461002,-0.188530996,-0.084629998,0.006805000,-0.075626999,-0.272614986,0.153205007,-0.170259997,0.052671000,-0.046673998,0.262403011,0.656617999,-0.644905984,0.651593983,0.012223000,-0.257999003,0.063366003,0.239050999,-0.529156029,0.551559985,0.777217984,0.243368998,0.030537000,-0.066408001,0.000000000,0.000000000
-0.005816201,0.128493994,0.164852396,0.207570612,-0.188135996,-0.084635399,0.007353798,-0.075822599,-0.272847593,0.151242003,-0.167457402,0.055330388,-0.047557198,0.258654594,0.655088663,-0.661906779,0.625006080,-0.051688202,-0.279562771,0.077699557,0.235796615,-0.527179420,0.568128705,0.767593026,0.275692523,0.033452190,-0.070453189,0.000000000,0.000000000
-0.005708999,0.128659010,0.165477395,0.206970602,-0.188003600,-0.084972195,0.007333604,-0.075553201,-0.272541404,0.150322199,-0.166336596,0.055903409,-0.049631000,0.257308215,0.654942632,-0.675612688,0.596805930,-0.140545279,-0.297535330,0.096374698,0.236512214,-0.525966585,0.579526961,0.755157828,0.298946321,0.030267408,-0.071675606,0.000000000,0.000000000
-0.005992397,0.129735991,0.166091800,0.207310796,-0.188361198,-0.085558794,0.005984208,-0.074640803,-0.271223009,0.151977792,-0.168657988,0.052297018,-0.049789593,0.252963424,0.655923784,-0.691751122,0.569278419,-0.251911491,-0.310114324,0.117253840,0.231460422,-0.525589824,0.589772701,0.748578429,0.308016568,0.025912052,-0.068701021,0.000000000,0.000000000
-0.006307396,0.129577607,0.166592002,0.207164407,-0.188280016,-0.085285805,0.005596198,-0.074654594,-0.270301223,0.151318222,-0.167742431,0.053364158,-0.050366782,0.247909039,0.658533931,-0.708731413,0.544555068,-0.323905647,-0.316096365,0.138544187,0.225465804,-0.526224971,0.597012579,0.747524619,0.306153685,0.016791780,-0.067446806,0.000000000,0.000000000
-0.006664996,0.128782004,0.167043999,0.206830993,-0.187992007,-0.084587008,0.005665002,-0.075175993,-0.269748002,0.149585009,-0.165161029,0.056648970,-0.051563989,0.242767081,0.662833929,-0.723628879,0.524979174,-0.361621648,-0.314938068,0.156618804,0.222597033,-0.527297020,0.598562002,0.747846007,0.299192101,0.003487142,-0.066864014,0.000000000,0.000000000
-0.007171205,0.128892004,0.167591006,0.207167000,-0.188113004,-0.084584996,0.004833789,-0.075127997,-0.269631803,0.150087625,-0.164821416,0.055863183,-0.051746197,0.235388100,0.667918682,-0.731646299,0.519747972,-0.367724955,-0.299397618,0.163877428,0.216046542,-0.529077411,0.599114776,0.753261685,0.300921232,0.002483620,-0.064143173,0.000000000,0.000000000
-0.007628803,0.129040405,0.168230802,0.207626805,-0.188362196,-0.084519804,0.003607789,-0.075218007,-0.269111395,0.151484415,-0.165885016,0.054232586,-0.051796392,0.227746740,0.673469663,-0.735374033,0.523249447,-0.375977516,-0.286673129,0.163549975,0.212572724,-0.531030238,0.597288013,0.758566022,0.302433193,0.003116051,-0.063933216,0.000000000,0.000000000
-0.007948002,0.128966406,0.168976992,0.208014205,-0.188657999,-0.084149398,0.002070396,-0.075672805,-0.267819017,0.153525203,-0.168330193,0.052665997,-0.051525202,0.220101967,0.679516196,-0.735521376,0.533937812,-0.400916696,-0.283601195,0.156044558,0.207660392,-0.533573627,0.598185003,0.766994476,0.300758362,0.008290009,-0.068183616,0.000000000,0.000000000
-0.008159400,0.128747404,0.169573992,0.208174601,-0.188865811,-0.083815597,0.002085202,-0.075864002,-0.267440796,0.152498186,-0.166723371,0.054260813,-0.051542602,0.212987781,0.685577631,-0.732650042,0.545216203,-0.416662633,-0.281456590,0.150005579,0.205650598,-0.535969794,0.594822586,0.773594856,0.290927947,0.009454204,-0.069981799,0.000000000,0.000000000
-0.008330000,0.128501996,0.170092002,0.208267003,-0.189073995,-0.083590001,0.002761000,-0.075877003,-0.267430991,0.150196001,-0.163509995,0.057061002,-0.051256001,0.205612004,0.691331029,-0.727509022,0.557129025,-0.419988990,-0.278241009,0.145567998,0.201947004,-0.538347006,0.591404021,0.781919003,0.271779001,0.008486000,-0.069985002,0.000000000,0.000000000
-0.008562598,0.128656596,0.170751989,0.208810598,-0.189664006,-0.083807796,0.001817604,-0.075841203,-0.266288400,0.151414394,-0.165446997,0.055869006,-0.050917998,0.198740423,0.696272850,-0.718836427,0.569330812,-0.403175890,-0.270309806,0.143145010,0.197945803,-0.540743947,0.588926196,0.790633976,0.239838898,-0.000867767,-0.069551207,0.000000000,0.000000000
-0.009478393,0.128559589,0.171124592,0.209792778,-0.190117598,-0.083557412,0.000379808,-0.076150797,-0.265467793,0.152848795,-0.166611612,0.054807402,-0.050683003,0.191668630,0.700015187,-0.708903253,0.580994546,-0.366515249,-0.254206300,0.142074198,0.192704827,-0.543006420,0.586742759,0.800248325,0.195411265,-0.019158678,-0.067170821,0.000000000,0.000000000
-0.011376806,0.127962396,0.171044797,0.211276203,-0.190248609,-0.082462192,-0.001250606,-0.076999605,-0.265475005,0.153442591,-0.164975390,0.055258207,-0.050560802,0.183664560,0.702056646,-0.699016750,0.592235684,-0.308124840,-0.227641627,0.142943799,0.187218964,-0.544721842,0.583436012,0.810118198,0.137887686,-0.048225906,-0.061225146,0.000000000,0.000000000
-0.011815799,0.127180591,0.172017604,0.211082011,-0.190230608,-0.081662998,-0.001776000,-0.077753000,-0.264552802,0.152509794,-0.163898408,0.056799203,-0.050490603,0.175200760,0.703338206,-0.690285206,0.604779005,-0.227529377,-0.187097490,0.141430393,0.181824595,-0.546092629,0.580242038,0.819281816,0.077993244,-0.059078202,-0.044550743,0.000000000,0.000000000
-0.011372000,0.126489997,0.173430994,0.209852993,-0.190086007,-0.081254996,-0.001728000,-0.078243002,-0.263327003,0.151025996,-0.163484007,0.058355998,-0.050466001,0.165839002,0.704127014,-0.683309019,0.618178010,-0.131915003,-0.137790993,0.141788006,0.176367000,-0.546989024,0.576659977,0.828391016,0.018825000,-0.057842001,-0.024868000,0.000000000,0.000000000
-0.011352999,0.126764804,0.173694804,0.209013999,-0.189825594,-0.081722796,-0.002448798,-0.077839203,-0.263599604,0.151760787,-0.164512202,0.056783203,-0.051161394,0.155940235,0.704798818,-0.678052425,0.630187392,-0.034002248,-0.088113122,0.150352180,0.170670211,-0.548365235,0.571686208,0.837801754,-0.033170078,-0.061696190,-0.018899007,0.000000000,0.000000000
-0.011779396,0.126693398,0.173881993,0.208721995,-0.189740404,-0.081752405,-0.003427994,-0.077877596,-0.263434023,0.152265996,-0.164265215,0.055934396,-0.051920798,0.145310447,0.705179989,-0.673748255,0.642525792,0.058528945,-0.050214551,0.160135567,0.164820045,-0.549934208,0.564949393,0.846244752,-0.075038016,-0.062321015,-0.014140234,0.000000000,0.000000000
-0.012806194,0.125765800,0.174312800,0.209265798,-0.190000400,-0.080782212,-0.004587794,-0.078910790,-0.262129009,0.151802003,-0.161667615,0.057238989,-0.052416600,0.134357080,0.705626428,-0.669526577,0.654817700,0.140621513,-0.029943297,0.166252971,0.159481227,-0.552500963,0.555608094,0.851976752,-0.104118228,-0.056836471,-0.006976238,0.000000000,0.000000000
-0.013327397,0.124710016,0.174280614,0.210242778,-0.190091789,-0.078773826,-0.004836403,-0.079862393,-0.261454195,0.151915401,-0.160994589,0.058542188,-0.052628599,0.124417692,0.706173599,-0.662509859,0.664386153,0.192254424,-0.022032425,0.169375181,0.155233443,-0.555263996,0.546046078,0.857348144,-0.125269026,-0.042664796,-0.004619998,0.000000000,0.000000000
-0.013405000,0.123787008,0.174208999,0.211005002,-0.190105006,-0.076834016,-0.004608002,-0.080603994,-0.261271000,0.152251005,-0.161601990,0.059490994,-0.052945994,0.116482086,0.707112014,-0.652855098,0.670445919,0.218760729,-0.024211941,0.168836012,0.151830032,-0.558267951,0.536586106,0.861925006,-0.138221875,-0.027035149,-0.005833982,0.000000000,0.000000000
-0.013133407,0.123849198,0.175271586,0.209727630,-0.190352604,-0.078255773,-0.005059991,-0.080655798,-0.261375010,0.151993006,-0.162249207,0.058804613,-0.053176798,0.110970870,0.708348751,-0.642877340,0.672296166,0.228471160,-0.036357969,0.164037287,0.149475634,-0.562057734,0.527097702,0.864630580,-0.139480442,-0.028661920,-0.008104165,0.000000000,0.000000000
-0.012980000,0.123510793,0.176399007,0.208677992,-0.190602198,-0.078967392,-0.005583004,-0.081123009,-0.261072576,0.151572406,-0.161884397,0.059301015,-0.053225398,0.106052756,0.709496796,-0.634756982,0.672008812,0.227236167,-0.049241684,0.159878969,0.146485567,-0.565293789,0.520134807,0.866600454,-0.137363583,-0.028598957,-0.008640990,0.000000000,0.000000000
-0.013215202,0.122252792,0.177205607,0.208785191,-0.190814599,-0.077468798,-0.006080204,-0.082458809,-0.260038823,0.151258811,-0.160037994,0.062078007,-0.053224199,0.102154575,0.711274147,-0.628818393,0.668633997,0.217772931,-0.058676224,0.158670396,0.142747775,-0.568567216,0.516804218,0.866694212,-0.134932384,-0.020033976,-0.005969390,0.000000000,0.000000000
-0.013677002,0.121689200,0.177247405,0.209080189,-0.190923989,-0.076874599,-0.007018203,-0.083125204,-0.259548396,0.152339399,-0.160650402,0.061741397,-0.053217597,0.097896591,0.713348567,-0.626372576,0.665019393,0.203466564,-0.059421390,0.156808794,0.139385790,-0.571400225,0.514741838,0.866977811,-0.133420601,-0.020555215,-0.004937000,0.000000000,0.000000000
-0.014145000,0.121454000,0.177018002,0.209313005,-0.190970004,-0.076800004,-0.008104000,-0.083479002,-0.259420991,0.153975993,-0.162193999,0.059994001,-0.053215001,0.093272999,0.715406001,-0.627397001,0.661679029,0.189304993,-0.055018000,0.154523000,0.136350006,-0.573724985,0.513311028,0.867375016,-0.132645994,-0.026412001,-0.005431000,0.000000000,0.000000000
-0.013987797,0.120553792,0.177823007,0.208765000,-0.191047609,-0.076244198,-0.008532204,-0.084506407,-0.259250224,0.153890997,-0.160383195,0.061289623,-0.053529605,0.089085162,0.717443049,-0.632107854,0.658859134,0.188384026,-0.053879790,0.153075993,0.133035570,-0.575462222,0.511896729,0.867827833,-0.131824404,-0.028434813,-0.007634825,0.000000000,0.000000000
-0.013941801,0.119713798,0.178567201,0.208363801,-0.191082805,-0.075575799,-0.008912204,-0.085386202,-0.258989006,0.153679401,-0.159019411,0.062807009,-0.053865802,0.085461169,0.719195843,-0.637973785,0.655757189,0.189181805,-0.051366769,0.150887981,0.129693165,-0.576565027,0.509866178,0.867680371,-0.133031219,-0.028588794,-0.008945001,0.000000000,0.000000000
-0.014279001,0.119179599,0.178885207,0.208461195,-0.191066995,-0.074876994,-0.009404602,-0.085815400,-0.258593798,0.153763205,-0.159380794,0.063681208,-0.054053396,0.082274787,0.720337749,-0.644181073,0.652394176,0.187983990,-0.046143174,0.147400394,0.126431197,-0.576905608,0.506806135,0.866711378,-0.137178212,-0.026924588,-0.008247999,0.000000000,0.000000000
-0.014329600,0.118795201,0.179355800,0.207928598,-0.191054001,-0.074409798,-0.009744201,-0.086106807,-0.258321583,0.153769001,-0.160201609,0.063783199,-0.054072201,0.079713397,0.720925391,-0.650419831,0.649641812,0.189251214,-0.039387979,0.148806617,0.124150187,-0.576624393,0.503934026,0.865500331,-0.140235201,-0.023814589,-0.008772204,0.000000000,0.000000000
-0.014180000,0.118331000,0.179914996,0.206991002,-0.190996006,-0.074060999,-0.009967000,-0.086470000,-0.257982999,0.153529003,-0.160780996,0.063690998,-0.054398999,0.078523003,0.720602989,-0.655219972,0.647459984,0.190614000,-0.033470001,0.151889995,0.121868998,-0.575684011,0.501829028,0.864428997,-0.142199993,-0.020950999,-0.009636000,0.000000000,0.000000000
-0.014041200,0.117052004,0.180413797,0.206212401,-0.190752998,-0.073515207,-0.010293799,-0.087606803,-0.256829619,0.152728200,-0.159253597,0.065051198,-0.054242402,0.078544199,0.719160616,-0.657527566,0.646066785,0.185484618,-0.036503188,0.147689611,0.120362803,-0.573925018,0.498300016,0.862062037,-0.142736405,-0.024158590,-0.008021405,0.000000000,0.000000000
-0.013901801,0.116011009,0.180809617,0.205411807,-0.190558195,-0.072972000,-0.010568399,-0.088547394,-0.256407022,0.152234614,-0.157969996,0.066065595,-0.053829800,0.077914804,0.716200054,-0.660467565,0.646936417,0.180860415,-0.039620794,0.144727007,0.118468016,-0.571195602,0.496348202,0.860991776,-0.143126801,-0.026400801,-0.007766193,0.000000000,0.000000000
-0.013739001,0.115605205,0.181069598,0.204474613,-0.190458596,-0.072502203,-0.010682999,-0.088908002,-0.257347584,0.152275801,-0.157731801,0.066084594,-0.053728402,0.077959403,0.712995410,-0.663633406,0.648078561,0.179082423,-0.039705805,0.146056384,0.116402216,-0.568979621,0.497425795,0.860291004,-0.143609196,-0.024562003,-0.010218589,0.000000000,0.000000000
-0.013430404,0.115076400,0.181351006,0.203258619,-0.189997211,-0.072370201,-0.010882197,-0.089353800,-0.257603794,0.152066007,-0.157268599,0.066384196,-0.053494200,0.077866003,0.708767235,-0.667273998,0.650366187,0.176247627,-0.038104221,0.147159189,0.114649206,-0.566522062,0.499161780,0.859343410,-0.142875224,-0.025827769,-0.010494810,0.000000000,0.000000000
-0.013065004,0.114397004,0.181630999,0.201936021,-0.189416006,-0.072289005,-0.011116997,-0.089904994,-0.257286042,0.151682004,-0.156827003,0.066976994,-0.053095005,0.077977002,0.704398036,-0.671147943,0.652800024,0.172278062,-0.035347033,0.147946984,0.113145024,-0.564231992,0.501910925,0.858094037,-0.141425014,-0.029104959,-0.009560009,0.000000000,0.000000000
-0.012869403,0.113467820,0.181901604,0.201003015,-0.189439207,-0.071430013,-0.011217799,-0.090615392,-0.256447017,0.151226401,-0.157208994,0.068111785,-0.052722409,0.078406587,0.700518012,-0.674936712,0.654979587,0.165983707,-0.031677052,0.148216009,0.112100616,-0.562312007,0.506664097,0.856900215,-0.140768811,-0.033141140,-0.009728191,0.000000000,0.000000000
-0.012903997,0.112631813,0.181837410,0.200294018,-0.189310804,-0.070702605,-0.011350997,-0.091296583,-0.256250381,0.150791004,-0.157046407,0.068533204,-0.052404806,0.079368986,0.697294652,-0.679203510,0.656438351,0.163380772,-0.029888595,0.148322389,0.111047417,-0.560745597,0.511997104,0.855939627,-0.139456034,-0.037267726,-0.010758772,0.000000000,0.000000000
-0.013217798,0.112039804,0.181292593,0.199789807,-0.188766405,-0.070435002,-0.011573000,-0.091870204,-0.257220209,0.150427207,-0.155800998,0.067714602,-0.052105803,0.080303788,0.694278002,-0.684713960,0.657888591,0.167035997,-0.031252809,0.148388594,0.110677391,-0.559305787,0.516540170,0.854963779,-0.136984423,-0.041936364,-0.012726793,0.000000000,0.000000000
-0.013265201,0.111809798,0.181115806,0.199143201,-0.188656807,-0.070562795,-0.011373404,-0.092028797,-0.258066595,0.149896398,-0.155541599,0.067919791,-0.051845804,0.081425391,0.691870451,-0.689153314,0.658631206,0.163487673,-0.025980493,0.150092572,0.110618010,-0.557970226,0.520168960,0.854284406,-0.134451628,-0.045998763,-0.012316818,0.000000000,0.000000000
-0.013275007,0.111743994,0.181098998,0.198525980,-0.188805997,-0.070796996,-0.011035002,-0.091981001,-0.258679003,0.149301991,-0.155820996,0.068808004,-0.051609997,0.083104029,0.690577924,-0.692270041,0.658250988,0.155793935,-0.018360998,0.151923984,0.110578001,-0.556988001,0.523069024,0.853897989,-0.132047981,-0.047926962,-0.010784001,0.000000000,0.000000000
-0.013881408,0.111373194,0.180715993,0.198405206,-0.188773811,-0.070380591,-0.011292204,-0.092179611,-0.258658797,0.148812398,-0.155469790,0.069683805,-0.051235393,0.085032821,0.689980030,-0.694364429,0.657867014,0.151627362,-0.020118434,0.149406970,0.110964805,-0.556354821,0.524599016,0.853782773,-0.130580783,-0.043599345,-0.011214610,0.000000000,0.000000000
-0.014477804,0.110902198,0.180165797,0.198323995,-0.188641995,-0.069941998,-0.011481800,-0.092510402,-0.258893400,0.148351789,-0.155006394,0.070119202,-0.050827201,0.086282603,0.689526618,-0.696549594,0.659009993,0.148408592,-0.021100987,0.148129612,0.111075401,-0.555749416,0.525994778,0.854907990,-0.128650978,-0.040828198,-0.012456212,0.000000000,0.000000000
-0.014804600,0.110375203,0.179494798,0.198068991,-0.188381597,-0.069686599,-0.011345999,-0.092962608,-0.259736419,0.147897795,-0.154583216,0.069849998,-0.050671801,0.087334804,0.689151406,-0.698067009,0.661510587,0.145597383,-0.017324593,0.150188208,0.111154795,-0.555197775,0.527063370,0.856811821,-0.125677198,-0.043349009,-0.014194402,0.000000000,0.000000000
-0.014207797,0.109865993,0.179285601,0.197286397,-0.188012600,-0.069226593,-0.010999998,-0.093517795,-0.260223597,0.148309201,-0.156014606,0.069257595,-0.049878996,0.087796599,0.688745379,-0.699042380,0.664522409,0.145909607,-0.018734811,0.151241004,0.110751003,-0.554639578,0.528192401,0.860317826,-0.125821203,-0.043493994,-0.012651591,0.000000000,0.000000000
-0.013276000,0.109314002,0.179216996,0.196190998,-0.187569007,-0.068736002,-0.010565000,-0.094125003,-0.260527015,0.148859993,-0.157812998,0.068875998,-0.049040001,0.088255003,0.688566029,-0.698872983,0.667541027,0.147851005,-0.022883000,0.151610002,0.110040002,-0.554560006,0.529466987,0.864298999,-0.127643004,-0.042266998,-0.009637000,0.000000000,0.000000000
-0.013674999,0.108592600,0.178406999,0.195400804,-0.187194005,-0.068723798,-0.010355000,-0.094632402,-0.261068583,0.147337407,-0.155699998,0.070265993,-0.049032602,0.088787399,0.688320041,-0.696347594,0.671386003,0.147362798,-0.022496004,0.152355805,0.109506801,-0.554387569,0.529740393,0.867445827,-0.128129005,-0.044351995,-0.009725597,0.000000000,0.000000000
-0.013840802,0.107888602,0.177492008,0.194496810,-0.186645210,-0.068673402,-0.009894604,-0.095067397,-0.261890799,0.145951405,-0.153837800,0.071723796,-0.049052402,0.089035995,0.688327193,-0.694021404,0.675004780,0.148520172,-0.023519183,0.152225003,0.109324202,-0.554290593,0.529121995,0.869821191,-0.127263814,-0.044995010,-0.010702195,0.000000000,0.000000000
-0.013244203,0.107281201,0.176669002,0.193336010,-0.185820222,-0.068406001,-0.009022005,-0.095418595,-0.263060808,0.145471215,-0.153690800,0.072614402,-0.048862800,0.088505000,0.688464403,-0.693511844,0.678626418,0.152895167,-0.028286574,0.150684610,0.108444802,-0.554420829,0.529070973,0.872500777,-0.124912411,-0.041227411,-0.011984399,0.000000000,0.000000000
-0.013150198,0.107022002,0.175846219,0.192462415,-0.185328200,-0.068462998,-0.008705599,-0.095556401,-0.263989598,0.145414203,-0.154935375,0.071817622,-0.048964400,0.088236406,0.688999414,-0.691744208,0.681375623,0.153921619,-0.029051419,0.149499804,0.108221397,-0.554959774,0.528497040,0.873751402,-0.125047788,-0.041368183,-0.010693029,0.000000000,0.000000000
-0.013493995,0.106853001,0.175038010,0.191848993,-0.185039997,-0.068557002,-0.008833998,-0.095694989,-0.264755011,0.145523995,-0.156424999,0.070354015,-0.049120996,0.088291995,0.690033972,-0.689152002,0.682970941,0.154017985,-0.027975000,0.149382979,0.107726999,-0.555942953,0.528268039,0.874364018,-0.126612991,-0.043108974,-0.008281023,0.000000000,0.000000000
-0.014031599,0.105920210,0.174307004,0.191172600,-0.184491411,-0.067808002,-0.009072999,-0.096551001,-0.265548199,0.144903809,-0.154815614,0.070974201,-0.049336597,0.088694394,0.691502213,-0.687343776,0.683313251,0.160446376,-0.031942189,0.152746201,0.107823797,-0.557381153,0.528060615,0.873828530,-0.126782805,-0.043825798,-0.008471398,0.000000000,0.000000000
-0.014483399,0.105418801,0.173600197,0.190637603,-0.183907598,-0.067334600,-0.009205000,-0.097001195,-0.266384006,0.144465208,-0.153836012,0.071188405,-0.049328797,0.088687994,0.692933798,-0.686050892,0.683508039,0.165291995,-0.034710594,0.155008197,0.107409999,-0.558852017,0.528024256,0.873561621,-0.127158195,-0.043235604,-0.009141398,0.000000000,0.000000000
-0.014734398,0.105800405,0.172890216,0.190356791,-0.183380008,-0.067553997,-0.008963002,-0.096573405,-0.267296821,0.144215792,-0.154721797,0.070162803,-0.049348600,0.088684201,0.694471240,-0.684672594,0.683396220,0.165562212,-0.034056205,0.154406413,0.107613407,-0.560196579,0.526968598,0.872677386,-0.128121391,-0.042395607,-0.009661396,0.000000000,0.000000000
-0.015062995,0.105466612,0.171955213,0.189558610,-0.182805210,-0.067537598,-0.008585004,-0.096678197,-0.268080384,0.143111825,-0.154878601,0.070576385,-0.049474996,0.088477597,0.695772171,-0.683599591,0.684445620,0.165551007,-0.034042001,0.153895006,0.107244805,-0.561251163,0.527101219,0.872609019,-0.127585217,-0.041553609,-0.009983398,0.000000000,0.000000000
-0.015428996,0.104728006,0.170966014,0.188562021,-0.182264015,-0.067340001,-0.008192005,-0.097105995,-0.268739998,0.141652018,-0.154314011,0.071881987,-0.049852997,0.089020982,0.697449028,-0.682086051,0.685043991,0.165524006,-0.035218973,0.152984023,0.106857002,-0.562592030,0.527764976,0.872126997,-0.126337022,-0.040393017,-0.010163997,0.000000000,0.000000000
-0.015572602,0.104274005,0.170425206,0.188020796,-0.181905597,-0.067021593,-0.007981199,-0.097397804,-0.269199789,0.140953198,-0.152582377,0.072996810,-0.049551994,0.088789202,0.698409200,-0.681583047,0.685906768,0.166782826,-0.040470652,0.149139166,0.105942190,-0.563375413,0.527701199,0.871856570,-0.126827419,-0.037210561,-0.010561204,0.000000000,0.000000000
-0.015925605,0.104157805,0.169780403,0.187614396,-0.181529790,-0.067011803,-0.007947600,-0.097403601,-0.269928992,0.140460402,-0.151855797,0.073119201,-0.049282800,0.088838801,0.699258208,-0.680673122,0.686039805,0.165953979,-0.041018564,0.148226619,0.105578408,-0.564112186,0.526837587,0.871129155,-0.127265409,-0.035818607,-0.010729000,0.000000000,0.000000000
-0.016628603,0.104448996,0.168843195,0.187226608,-0.181045204,-0.067496799,-0.008078001,-0.097019196,-0.271124423,0.139978603,-0.153010800,0.071795791,-0.048979197,0.088815399,0.699678600,-0.679315627,0.685743630,0.161717400,-0.033131577,0.152598217,0.104890794,-0.564673424,0.525934994,0.871032357,-0.127143398,-0.036815803,-0.010526199,0.000000000,0.000000000
-0.016838400,0.104203403,0.168404594,0.186694592,-0.180719793,-0.067350402,-0.008165200,-0.097237006,-0.271701008,0.139770985,-0.152697995,0.071504399,-0.048947997,0.089203596,0.699891567,-0.678686798,0.685974360,0.160907999,-0.031989008,0.154173404,0.104580805,-0.565018773,0.525692582,0.870756805,-0.127278402,-0.036974799,-0.010301599,0.000000000,0.000000000
-0.016860999,0.103696004,0.168197006,0.186232999,-0.180493996,-0.066872001,-0.008198000,-0.097728997,-0.271925986,0.139621004,-0.151502997,0.072052002,-0.048679002,0.089612998,0.700017989,-0.678668976,0.686455011,0.162386000,-0.035172999,0.153288007,0.104060002,-0.565186024,0.525910974,0.870575011,-0.127446994,-0.036442000,-0.010245000,0.000000000,0.000000000
-0.017581198,0.103631601,0.167467803,0.186557412,-0.180232197,-0.066787407,-0.008066000,-0.097616002,-0.272557974,0.138743207,-0.150577605,0.073325396,-0.048340004,0.090408601,0.700222254,-0.678313613,0.686651945,0.163786590,-0.037864394,0.149551198,0.104260400,-0.565342009,0.524779797,0.869219065,-0.126739606,-0.038560998,-0.011220397,0.000000000,0.000000000
-0.017911600,0.103602804,0.166952401,0.186439604,-0.179918408,-0.066866800,-0.007947801,-0.097493194,-0.272806793,0.138113201,-0.150738597,0.073567808,-0.048016801,0.091173992,0.700285614,-0.678285182,0.686758995,0.164354593,-0.039627995,0.148362190,0.104312986,-0.565386593,0.524231613,0.867827952,-0.126703203,-0.039898992,-0.011034608,0.000000000,0.000000000
-0.017413402,0.103489794,0.166916803,0.185375407,-0.179531410,-0.067073397,-0.007882001,-0.097539201,-0.272389203,0.138060600,-0.152421609,0.072007805,-0.047375798,0.091669984,0.700274825,-0.678653598,0.686393380,0.163523212,-0.039608188,0.152033791,0.103361204,-0.565417171,0.525014758,0.867029786,-0.127855197,-0.038673609,-0.008808412,0.000000000,0.000000000
-0.017292999,0.103571199,0.166702002,0.185043007,-0.179392993,-0.067223601,-0.007511999,-0.097308993,-0.272627592,0.137491405,-0.151836395,0.072197206,-0.047553200,0.093041211,0.700175047,-0.678613067,0.686728776,0.163279608,-0.042963814,0.150923997,0.103430405,-0.565348804,0.525485814,0.865445197,-0.128016204,-0.039041404,-0.008133001,0.000000000,0.000000000
-0.017379999,0.103688002,0.166424006,0.185050994,-0.179349005,-0.067305997,-0.007003000,-0.097000003,-0.273212999,0.136573002,-0.150029004,0.073454000,-0.046836000,0.093502000,0.700152993,-0.678977013,0.687421024,0.163105994,-0.047021002,0.147563994,0.102494001,-0.565325975,0.525992990,0.864627004,-0.127103999,-0.039172001,-0.008883000,0.000000000,0.000000000
-0.017533999,0.103412598,0.166314796,0.184888795,-0.179284990,-0.067187600,-0.006796001,-0.097169600,-0.273386776,0.135713607,-0.149711609,0.074357398,-0.046574797,0.094328597,0.700057209,-0.679373205,0.688140392,0.162459001,-0.047442000,0.148238391,0.101735398,-0.565350413,0.527075231,0.864160776,-0.124648809,-0.041900188,-0.011192194,0.000000000,0.000000000
-0.017524600,0.103373602,0.166349202,0.184509411,-0.179102793,-0.067491397,-0.006925398,-0.097224995,-0.273555189,0.135574400,-0.149724603,0.074134603,-0.046082601,0.094928995,0.699819028,-0.679628968,0.688670635,0.161062211,-0.045971006,0.149399593,0.100192606,-0.565438569,0.528373599,0.864193797,-0.123573393,-0.042384602,-0.012419800,0.000000000,0.000000000
-0.017328402,0.103837796,0.166516796,0.184031397,-0.178848386,-0.068469398,-0.007481998,-0.096959397,-0.273829371,0.136595786,-0.149876997,0.072324209,-0.045919787,0.095814779,0.699296236,-0.679658413,0.689181983,0.158900425,-0.043522608,0.149943396,0.098997563,-0.565427601,0.529176831,0.863902450,-0.125134587,-0.040215768,-0.011412005,0.000000000,0.000000000
-0.017274201,0.104036793,0.166639388,0.184358791,-0.179131001,-0.068101414,-0.007398004,-0.096906200,-0.273898393,0.136833996,-0.149957195,0.071914800,-0.046298996,0.097020395,0.699077785,-0.679184377,0.689435363,0.157614410,-0.044111572,0.149923608,0.099613205,-0.565386176,0.528223157,0.862204790,-0.125028208,-0.042424373,-0.011533592,0.000000000,0.000000000
-0.017314000,0.104022004,0.166722998,0.184979007,-0.179545000,-0.067097008,-0.006988004,-0.096974000,-0.273728997,0.136471018,-0.149873003,0.072519995,-0.046383001,0.097536996,0.698936999,-0.679297984,0.690042973,0.157067999,-0.046228983,0.149711996,0.099125005,-0.565436959,0.528005004,0.861867011,-0.124034010,-0.044468984,-0.012547987,0.000000000,0.000000000
-0.017291803,0.103838399,0.166816205,0.184407204,-0.178871423,-0.067242391,-0.007007599,-0.096931204,-0.273084790,0.135659412,-0.149106011,0.073417380,-0.046279006,0.097844996,0.698826432,-0.679417014,0.691007614,0.156555206,-0.045610018,0.150410384,0.098613210,-0.565538406,0.527872980,0.862293184,-0.123973206,-0.042748839,-0.013891378,0.000000000,0.000000000
-0.017086998,0.103796005,0.166905805,0.183811009,-0.178336203,-0.067643799,-0.006981599,-0.096780390,-0.272607416,0.135204002,-0.148860395,0.073783793,-0.046109997,0.097880207,0.698733211,-0.679533422,0.691965461,0.156462401,-0.044458598,0.150767207,0.098029397,-0.565747380,0.527970433,0.862890840,-0.123908594,-0.041631207,-0.014801204,0.000000000,0.000000000
-0.016700998,0.104051001,0.166962609,0.183696404,-0.178442016,-0.068053998,-0.006730198,-0.096479200,-0.272591174,0.135385394,-0.149585992,0.073198602,-0.045887001,0.097628400,0.698703587,-0.679617405,0.692698240,0.156919807,-0.043387394,0.150337800,0.097584195,-0.566072583,0.528168380,0.863213181,-0.123567000,-0.042760801,-0.014876999,0.000000000,0.000000000
-0.016492600,0.104008399,0.166963995,0.183930010,-0.178851396,-0.067622200,-0.006195598,-0.096485600,-0.272719592,0.135009006,-0.149689794,0.073544800,-0.045803800,0.096925199,0.698837638,-0.679817200,0.693647742,0.156407207,-0.041814197,0.150581405,0.097301595,-0.566592455,0.528468013,0.863526583,-0.124274604,-0.041139390,-0.014585000,0.000000000,0.000000000
-0.016419001,0.103860997,0.166936994,0.184246004,-0.179242998,-0.066903003,-0.005677000,-0.096615002,-0.272938997,0.134470001,-0.149370998,0.074166000,-0.045747999,0.096041001,0.699060023,-0.680079997,0.694557011,0.156113997,-0.040716000,0.151418999,0.097410999,-0.567187011,0.528603971,0.863620996,-0.125593007,-0.038275000,-0.013947000,0.000000000,0.000000000
-0.016226200,0.104164399,0.167012602,0.184002399,-0.178769007,-0.067406200,-0.005857599,-0.096378803,-0.273183197,0.134857997,-0.148857996,0.073306605,-0.045777798,0.095434397,0.699232817,-0.679960966,0.695248961,0.159470588,-0.043091394,0.152414188,0.097107604,-0.567585945,0.528531790,0.864066005,-0.126302198,-0.038113598,-0.013004202,0.000000000,0.000000000
-0.015999602,0.104505405,0.167109594,0.183757186,-0.178403795,-0.067892201,-0.006129999,-0.096073203,-0.272984803,0.135472402,-0.149538189,0.072060205,-0.045873199,0.094774202,0.699419975,-0.679839432,0.695528865,0.163019180,-0.045129593,0.153257206,0.096666604,-0.567943990,0.528426588,0.864722967,-0.126493201,-0.038316801,-0.012429001,0.000000000,0.000000000
-0.015785003,0.104754396,0.167201012,0.183738798,-0.178526402,-0.067952000,-0.006298200,-0.095787600,-0.272136807,0.136094391,-0.152022392,0.070773207,-0.045878798,0.093857005,0.699958801,-0.680055618,0.694972157,0.165469989,-0.045641601,0.153774798,0.096742205,-0.568770230,0.527974367,0.864796162,-0.126010597,-0.038157400,-0.012511800,0.000000000,0.000000000
-0.015543402,0.104662403,0.167222410,0.183470011,-0.178550392,-0.068080202,-0.006085804,-0.095860600,-0.272533596,0.135943204,-0.151542619,0.071207389,-0.045873400,0.092962414,0.700246572,-0.680012405,0.695221841,0.165292621,-0.044896416,0.153500810,0.096736401,-0.569190741,0.527952552,0.865071416,-0.126167804,-0.037635606,-0.012168006,0.000000000,0.000000000
-0.015237007,0.104436003,0.167223006,0.183028996,-0.178459004,-0.068251997,-0.005616012,-0.096042000,-0.273417979,0.135263011,-0.149539024,0.072486967,-0.045992993,0.092407003,0.700627029,-0.679365993,0.695466995,0.163824037,-0.043977007,0.152738020,0.096991986,-0.569827914,0.528186023,0.864672065,-0.126807988,-0.036931016,-0.011414022,0.000000000,0.000000000
-0.014921205,0.104551792,0.167377606,0.182826400,-0.178323597,-0.068388596,-0.005521400,-0.095818803,-0.272665024,0.135201603,-0.149887189,0.072548002,-0.046096802,0.092003413,0.701042414,-0.678696811,0.695056021,0.165240765,-0.046400353,0.152295008,0.097084999,-0.570520997,0.527800798,0.864299953,-0.127619192,-0.037552383,-0.010593211,0.000000000,0.000000000
-0.014700004,0.104876988,0.167550400,0.182930201,-0.178327605,-0.068519197,-0.005492000,-0.095481612,-0.271977782,0.135437995,-0.151033551,0.071958430,-0.046078403,0.091551013,0.701233208,-0.678129852,0.694903195,0.166506588,-0.047572821,0.151958004,0.097269990,-0.570857167,0.527222812,0.864158392,-0.128403187,-0.038860351,-0.010022009,0.000000000,0.000000000
-0.014667400,0.105409198,0.167688996,0.183468804,-0.178591192,-0.068646401,-0.005455200,-0.095105797,-0.271925211,0.135933995,-0.152619004,0.070798792,-0.046119202,0.091441400,0.701350391,-0.677351356,0.694807410,0.166612804,-0.045896001,0.151702195,0.097677007,-0.571108758,0.526763380,0.863963604,-0.128967404,-0.040490799,-0.009873798,0.000000000,0.000000000
-0.014653601,0.105348393,0.167773589,0.183422983,-0.178570181,-0.068480395,-0.005347998,-0.095107198,-0.271831393,0.135511592,-0.151646569,0.071533233,-0.046266399,0.091812611,0.701384783,-0.676407576,0.694231987,0.167167217,-0.048760884,0.150514573,0.097947806,-0.571289599,0.526262641,0.863608241,-0.129277200,-0.039342556,-0.009702997,0.000000000,0.000000000
-0.014616000,0.105122000,0.167851001,0.183138996,-0.178479999,-0.068360999,-0.005224000,-0.095186003,-0.271678001,0.134763002,-0.149857998,0.072805002,-0.046181999,0.092129000,0.701349020,-0.675858974,0.693382978,0.167850003,-0.052956000,0.149251997,0.097956002,-0.571413994,0.525644004,0.863273978,-0.129338995,-0.036506999,-0.009601000,0.000000000,0.000000000
-0.014369397,0.105936207,0.168059602,0.183386207,-0.178844392,-0.069345213,-0.005252201,-0.094476789,-0.271380603,0.135330796,-0.152229235,0.070635170,-0.046658207,0.092692405,0.701214194,-0.675963163,0.692646027,0.168187201,-0.050056957,0.150401607,0.098993197,-0.571264029,0.524032414,0.862022161,-0.129295006,-0.036901399,-0.009664403,0.000000000,0.000000000
-0.014171401,0.106511801,0.168260604,0.183454201,-0.179034799,-0.070034802,-0.005208601,-0.093939997,-0.271289378,0.135481000,-0.153348997,0.069580995,-0.046664804,0.092873201,0.700973392,-0.676367998,0.692165792,0.166698605,-0.046761613,0.151124194,0.099588200,-0.570991993,0.523300588,0.861608386,-0.128800809,-0.037322994,-0.010450592,0.000000000,0.000000000
-0.014154800,0.106401801,0.168402001,0.183186203,-0.178871393,-0.069896199,-0.004969600,-0.093911603,-0.271559417,0.134517595,-0.151220188,0.071313210,-0.046957187,0.094019994,0.700445414,-0.675201178,0.691487789,0.162556589,-0.044798389,0.150391996,0.103788778,-0.570295215,0.520217597,0.858768821,-0.127586186,-0.041552782,-0.012133206,0.000000000,0.000000000
-0.014320998,0.106522597,0.168707594,0.183489189,-0.178948000,-0.069503807,-0.005041398,-0.093809403,-0.271307588,0.134388804,-0.150356606,0.072197601,-0.046527997,0.094068587,0.700152397,-0.676029801,0.690874457,0.161267608,-0.043011416,0.150583595,0.102435209,-0.570034981,0.521409631,0.859880567,-0.127451792,-0.038501833,-0.013099194,0.000000000,0.000000000
-0.014596000,0.106885001,0.169011995,0.184094995,-0.179210007,-0.069206998,-0.005299000,-0.093566000,-0.270898998,0.134789005,-0.150648996,0.072005004,-0.047026999,0.094713002,0.699317992,-0.677030027,0.690931976,0.161776006,-0.041723002,0.151363999,0.103161998,-0.569148004,0.520980000,0.859461010,-0.128119007,-0.037388999,-0.013009000,0.000000000,0.000000000
-0.014808401,0.107624412,0.168810189,0.184362799,-0.179564610,-0.070050612,-0.005680404,-0.092959598,-0.271341205,0.135515213,-0.152518615,0.069457173,-0.046779208,0.094296411,0.697948813,-0.677265584,0.691901445,0.161106199,-0.041140996,0.151986599,0.101607867,-0.567912996,0.521930337,0.861098945,-0.129059806,-0.038119100,-0.010827573,0.000000000,0.000000000
-0.014867800,0.107984997,0.168790400,0.184251606,-0.179697007,-0.070666999,-0.005796400,-0.092622399,-0.271630794,0.135485798,-0.153025001,0.068626992,-0.046700593,0.094484985,0.696796179,-0.677031994,0.692264974,0.160920396,-0.041775394,0.152579203,0.101156384,-0.566697240,0.521992385,0.861990452,-0.129709795,-0.040325571,-0.009352602,0.000000000,0.000000000
-0.014701200,0.107645996,0.169213012,0.183668017,-0.179450005,-0.070545599,-0.005458399,-0.092802800,-0.271410584,0.134192586,-0.150908589,0.071190208,-0.046133213,0.094336614,0.695845962,-0.677527189,0.692321777,0.161742195,-0.043859608,0.153080598,0.099837020,-0.565488398,0.522562981,0.864087641,-0.129862189,-0.041124038,-0.009828402,0.000000000,0.000000000
-0.014851397,0.107933596,0.169276610,0.183970183,-0.179517001,-0.070557997,-0.005445398,-0.092471205,-0.271080017,0.133915991,-0.150274411,0.071681812,-0.046588391,0.095467187,0.694989204,-0.676501632,0.692317843,0.161890000,-0.045313984,0.152633607,0.101372972,-0.564438224,0.521030247,0.863090634,-0.129700810,-0.043092780,-0.010145797,0.000000000,0.000000000
-0.015171000,0.108613998,0.169128001,0.184701994,-0.179736003,-0.070724003,-0.005655000,-0.091835998,-0.270749986,0.134319007,-0.150861993,0.070587002,-0.047033999,0.096352004,0.694005013,-0.675445020,0.692835987,0.161704004,-0.045917001,0.151850000,0.104722999,-0.563170016,0.517759025,0.860476971,-0.129296005,-0.045639999,-0.010235000,0.000000000,0.000000000
-0.015307397,0.109200194,0.169095188,0.184721395,-0.179699600,-0.071231589,-0.005893196,-0.091350608,-0.270683408,0.134698004,-0.152492374,0.068635434,-0.046359789,0.095404983,0.693227410,-0.676438212,0.693534970,0.161993384,-0.045732014,0.152290985,0.101271205,-0.562307000,0.520967782,0.863577604,-0.128914207,-0.041234024,-0.009683210,0.000000000,0.000000000
-0.015558398,0.109457396,0.169216409,0.184911996,-0.179807410,-0.071221404,-0.006129598,-0.091202796,-0.270706594,0.134840995,-0.152897805,0.067961395,-0.046797000,0.096060999,0.692667186,-0.676327586,0.693489432,0.163235590,-0.043873616,0.153415799,0.101007998,-0.561624408,0.521752834,0.863956749,-0.128636003,-0.040820599,-0.009615997,0.000000000,0.000000000
-0.015986800,0.109237999,0.169535398,0.185481608,-0.180157408,-0.070346795,-0.006385800,-0.091531798,-0.270758986,0.134728402,-0.151162595,0.069554009,-0.046883199,0.096102200,0.692225397,-0.677075565,0.693878770,0.165777013,-0.040386189,0.155062392,0.100579992,-0.561085820,0.521876991,0.864925981,-0.128670394,-0.041794203,-0.010705604,0.000000000,0.000000000
-0.015974002,0.109717593,0.169253796,0.185564816,-0.180184007,-0.070958987,-0.006079606,-0.090933613,-0.270840198,0.134333819,-0.151557386,0.069194213,-0.047030590,0.096134387,0.691488802,-0.676772833,0.694509029,0.164278835,-0.039512597,0.154832214,0.102860704,-0.560124576,0.519541681,0.863773704,-0.128822207,-0.044133518,-0.011272998,0.000000000,0.000000000
-0.015768001,0.110495001,0.168714002,0.185379997,-0.180033997,-0.072288997,-0.005652000,-0.089979999,-0.270956993,0.134041995,-0.152989000,0.067786999,-0.046551000,0.095269002,0.690922976,-0.676644027,0.695304990,0.160862997,-0.041152000,0.153014004,0.101245999,-0.559545994,0.520533025,0.865541995,-0.129199997,-0.042052999,-0.011304000,0.000000000,0.000000000
-0.016034795,0.110529006,0.168840796,0.185494795,-0.180087000,-0.072419405,-0.006272187,-0.090169996,-0.271188200,0.134846568,-0.152473614,0.067694798,-0.046651751,0.095016152,0.690505624,-0.676624060,0.696535945,0.160436183,-0.045459729,0.149318859,0.101714626,-0.558902860,0.519877553,0.865491748,-0.129787996,-0.042496227,-0.010186623,0.000000000,0.000000000
-0.016383797,0.110495597,0.168840393,0.185852796,-0.180177599,-0.072188407,-0.006842198,-0.090385601,-0.271342397,0.135628998,-0.151895598,0.067557804,-0.047038388,0.095015585,0.690163612,-0.676626801,0.697361410,0.161477596,-0.047516599,0.147831798,0.102071747,-0.558376968,0.519368231,0.865429401,-0.129953802,-0.043254353,-0.009636400,0.000000000,0.000000000
-0.016716996,0.110608198,0.168443412,0.186501190,-0.180272192,-0.071804196,-0.007005204,-0.090275005,-0.271340996,0.136048794,-0.151881993,0.066971213,-0.046664745,0.094089538,0.689995229,-0.677492678,0.697514832,0.163740188,-0.045051664,0.150386751,0.099913530,-0.558314800,0.520522654,0.867254436,-0.129378811,-0.041681934,-0.010394795,0.000000000,0.000000000
-0.016500607,0.111026794,0.168250591,0.186452806,-0.180245787,-0.072273597,-0.006449410,-0.089748815,-0.271735579,0.135713607,-0.153088391,0.066378005,-0.046636619,0.093640819,0.689709187,-0.677532613,0.697695613,0.163043618,-0.041812833,0.151950181,0.101813674,-0.557945549,0.518620133,0.865932941,-0.129600406,-0.042952280,-0.010390203,0.000000000,0.000000000
-0.016085001,0.111507997,0.168181002,0.186032996,-0.180133000,-0.073114000,-0.005661000,-0.089117996,-0.272206992,0.135008007,-0.154467002,0.066111997,-0.047208998,0.093888000,0.689522028,-0.676810026,0.697679996,0.161008000,-0.039475001,0.152365997,0.102689996,-0.557766020,0.518404007,0.865343988,-0.130413994,-0.043116000,-0.009970000,0.000000000,0.000000000
-0.016342595,0.111374199,0.168016404,0.185996205,-0.179969400,-0.073091403,-0.005876195,-0.089169197,-0.271817029,0.134794205,-0.152984828,0.067252576,-0.046976212,0.093375407,0.689440966,-0.677285433,0.697818995,0.161750987,-0.042178359,0.151057824,0.100543216,-0.557843208,0.520054221,0.867339969,-0.130994797,-0.041274216,-0.009727202,0.000000000,0.000000000
-0.016498601,0.111178994,0.167892396,0.185949594,-0.179879189,-0.072911002,-0.005871802,-0.089309998,-0.271612406,0.134360403,-0.151699215,0.068359002,-0.046486612,0.092719615,0.689317226,-0.677639246,0.697774768,0.162461013,-0.044042602,0.149971604,0.099870242,-0.557874382,0.519854426,0.868160963,-0.130887210,-0.039823245,-0.010385193,0.000000000,0.000000000
-0.016310200,0.111112401,0.167816803,0.185800806,-0.179923803,-0.072780199,-0.005273204,-0.089365199,-0.272004575,0.133592203,-0.151770785,0.068854615,-0.046647768,0.093020558,0.689051032,-0.676961780,0.697351217,0.162279993,-0.042919431,0.150028199,0.099705324,-0.558004200,0.519907713,0.868592262,-0.130051196,-0.037191350,-0.012266187,0.000000000,0.000000000
-0.016560007,0.111648612,0.167313784,0.186046004,-0.179947406,-0.073297814,-0.005639414,-0.088952988,-0.272708207,0.134566426,-0.153318048,0.066742748,-0.047057413,0.093652412,0.688805223,-0.676113009,0.696760774,0.162548020,-0.040926766,0.151116833,0.100920632,-0.557990611,0.518778801,0.867661834,-0.130669221,-0.037809841,-0.011435164,0.000000000,0.000000000
-0.016927000,0.112299003,0.166727006,0.186336994,-0.179934993,-0.073974997,-0.006374000,-0.088453002,-0.273362011,0.136133000,-0.155123994,0.064030997,-0.047410000,0.094132997,0.688628972,-0.675830007,0.696328998,0.163411006,-0.039666001,0.152625993,0.101677999,-0.557920992,0.518274009,0.867214978,-0.131953001,-0.039113000,-0.009490000,0.000000000,0.000000000
-0.016489593,0.111691594,0.167056799,0.185688198,-0.179866791,-0.073432393,-0.005699791,-0.088920802,-0.272940993,0.134865180,-0.153662175,0.066411637,-0.047283392,0.094035797,0.688426018,-0.676283360,0.696191430,0.165321812,-0.042277232,0.153431401,0.101444796,-0.557944596,0.518927991,0.868057966,-0.131843597,-0.038950793,-0.010408416,0.000000000,0.000000000
-0.016171400,0.111276999,0.167280197,0.185293198,-0.179807007,-0.073087402,-0.005368605,-0.089264601,-0.272592396,0.134222612,-0.152576402,0.067900792,-0.046827603,0.093720615,0.688142180,-0.676844180,0.696383357,0.166310996,-0.045040645,0.152569354,0.100412406,-0.558055162,0.519760966,0.869206607,-0.130852774,-0.037911206,-0.011753023,0.000000000,0.000000000
-0.016267801,0.111570001,0.167042211,0.185539603,-0.179755211,-0.073445603,-0.005951603,-0.089090392,-0.272729427,0.135364816,-0.153141215,0.066371396,-0.046790399,0.093956396,0.687761188,-0.676511586,0.696793795,0.165464610,-0.046660412,0.149471179,0.100290403,-0.558100998,0.519061625,0.868755579,-0.128996998,-0.038045608,-0.012751602,0.000000000,0.000000000
-0.016209397,0.111551598,0.167005002,0.185341597,-0.179636002,-0.073745802,-0.006244000,-0.089190207,-0.272512197,0.136095807,-0.154272616,0.066189609,-0.046799414,0.094258219,0.687430024,-0.676173806,0.697197378,0.165224209,-0.048562840,0.147466779,0.101202250,-0.558066785,0.518411398,0.868086994,-0.129507229,-0.038753837,-0.012401983,0.000000000,0.000000000
-0.016044000,0.111404002,0.167035997,0.184875995,-0.179471999,-0.073982000,-0.006262000,-0.089372002,-0.272338003,0.136410996,-0.155356005,0.066753998,-0.046333998,0.093820997,0.686950982,-0.676352024,0.697890997,0.165435001,-0.050409000,0.146384001,0.100631997,-0.558000982,0.519214988,0.868984997,-0.131208003,-0.037741002,-0.011480000,0.000000000,0.000000000
-0.016194200,0.111674801,0.166729391,0.185095802,-0.179570407,-0.074144401,-0.006417401,-0.089204796,-0.273481607,0.137063608,-0.155088201,0.066400595,-0.046737794,0.094804801,0.686493397,-0.675297379,0.697657943,0.166155994,-0.052395213,0.145785391,0.101936191,-0.557845592,0.518009007,0.867501020,-0.130846396,-0.038089383,-0.011763206,0.000000000,0.000000000
-0.016056390,0.111811601,0.166426390,0.185055390,-0.179579407,-0.074271604,-0.006145988,-0.089024805,-0.274064004,0.137014985,-0.154734403,0.066400215,-0.046471976,0.094769783,0.685792804,-0.675019979,0.697603941,0.164233297,-0.049674265,0.145927221,0.101924136,-0.557690442,0.517411470,0.867399693,-0.130619600,-0.036775500,-0.012194205,0.000000000,0.000000000
-0.015429199,0.111603804,0.166252807,0.184439793,-0.179373994,-0.074372999,-0.005283597,-0.088970602,-0.273350000,0.135949194,-0.154788002,0.067165002,-0.046668399,0.095379800,0.685449958,-0.674845576,0.696990609,0.158294365,-0.040614970,0.146896407,0.102578394,-0.557559371,0.517214417,0.867366791,-0.131309003,-0.035628594,-0.012354202,0.000000000,0.000000000
-0.015619610,0.111969210,0.165924802,0.184601203,-0.179400593,-0.074617401,-0.005347809,-0.088593185,-0.273225814,0.136073604,-0.155779213,0.066293173,-0.046862409,0.095951006,0.685176432,-0.674661636,0.696539402,0.157570839,-0.039966863,0.147282794,0.103369236,-0.557384372,0.516608775,0.867026448,-0.130654365,-0.037452675,-0.012629005,0.000000000,0.000000000
-0.016212000,0.112526000,0.165554002,0.185129002,-0.179556996,-0.074873000,-0.005848000,-0.088166997,-0.273573995,0.136739001,-0.156857997,0.064921997,-0.046808001,0.095957004,0.684785008,-0.674921989,0.696754992,0.160071999,-0.043871999,0.147438005,0.103197001,-0.557213008,0.516614974,0.867398977,-0.129563004,-0.039452001,-0.012857000,0.000000000,0.000000000
-0.016058197,0.112146989,0.165416002,0.184787005,-0.179486603,-0.074717395,-0.005433595,-0.088528007,-0.274203002,0.136089996,-0.155510575,0.066356018,-0.047020800,0.095947199,0.684445620,-0.675230563,0.697867990,0.160776198,-0.043126583,0.147688210,0.104167804,-0.556951404,0.515912354,0.866642475,-0.130402029,-0.038660780,-0.012427394,0.000000000,0.000000000
-0.015874799,0.112078197,0.165512398,0.184478000,-0.179463208,-0.074771799,-0.005296999,-0.088659197,-0.274643779,0.135973394,-0.154646188,0.066933401,-0.046529405,0.094990410,0.684184194,-0.676177800,0.698730171,0.161753386,-0.039496031,0.150892362,0.102982014,-0.556787431,0.516840816,0.867719233,-0.130921602,-0.037028603,-0.012113000,0.000000000,0.000000000
-0.015937200,0.112779006,0.165860608,0.184623405,-0.179649591,-0.075267799,-0.005907602,-0.088201396,-0.274665594,0.137174413,-0.155419394,0.065324396,-0.046636198,0.095061794,0.683853745,-0.676187217,0.698235214,0.163476020,-0.032852978,0.158319220,0.103702411,-0.556566238,0.516628981,0.867319584,-0.130288392,-0.040312413,-0.012072800,0.000000000,0.000000000
-0.015839802,0.113095395,0.165706798,0.184611410,-0.179672003,-0.075562201,-0.005873204,-0.087899998,-0.274682820,0.137470201,-0.156702995,0.064517602,-0.046635788,0.094872393,0.683351636,-0.676451206,0.698412359,0.165067375,-0.031247981,0.159211025,0.104163170,-0.556249380,0.516187191,0.867038608,-0.130925193,-0.040090606,-0.011540408,0.000000000,0.000000000
-0.015660999,0.113128997,0.165375993,0.184469000,-0.179566994,-0.075689003,-0.005518000,-0.087748997,-0.274668008,0.137182996,-0.157786995,0.064493001,-0.046562001,0.094563998,0.683164001,-0.676841021,0.698846996,0.166599005,-0.033659000,0.156115994,0.103932001,-0.556131005,0.516228974,0.867079973,-0.132121995,-0.037583001,-0.010958000,0.000000000,0.000000000
-0.015697800,0.113073803,0.165727794,0.184373602,-0.179479599,-0.075668998,-0.005803195,-0.087798998,-0.274425626,0.137281001,-0.156733021,0.065422781,-0.046768203,0.094467409,0.682905614,-0.676895022,0.700154543,0.168959558,-0.037800740,0.155315012,0.104414001,-0.555945635,0.516278207,0.866870165,-0.132148206,-0.039125971,-0.011594787,0.000000000,0.000000000
-0.015516002,0.113127798,0.166160405,0.184173986,-0.179364204,-0.075775795,-0.005884801,-0.087778598,-0.274464399,0.137350798,-0.155715793,0.066188797,-0.046226002,0.093819410,0.682793617,-0.676888168,0.700915217,0.168974206,-0.040040795,0.154276013,0.103839405,-0.555867195,0.516465425,0.867234945,-0.132176802,-0.039765600,-0.011691203,0.000000000,0.000000000
-0.014970011,0.113403387,0.166486189,0.183898613,-0.179262400,-0.076124594,-0.005527803,-0.087588206,-0.274977803,0.137429997,-0.155613184,0.066287614,-0.046219613,0.093498424,0.682594001,-0.676480412,0.701224804,0.165409088,-0.039498225,0.152320832,0.103707843,-0.555788398,0.516362548,0.867055595,-0.132678807,-0.040252220,-0.010570213,0.000000000,0.000000000
-0.014485604,0.113934390,0.166971803,0.183942586,-0.179483205,-0.076191798,-0.005598597,-0.087201208,-0.274386019,0.138117179,-0.157173574,0.064432636,-0.045817800,0.092941001,0.682331443,-0.676293194,0.701597810,0.162266016,-0.038271412,0.151170209,0.102606803,-0.555782974,0.517200351,0.867825389,-0.132750809,-0.040453985,-0.010550794,0.000000000,0.000000000
-0.014123000,0.114514999,0.167588994,0.184165001,-0.179856002,-0.076130003,-0.005923000,-0.086745001,-0.273173004,0.138890997,-0.158968002,0.062268000,-0.045648001,0.092990004,0.682169020,-0.675695002,0.701932013,0.160246000,-0.038019001,0.150271997,0.102923997,-0.555745006,0.517364025,0.867462993,-0.132772997,-0.041820999,-0.011012000,0.000000000,0.000000000
-0.014224797,0.114505403,0.168008193,0.184119999,-0.179848000,-0.076293200,-0.005801203,-0.086499199,-0.272805989,0.137584418,-0.156658441,0.064611353,-0.045768805,0.093202606,0.681950569,-0.675190806,0.702662230,0.162914336,-0.045229681,0.147720248,0.102585450,-0.555701196,0.518267989,0.867203355,-0.134013176,-0.040578462,-0.010258814,0.000000000,0.000000000
-0.014132202,0.114699997,0.168675199,0.184042409,-0.179863602,-0.076570794,-0.005885398,-0.086259000,-0.272543997,0.136993989,-0.154872000,0.065877005,-0.045986801,0.093677998,0.681725204,-0.674805403,0.702996850,0.165775776,-0.047692221,0.148354977,0.102150604,-0.555623412,0.518933594,0.866615832,-0.134514391,-0.039794602,-0.009601802,0.000000000,0.000000000
-0.013543813,0.115372986,0.169788986,0.183945417,-0.180015594,-0.076944195,-0.006417392,-0.085977018,-0.272153616,0.138197377,-0.155311182,0.064028233,-0.046042986,0.094195977,0.681302190,-0.674535036,0.702655256,0.167145371,-0.040382482,0.154246330,0.101483770,-0.555498600,0.518826246,0.865761042,-0.133449823,-0.040490158,-0.009499002,0.000000000,0.000000000
-0.012792987,0.116097614,0.171085015,0.183588982,-0.180158198,-0.077460811,-0.006517597,-0.085173778,-0.270331740,0.138102591,-0.156473026,0.063128397,-0.046178997,0.094896197,0.680678010,-0.673932791,0.702665389,0.167712808,-0.041863903,0.153778329,0.101766989,-0.555299222,0.517785192,0.864142418,-0.132980585,-0.040134154,-0.009254394,0.000000000,0.000000000
-0.012056000,0.116774999,0.172535002,0.183206007,-0.180337995,-0.077904999,-0.006515000,-0.084213004,-0.267894000,0.137431994,-0.157545999,0.063060999,-0.046422001,0.095752001,0.680162013,-0.673269987,0.702844024,0.167676002,-0.047540002,0.149683997,0.101311997,-0.555236995,0.517386019,0.863152981,-0.133150995,-0.038428999,-0.009172000,0.000000000,0.000000000
-0.011836799,0.117083803,0.174074218,0.183412999,-0.180682600,-0.077549793,-0.007404411,-0.084134996,-0.267026782,0.138272017,-0.156319380,0.063698605,-0.046668604,0.096395999,0.679621220,-0.673619211,0.703986228,0.167337596,-0.044743158,0.148187995,0.100433588,-0.555289209,0.517385423,0.863231421,-0.134170413,-0.038565204,-0.010249212,0.000000000,0.000000000
-0.011424804,0.117529392,0.175849780,0.183516592,-0.180970192,-0.077620998,-0.008269397,-0.083876006,-0.265901208,0.139035404,-0.155191004,0.064169198,-0.046831198,0.097023197,0.679216802,-0.674102426,0.704586983,0.166932404,-0.042004004,0.148825988,0.099672802,-0.555357397,0.517253041,0.863059640,-0.135088801,-0.039388794,-0.010860201,0.000000000,0.000000000
-0.010543796,0.118309610,0.177959412,0.183268398,-0.181120798,-0.078589402,-0.008848004,-0.083062589,-0.263861388,0.139279991,-0.155052200,0.064051591,-0.046174996,0.096466392,0.678148806,-0.675324798,0.705140829,0.166704208,-0.041697592,0.151958212,0.100796998,-0.555424035,0.514815211,0.861158431,-0.135367796,-0.041789599,-0.010359601,0.000000000,0.000000000
-0.009976003,0.119456396,0.180376381,0.183850989,-0.181693390,-0.078802601,-0.009692789,-0.082082808,-0.261292219,0.140032396,-0.156107187,0.062443826,-0.046107396,0.096578598,0.677543819,-0.676119387,0.706453562,0.168196768,-0.039002843,0.154237792,0.100241810,-0.555541992,0.515453994,0.860906243,-0.135907590,-0.040959619,-0.011061186,0.000000000,0.000000000
