Han-tp28/mjlab/export/vr_m3_1_mode2_csv/walk_forward_amateur_001__A001/smpl_joint.csv
smpl_joint_0_x,smpl_joint_0_y,smpl_joint_0_z,smpl_joint_1_x,smpl_joint_1_y,smpl_joint_1_z,smpl_joint_2_x,smpl_joint_2_y,smpl_joint_2_z,smpl_joint_3_x,smpl_joint_3_y,smpl_joint_3_z,smpl_joint_4_x,smpl_joint_4_y,smpl_joint_4_z,smpl_joint_5_x,smpl_joint_5_y,smpl_joint_5_z,smpl_joint_6_x,smpl_joint_6_y,smpl_joint_6_z,smpl_joint_7_x,smpl_joint_7_y,smpl_joint_7_z,smpl_joint_8_x,smpl_joint_8_y,smpl_joint_8_z,smpl_joint_9_x,smpl_joint_9_y,smpl_joint_9_z,smpl_joint_10_x,smpl_joint_10_y,smpl_joint_10_z,smpl_joint_11_x,smpl_joint_11_y,smpl_joint_11_z,smpl_joint_12_x,smpl_joint_12_y,smpl_joint_12_z,smpl_joint_13_x,smpl_joint_13_y,smpl_joint_13_z,smpl_joint_14_x,smpl_joint_14_y,smpl_joint_14_z,smpl_joint_15_x,smpl_joint_15_y,smpl_joint_15_z,smpl_joint_16_x,smpl_joint_16_y,smpl_joint_16_z,smpl_joint_17_x,smpl_joint_17_y,smpl_joint_17_z,smpl_joint_18_x,smpl_joint_18_y,smpl_joint_18_z,smpl_joint_19_x,smpl_joint_19_y,smpl_joint_19_z,smpl_joint_20_x,smpl_joint_20_y,smpl_joint_20_z,smpl_joint_21_x,smpl_joint_21_y,smpl_joint_21_z,smpl_joint_22_x,smpl_joint_22_y,smpl_joint_22_z,smpl_joint_23_x,smpl_joint_23_y,smpl_joint_23_z
0.003123261,-0.351407468,0.012036551,0.059000090,-0.320731521,-0.080720529,-0.062043089,-0.332493484,-0.091146812,-0.000462045,-0.325526774,0.122325398,0.137270406,-0.331870317,-0.455264866,-0.111205444,-0.351544738,-0.452777565,0.007169573,-0.329961330,0.254355282,0.117749460,-0.289012104,-0.859174490,-0.101104803,-0.325425953,-0.863335967,-0.001297017,-0.349342912,0.311089575,0.182840630,-0.387606502,-0.934102952,-0.155227333,-0.430927128,-0.934198260,-0.011978747,-0.331537902,0.478411019,0.046365641,-0.344910473,0.395504057,-0.047874566,-0.346334875,0.397047877,-0.004029994,-0.259426355,0.625127316,0.156611115,-0.333616436,0.469718784,-0.144725382,-0.340716094,0.461358458,0.408714682,-0.247777730,0.495449424,-0.414304286,-0.305222720,0.501624703,0.652346015,-0.276862383,0.557418644,-0.660826802,-0.323502153,0.537428260,0.734842837,-0.332775503,0.525152445,-0.743157148,-0.381057382,0.510041118
0.003123261,-0.351407468,0.012036551,0.059000090,-0.320731521,-0.080720529,-0.062043089,-0.332493484,-0.091146812,-0.000462045,-0.325526774,0.122325398,0.137506545,-0.331699818,-0.455220491,-0.111205444,-0.351544738,-0.452777565,0.007169573,-0.329961330,0.254355282,0.118175462,-0.288780659,-0.859132767,-0.101104803,-0.325425953,-0.863335967,-0.001297017,-0.349342912,0.311089575,0.183285505,-0.387437075,-0.933963120,-0.155170470,-0.431180447,-0.933863282,-0.011978747,-0.331537902,0.478411019,0.046365641,-0.344910473,0.395504057,-0.047874566,-0.346334875,0.397047877,-0.003552937,-0.260135949,0.625447392,0.156533852,-0.333472431,0.469811410,-0.144725382,-0.340716094,0.461358458,0.408554405,-0.247425467,0.495659322,-0.414304286,-0.305222720,0.501624703,0.652200520,-0.276549608,0.557551920,-0.660826802,-0.323502153,0.537428260,0.734686553,-0.332364023,0.525088072,-0.743157148,-0.381057382,0.510041118
0.003123261,-0.351407468,0.012036551,0.058976788,-0.320761651,-0.080744535,-0.062067058,-0.332543314,-0.091140799,-0.000442318,-0.325482875,0.122315727,0.137521803,-0.331844687,-0.455233097,-0.111184567,-0.351732522,-0.452770352,0.007061960,-0.329902738,0.254353404,0.118165039,-0.288939744,-0.859145761,-0.100976162,-0.325372219,-0.863310695,-0.001441523,-0.349290669,0.311080009,0.183250859,-0.387599438,-0.933992863,-0.155026227,-0.431214929,-0.933717608,-0.012159747,-0.331459880,0.478396386,0.046200935,-0.344865978,0.395506322,-0.048040215,-0.346253335,0.397025824,-0.003345896,-0.260624170,0.625683665,0.156325907,-0.333365619,0.469868094,-0.144971788,-0.340606987,0.461212218,0.408291429,-0.247181818,0.495796114,-0.414579839,-0.305268794,0.501419663,0.651932657,-0.276450306,0.557639658,-0.661097348,-0.323531926,0.537265658,0.734392583,-0.332200021,0.524998665,-0.743487179,-0.381042928,0.509964466
0.003123261,-0.351407468,0.012036551,0.058976788,-0.320761651,-0.080744535,-0.062067058,-0.332543314,-0.091140799,-0.000442318,-0.325482875,0.122315727,0.137521803,-0.331844687,-0.455233097,-0.111184567,-0.351732522,-0.452770352,0.007061960,-0.329902738,0.254353404,0.118165039,-0.288939744,-0.859145761,-0.100976162,-0.325372219,-0.863310695,-0.001441523,-0.349290669,0.311080009,0.183250859,-0.387599438,-0.933992863,-0.155026227,-0.431214929,-0.933717608,-0.012159747,-0.331459880,0.478396386,0.046200935,-0.344865978,0.395506322,-0.048040215,-0.346253335,0.397025824,-0.003345896,-0.260624170,0.625683665,0.156325907,-0.333365619,0.469868094,-0.145036578,-0.340685397,0.461121112,0.408291429,-0.247181818,0.495796114,-0.414699674,-0.305491745,0.501085818,0.651895523,-0.276807576,0.557615995,-0.661243498,-0.323886514,0.536682963,0.734285772,-0.332632810,0.524928093,-0.743652642,-0.381357819,0.509356856
0.003123261,-0.351407468,0.012036551,0.059014559,-0.320812672,-0.080738619,-0.062024456,-0.332605124,-0.091178991,-0.000489698,-0.325419754,0.122299336,0.137581617,-0.332066804,-0.455217421,-0.111140475,-0.351996720,-0.452797949,0.006927491,-0.329782218,0.254343837,0.118269123,-0.289315045,-0.859148383,-0.100913130,-0.325727463,-0.863343596,-0.001629923,-0.349158198,0.311066419,0.183323801,-0.387999564,-0.933989823,-0.154947758,-0.431515038,-0.933845222,-0.012469279,-0.331259072,0.478367686,0.045949910,-0.344716340,0.395527124,-0.048292827,-0.346072316,0.396975696,-0.003680666,-0.260482550,0.625684977,0.156076923,-0.333263248,0.469893217,-0.145352200,-0.340457410,0.460971445,0.408022583,-0.247029051,0.495847434,-0.415026963,-0.305292606,0.500882626,0.651549935,-0.276795626,0.557901621,-0.661565185,-0.323684812,0.536519468,0.733792365,-0.332844526,0.525224209,-0.744032145,-0.381121010,0.509293854
0.003123261,-0.351407468,0.012036551,0.059014559,-0.320812672,-0.080738619,-0.062024456,-0.332605124,-0.091178991,-0.000489698,-0.325419754,0.122299336,0.137581617,-0.332066804,-0.455217421,-0.111140475,-0.351996720,-0.452797949,0.006927491,-0.329782218,0.254343837,0.118269123,-0.289315045,-0.859148383,-0.100913130,-0.325727463,-0.863343596,-0.001629923,-0.349158198,0.311066419,0.183323801,-0.387999564,-0.933989823,-0.154848576,-0.431476504,-0.933978796,-0.012469279,-0.331259072,0.478367686,0.045949910,-0.344716340,0.395527124,-0.048292827,-0.346072316,0.396975696,-0.003680666,-0.260482550,0.625684977,0.156076923,-0.333263248,0.469893217,-0.145352200,-0.340457410,0.460971445,0.408022583,-0.247029051,0.495847434,-0.415026963,-0.305292606,0.500882626,0.651549935,-0.276795626,0.557901621,-0.661565185,-0.323684812,0.536519468,0.733589947,-0.333076447,0.525114238,-0.744079411,-0.381084472,0.509360194
0.003123261,-0.351407468,0.012036551,0.059089951,-0.320873767,-0.080713302,-0.061934311,-0.332725018,-0.091257595,-0.000604719,-0.325321525,0.122272313,0.137654781,-0.332010001,-0.455196142,-0.111056536,-0.352208346,-0.452870786,0.006722134,-0.329555750,0.254326046,0.118278667,-0.289270252,-0.859125376,-0.100823209,-0.325895458,-0.863413572,-0.001858028,-0.348920107,0.311049163,0.183336630,-0.388011336,-0.933889389,-0.154901877,-0.431738108,-0.933798611,-0.012783605,-0.330801338,0.478321224,0.045678731,-0.344361931,0.395527899,-0.048564579,-0.345725656,0.396930724,-0.004106240,-0.259967893,0.625617743,0.155773252,-0.332907379,0.469941854,-0.145649880,-0.340039849,0.460880816,0.407738149,-0.246718362,0.495859027,-0.415367037,-0.305041701,0.500651538,0.651209354,-0.276481032,0.558135092,-0.661896944,-0.323646665,0.536235631,0.733182967,-0.332773596,0.525202334,-0.744348943,-0.381153405,0.509113789
0.003123261,-0.351407468,0.012036551,0.059133179,-0.320904374,-0.080697276,-0.061880283,-0.332807779,-0.091306530,-0.000679909,-0.325261176,0.122255445,0.137704760,-0.332000196,-0.455179870,-0.111083567,-0.352328509,-0.452906668,0.006573556,-0.329462558,0.254314274,0.118280649,-0.289298266,-0.859110832,-0.100872949,-0.325906247,-0.863442957,-0.002005454,-0.348834813,0.311034858,0.183358282,-0.388028979,-0.933871388,-0.155030891,-0.431771338,-0.933733165,-0.012951550,-0.330633849,0.478296638,0.045520924,-0.344235361,0.395517230,-0.048722565,-0.345597982,0.396909118,-0.004339135,-0.259812087,0.625602603,0.155590490,-0.332797736,0.469970703,-0.145812392,-0.339933753,0.460854292,0.407603085,-0.246727511,0.495818615,-0.415571362,-0.305162042,0.500540197,0.651091516,-0.276502937,0.558021069,-0.662098587,-0.323951572,0.536045969,0.732968211,-0.332756221,0.524781406,-0.744513333,-0.381527394,0.508957565
0.003123261,-0.351407468,0.012036551,0.059133179,-0.320904374,-0.080697276,-0.061880283,-0.332807779,-0.091306530,-0.000679909,-0.325261176,0.122255445,0.137704760,-0.332000196,-0.455179870,-0.111083567,-0.352328509,-0.452906668,0.006573556,-0.329462558,0.254314274,0.118280649,-0.289298266,-0.859110832,-0.100872949,-0.325906247,-0.863442957,-0.002005454,-0.348834813,0.311034858,0.183358282,-0.388028979,-0.933871388,-0.154930741,-0.431712717,-0.933898330,-0.012951550,-0.330633849,0.478296638,0.045520924,-0.344235361,0.395517230,-0.048722565,-0.345597982,0.396909118,-0.004339135,-0.259812087,0.625602603,0.155590490,-0.332797736,0.469970703,-0.145812392,-0.339933753,0.460854292,0.407603085,-0.246727511,0.495818615,-0.415571362,-0.305162042,0.500540197,0.651091516,-0.276502937,0.558021069,-0.662098587,-0.323951572,0.536045969,0.732851207,-0.332774132,0.524524570,-0.744513333,-0.381527394,0.508957565
0.003123261,-0.351407468,0.012036551,0.059129383,-0.320966274,-0.080719888,-0.061888229,-0.332845777,-0.091308348,-0.000660250,-0.325202882,0.122242272,0.137888044,-0.332322687,-0.455155313,-0.110903293,-0.352522939,-0.452925563,0.006493839,-0.329353184,0.254308134,0.118645318,-0.289829254,-0.859116912,-0.100578330,-0.326338500,-0.863474250,-0.002172449,-0.348705858,0.311022103,0.183682144,-0.388563693,-0.933907986,-0.154674858,-0.432174057,-0.933856130,-0.013325915,-0.330499917,0.478269637,0.045248445,-0.344111800,0.395564020,-0.048996896,-0.345460325,0.396837533,-0.005176113,-0.259524584,0.625527978,0.155303955,-0.332684040,0.470039725,-0.146179229,-0.339802116,0.460642546,0.407325327,-0.246678799,0.496017754,-0.415999234,-0.305067986,0.499944448,0.650767624,-0.276654750,0.558304131,-0.662546992,-0.323745728,0.535366237,0.732626140,-0.332845926,0.524914980,-0.744956911,-0.381364822,0.508355379
0.003123261,-0.351407468,0.012036551,0.059129383,-0.320966274,-0.080719888,-0.061888229,-0.332845777,-0.091308348,-0.000660250,-0.325202882,0.122242272,0.137888044,-0.332322687,-0.455155313,-0.110903293,-0.352522939,-0.452925563,0.006493839,-0.329353184,0.254308134,0.118645318,-0.289829254,-0.859116912,-0.100578330,-0.326338500,-0.863474250,-0.002172449,-0.348705858,0.311022103,0.183682144,-0.388563693,-0.933907986,-0.154797480,-0.432193249,-0.933732867,-0.013325915,-0.330499917,0.478269637,0.045248445,-0.344111800,0.395564020,-0.048996896,-0.345460325,0.396837533,-0.005558241,-0.259370655,0.625474334,0.155406326,-0.332698911,0.469890505,-0.146179229,-0.339802116,0.460642546,0.407456875,-0.246682286,0.495545775,-0.415999234,-0.305067986,0.499944448,0.650987685,-0.276658922,0.557484806,-0.662546992,-0.323745728,0.535366237,0.733028412,-0.332703501,0.524297059,-0.744956911,-0.381364822,0.508355379
0.003123261,-0.351407468,0.012036551,0.059111163,-0.320962250,-0.080729589,-0.061904892,-0.332871646,-0.091302522,-0.000653447,-0.325192720,0.122240096,0.137914613,-0.332360893,-0.455154359,-0.110826910,-0.352618963,-0.452928543,0.006443177,-0.329299867,0.254310399,0.118810967,-0.290091336,-0.859146059,-0.100453012,-0.326553762,-0.863483548,-0.002255237,-0.348640174,0.311023712,0.183858231,-0.388806462,-0.933953643,-0.154560402,-0.432487339,-0.933709502,-0.013530679,-0.330454171,0.478265226,0.045104466,-0.344050884,0.395600140,-0.049141657,-0.345409036,0.396805823,-0.005939950,-0.259309053,0.625471473,0.155207828,-0.332635283,0.470007002,-0.146371081,-0.339779496,0.460541606,0.407241285,-0.246681273,0.496038228,-0.416216552,-0.304985672,0.499615580,0.650690496,-0.276913226,0.558174253,-0.662791133,-0.323555648,0.534907341,0.732731223,-0.333012849,0.525079429,-0.745264292,-0.381124139,0.507981598
0.003123261,-0.351407468,0.012036551,0.059109151,-0.320928246,-0.080719635,-0.061903942,-0.332860231,-0.091301076,-0.000664026,-0.325220078,0.122246228,0.137825713,-0.332269251,-0.455164433,-0.110791169,-0.352708906,-0.452926278,0.006419562,-0.329321057,0.254317433,0.118723631,-0.290158004,-0.859172702,-0.100378349,-0.326994896,-0.863502502,-0.002310108,-0.348649144,0.311030120,0.183739200,-0.388868600,-0.934013784,-0.154387668,-0.432968199,-0.933744073,-0.013643093,-0.330513120,0.478273213,0.045021608,-0.344072312,0.395622909,-0.049224567,-0.345453560,0.396798253,-0.006175733,-0.259301364,0.625453591,0.155108556,-0.332613915,0.470047474,-0.146463856,-0.339859635,0.460522115,0.407123566,-0.246585250,0.496010125,-0.416354358,-0.305055946,0.499275148,0.650576532,-0.276765883,0.558156133,-0.662966132,-0.323603868,0.534317732,0.732387424,-0.333088458,0.524871707,-0.745435596,-0.381185472,0.507408619
0.003123261,-0.351407468,0.012036551,0.059109151,-0.320928246,-0.080719635,-0.061903942,-0.332860231,-0.091301076,-0.000664026,-0.325220078,0.122246228,0.138074085,-0.332554132,-0.455103368,-0.110791169,-0.352708906,-0.452926278,0.006419562,-0.329321057,0.254317433,0.119254649,-0.290890783,-0.859171271,-0.100378349,-0.326994896,-0.863502502,-0.002310108,-0.348649144,0.311030120,0.184212774,-0.389669687,-0.933972120,-0.154327199,-0.432780445,-0.934072793,-0.013643093,-0.330513120,0.478273213,0.045021608,-0.344072312,0.395622909,-0.049224567,-0.345453560,0.396798253,-0.006161852,-0.259077072,0.625344157,0.155079186,-0.332624763,0.470092595,-0.146471262,-0.339772671,0.460503161,0.407077134,-0.246432960,0.495677501,-0.416363925,-0.304900616,0.499179453,0.650480688,-0.276455343,0.558093071,-0.662953973,-0.323398858,0.534400702,0.731614649,-0.333361208,0.524150133,-0.745367110,-0.381091744,0.507557273
0.003123261,-0.351407468,0.012036551,0.059050851,-0.320873082,-0.080736652,-0.061968196,-0.332804322,-0.091250554,-0.000597468,-0.325282902,0.122263402,0.138018265,-0.332438082,-0.455121756,-0.110745892,-0.352800578,-0.452882379,0.006481943,-0.329420954,0.254333675,0.119284049,-0.290987611,-0.859215617,-0.100252517,-0.327302128,-0.863469958,-0.002307354,-0.348736435,0.311041415,0.184181288,-0.389762223,-0.934074938,-0.154188901,-0.433138281,-0.933973849,-0.013734236,-0.330703378,0.478289187,0.044975609,-0.344226092,0.395665050,-0.049271621,-0.345582455,0.396783799,-0.006227419,-0.259219974,0.625335813,0.154990464,-0.332798958,0.470200956,-0.146563143,-0.339934856,0.460423172,0.406954467,-0.246495858,0.495744944,-0.416501254,-0.304896981,0.498629421,0.650379181,-0.276597410,0.558039665,-0.663143396,-0.323207438,0.533583045,0.731246054,-0.333768994,0.523906589,-0.745543003,-0.380885005,0.506665647
0.003123261,-0.351407468,0.012036551,0.059050851,-0.320873082,-0.080736652,-0.061968196,-0.332804322,-0.091250554,-0.000597468,-0.325282902,0.122263402,0.138018265,-0.332438082,-0.455121756,-0.110549390,-0.353085130,-0.452892959,0.006481943,-0.329420954,0.254333675,0.119284049,-0.290987611,-0.859215617,-0.099878937,-0.327846885,-0.863492012,-0.002307354,-0.348736435,0.311041415,0.184181288,-0.389762223,-0.934074938,-0.153844044,-0.433828294,-0.933755279,-0.013734236,-0.330703378,0.478289187,0.044975609,-0.344226092,0.395665050,-0.049271621,-0.345582455,0.396783799,-0.006227419,-0.259219974,0.625335813,0.154990464,-0.332798958,0.470200956,-0.146563143,-0.339934856,0.460423172,0.406936526,-0.246421054,0.495668739,-0.416501254,-0.304896981,0.498629421,0.650446177,-0.276538372,0.557623029,-0.663143396,-0.323207438,0.533583045,0.731275558,-0.333809316,0.523567855,-0.745543003,-0.380885005,0.506665647
0.003123261,-0.351407468,0.012036551,0.059029602,-0.320854723,-0.080743402,-0.061993085,-0.332773596,-0.091229320,-0.000567175,-0.325309783,0.122270785,0.138154715,-0.332512558,-0.455092311,-0.110530227,-0.352794945,-0.452892095,0.006473929,-0.329439998,0.254343331,0.119658545,-0.291485161,-0.859240174,-0.099894464,-0.327943474,-0.863515675,-0.002336854,-0.348742127,0.311052293,0.184487611,-0.390277058,-0.934135735,-0.153937280,-0.433917463,-0.933730364,-0.013816422,-0.330716342,0.478297234,0.044918194,-0.344249755,0.395692468,-0.049329758,-0.345580846,0.396778733,-0.006323920,-0.259104848,0.625282228,0.154939458,-0.332872778,0.470226556,-0.146640271,-0.339959979,0.460391402,0.406912953,-0.246540874,0.495578676,-0.416596442,-0.304641187,0.498209298,0.650431514,-0.276872873,0.557392955,-0.663281143,-0.322623879,0.533032596,0.731158555,-0.334169805,0.523139298,-0.745631218,-0.380351812,0.506071270
0.003123261,-0.351407468,0.012036551,0.059016000,-0.320795119,-0.080731958,-0.061999183,-0.332781911,-0.091226980,-0.000587630,-0.325343817,0.122278154,0.138190135,-0.332520753,-0.455068409,-0.110489458,-0.352682382,-0.452902764,0.006422690,-0.329487741,0.254351914,0.119689301,-0.291750789,-0.859242201,-0.099909604,-0.328236610,-0.863552153,-0.002370443,-0.348799884,0.311060190,0.184500664,-0.390521437,-0.934181094,-0.153962165,-0.434188098,-0.933793306,-0.013880137,-0.330812395,0.478307247,0.044871669,-0.344300270,0.395707220,-0.049375731,-0.345678836,0.396781296,-0.006501499,-0.259117305,0.625257254,0.154898778,-0.332958847,0.470238090,-0.146689415,-0.340119720,0.460394502,0.406874478,-0.246585667,0.495426595,-0.416669965,-0.304701805,0.497944355,0.650432944,-0.276954561,0.557065248,-0.663384199,-0.322513103,0.532645702,0.731109917,-0.334232867,0.522662699,-0.745676041,-0.380302966,0.505639553
0.003123261,-0.351407468,0.012036551,0.059016000,-0.320795119,-0.080731958,-0.061999183,-0.332781911,-0.091226980,-0.000587630,-0.325343817,0.122278154,0.138190135,-0.332520753,-0.455068409,-0.110489458,-0.352682382,-0.452902764,0.006422690,-0.329487741,0.254351914,0.119689301,-0.291750789,-0.859242201,-0.099909604,-0.328236610,-0.863552153,-0.002370443,-0.348799884,0.311060190,0.184500664,-0.390521437,-0.934181094,-0.153770179,-0.434121549,-0.934040666,-0.013880137,-0.330812395,0.478307247,0.044871669,-0.344300270,0.395707220,-0.049375731,-0.345678836,0.396781296,-0.006501499,-0.259117305,0.625257254,0.154898778,-0.332958847,0.470238090,-0.146689415,-0.340119720,0.460394502,0.406874478,-0.246585667,0.495426595,-0.416669965,-0.304701805,0.497944355,0.650432944,-0.276954561,0.557065248,-0.663384199,-0.322513103,0.532645702,0.731101155,-0.334299773,0.522753775,-0.745665133,-0.380282432,0.505562305
0.003123261,-0.351407468,0.012036551,0.059003390,-0.320797086,-0.080740198,-0.062008999,-0.332818925,-0.091227457,-0.000589711,-0.325324386,0.122273482,0.138221905,-0.332646430,-0.455063343,-0.110492781,-0.352844089,-0.452897161,0.006371991,-0.329484075,0.254349321,0.119848043,-0.292030007,-0.859258354,-0.099829637,-0.328456491,-0.863547802,-0.002419984,-0.348777145,0.311064273,0.184663251,-0.390785873,-0.934213400,-0.153707847,-0.434420288,-0.933904290,-0.013906229,-0.330797017,0.478313714,0.044833258,-0.344289809,0.395705730,-0.049414244,-0.345653206,0.396791339,-0.006554506,-0.259079516,0.625254154,0.154853448,-0.332904875,0.470240176,-0.146690339,-0.340078056,0.460460663,0.406850100,-0.246564537,0.495332062,-0.416665375,-0.304605931,0.497999430,0.650461614,-0.276909441,0.556772768,-0.663396657,-0.322113812,0.532734871,0.731190205,-0.334214449,0.522536218,-0.745725274,-0.379843980,0.505712986
0.003123261,-0.351407468,0.012036551,0.059003390,-0.320797086,-0.080740198,-0.062008999,-0.332818925,-0.091227457,-0.000589711,-0.325324386,0.122273482,0.138221905,-0.332646430,-0.455063343,-0.110286444,-0.352728248,-0.452931225,0.006371991,-0.329484075,0.254349321,0.119848043,-0.292030007,-0.859258354,-0.099341765,-0.328275114,-0.863570571,-0.002419984,-0.348777145,0.311064273,0.184663251,-0.390785873,-0.934213400,-0.153321043,-0.434360951,-0.933665156,-0.013906229,-0.330797017,0.478313714,0.044833258,-0.344289809,0.395705730,-0.049414244,-0.345653206,0.396791339,-0.006554506,-0.259079516,0.625254154,0.154853448,-0.332904875,0.470240176,-0.146690339,-0.340078056,0.460460663,0.406850100,-0.246564537,0.495332062,-0.416665375,-0.304605931,0.497999430,0.650526404,-0.276665658,0.556635618,-0.663396657,-0.322113812,0.532734871,0.731431246,-0.333777517,0.522492647,-0.745722353,-0.379823774,0.505661130
0.003123261,-0.351407468,0.012036551,0.058994442,-0.320812285,-0.080750592,-0.062022503,-0.332806498,-0.091216683,-0.000564691,-0.325320750,0.122273467,0.138307169,-0.332771480,-0.455050260,-0.110357575,-0.352840692,-0.452905834,0.006401700,-0.329495519,0.254348576,0.120051779,-0.292362809,-0.859271407,-0.099532001,-0.328760833,-0.863570392,-0.002372636,-0.348767847,0.311073303,0.184867874,-0.391137391,-0.934200943,-0.153489619,-0.434716880,-0.933877587,-0.013794014,-0.330756128,0.478323758,0.044912674,-0.344273150,0.395696431,-0.049334627,-0.345621049,0.396817207,-0.006444742,-0.259019315,0.625254869,0.154981062,-0.332936227,0.470167011,-0.146572843,-0.340018064,0.460541904,0.407105744,-0.246894628,0.494996905,-0.416544348,-0.304623216,0.498178393,0.650746703,-0.277310967,0.556285024,-0.663269162,-0.321889102,0.533079505,0.731535316,-0.334392518,0.521817684,-0.745688021,-0.379532874,0.506148815
0.003123261,-0.351407468,0.012036551,0.059047032,-0.320830315,-0.080724858,-0.061967183,-0.332800001,-0.091250405,-0.000614156,-0.325312406,0.122269824,0.138488352,-0.332925260,-0.454992920,-0.110238492,-0.353134543,-0.452931285,0.006404516,-0.329470634,0.254342705,0.120261773,-0.292707652,-0.859234452,-0.099420927,-0.329448879,-0.863618970,-0.002364034,-0.348728955,0.311073124,0.185059488,-0.391519129,-0.934131265,-0.153322250,-0.435379714,-0.934007347,-0.013795434,-0.330671668,0.478318006,0.044915434,-0.344220132,0.395698786,-0.049332187,-0.345551878,0.396812558,-0.006497211,-0.258875370,0.625222623,0.154966816,-0.332903534,0.470197588,-0.146571517,-0.340010315,0.460540950,0.407157898,-0.247050047,0.495004714,-0.416553885,-0.304726750,0.498204201,0.650693834,-0.277698547,0.556594133,-0.663265169,-0.321857870,0.533267498,0.731419027,-0.334833860,0.522067130,-0.745786190,-0.379420459,0.506476045
0.003123261,-0.351407468,0.012036551,0.059047032,-0.320830315,-0.080724858,-0.061967183,-0.332800001,-0.091250405,-0.000614156,-0.325312406,0.122269824,0.138488352,-0.332925260,-0.454992920,-0.110238492,-0.353134543,-0.452931285,0.006404516,-0.329470634,0.254342705,0.120261773,-0.292707652,-0.859234452,-0.099422768,-0.328978568,-0.863591611,-0.002364034,-0.348728955,0.311073124,0.185059488,-0.391519129,-0.934131265,-0.153328508,-0.434826642,-0.934100986,-0.013795434,-0.330671668,0.478318006,0.044915434,-0.344220132,0.395698786,-0.049332187,-0.345551878,0.396812558,-0.006497211,-0.258875370,0.625222623,0.154966816,-0.332903534,0.470197588,-0.146571517,-0.340010315,0.460540950,0.407157898,-0.247050047,0.495004714,-0.416553885,-0.304726750,0.498204201,0.650693834,-0.277698547,0.556594133,-0.663265169,-0.321857870,0.533267498,0.731373847,-0.334955543,0.522163332,-0.745786190,-0.379420459,0.506476045
0.003123261,-0.351407468,0.012036551,0.059054684,-0.320896626,-0.080742083,-0.061963424,-0.332834631,-0.091259018,-0.000604037,-0.325252920,0.122256078,0.138577372,-0.333161503,-0.454987377,-0.110180356,-0.353460908,-0.452930689,0.006357763,-0.329389751,0.254332632,0.120427221,-0.293039918,-0.859241962,-0.099225700,-0.329429686,-0.863594770,-0.002419384,-0.348626345,0.311069071,0.185250431,-0.391816139,-0.934163272,-0.153158650,-0.435413301,-0.933879375,-0.013831518,-0.330491096,0.478306830,0.044869047,-0.344087124,0.395688087,-0.049378701,-0.345402300,0.396811575,-0.006580753,-0.258683205,0.625208139,0.154957324,-0.332827330,0.470140934,-0.146588147,-0.339919865,0.460590661,0.407278121,-0.247313082,0.494799912,-0.416558504,-0.304733127,0.498430580,0.650818229,-0.278293401,0.556206703,-0.663233221,-0.321875811,0.533744693,0.731468499,-0.335685730,0.521931827,-0.745803297,-0.379450530,0.507131040
0.003123261,-0.351407468,0.012036551,0.059053723,-0.320975542,-0.080768570,-0.061975289,-0.332832783,-0.091251187,-0.000558963,-0.325203359,0.122245818,0.138632029,-0.333431393,-0.454995692,-0.110105008,-0.353535861,-0.452930033,0.006379287,-0.329292655,0.254325092,0.120573685,-0.293327570,-0.859256148,-0.098957375,-0.329564542,-0.863592327,-0.002400647,-0.348487586,0.311075181,0.185446769,-0.392065287,-0.934185028,-0.153037608,-0.435643941,-0.933618784,-0.013774250,-0.330210477,0.478300095,0.044905882,-0.343892425,0.395681083,-0.049342014,-0.345178515,0.396824270,-0.006495805,-0.258397073,0.625197291,0.155041039,-0.332702547,0.470075130,-0.146518633,-0.339584976,0.460643649,0.407518804,-0.247600719,0.494553328,-0.416444480,-0.304225832,0.498639613,0.651101470,-0.278964311,0.555595219,-0.663117409,-0.321201980,0.534045994,0.731750071,-0.336441249,0.521458387,-0.745690882,-0.378811151,0.507517993
0.003123261,-0.351407468,0.012036551,0.059053723,-0.320975542,-0.080768570,-0.061975289,-0.332832783,-0.091251187,-0.000558963,-0.325203359,0.122245818,0.138632029,-0.333431393,-0.454995692,-0.110105008,-0.353535861,-0.452930033,0.006379287,-0.329292655,0.254325092,0.120573685,-0.293327570,-0.859256148,-0.098957375,-0.329564542,-0.863592327,-0.002400647,-0.348487586,0.311075181,0.185446769,-0.392065287,-0.934185028,-0.152854577,-0.435575902,-0.933862507,-0.013774250,-0.330210477,0.478300095,0.044905882,-0.343892425,0.395681083,-0.049342014,-0.345178515,0.396824270,-0.006495805,-0.258397073,0.625197291,0.155041039,-0.332702547,0.470075130,-0.146518633,-0.339584976,0.460643649,0.407518804,-0.247600719,0.494553328,-0.416474402,-0.304642886,0.498812139,0.651101470,-0.278964311,0.555595219,-0.663101554,-0.322000414,0.534352303,0.731688857,-0.336574435,0.521538734,-0.745605230,-0.379718632,0.507843912
0.003123261,-0.351407468,0.012036551,0.059073668,-0.320999771,-0.080764495,-0.061956469,-0.332831621,-0.091262855,-0.000568892,-0.325188458,0.122241937,0.138788596,-0.333523870,-0.454960287,-0.109985739,-0.353672326,-0.452947199,0.006372474,-0.329255819,0.254321724,0.120843500,-0.293427676,-0.859226584,-0.098712526,-0.329580307,-0.863599062,-0.002430920,-0.348469406,0.311061919,0.185745478,-0.392153859,-0.934145689,-0.152466998,-0.435527176,-0.934075534,-0.013844402,-0.330221981,0.478287399,0.044854790,-0.343896568,0.395680666,-0.049393568,-0.345169932,0.396799713,-0.006515220,-0.258552581,0.625252366,0.155004114,-0.332801133,0.470067918,-0.146581352,-0.339489430,0.460594445,0.407560050,-0.247931316,0.494545609,-0.416519523,-0.304562032,0.498901010,0.651122987,-0.279698670,0.555457354,-0.663147926,-0.321973622,0.534406364,0.731591463,-0.337507606,0.521456540,-0.745556295,-0.379776537,0.507785857
0.003123261,-0.351407468,0.012036551,0.059073668,-0.320999771,-0.080764495,-0.061956469,-0.332831621,-0.091262855,-0.000568892,-0.325188458,0.122241937,0.138788596,-0.333523870,-0.454960287,-0.109985739,-0.353672326,-0.452947199,0.006372474,-0.329255819,0.254321724,0.120843500,-0.293427676,-0.859226584,-0.098712526,-0.329580307,-0.863599062,-0.002430920,-0.348469406,0.311061919,0.185745478,-0.392153859,-0.934145689,-0.152628332,-0.435452402,-0.934064627,-0.013844402,-0.330221981,0.478287399,0.044854790,-0.343896568,0.395680666,-0.049393568,-0.345169932,0.396799713,-0.006515220,-0.258552581,0.625252366,0.155004114,-0.332801133,0.470067918,-0.146581352,-0.339489430,0.460594445,0.407560050,-0.247931316,0.494545609,-0.416488290,-0.304606348,0.499160737,0.651122987,-0.279698670,0.555457354,-0.663091421,-0.322357148,0.534673691,0.731591463,-0.337507606,0.521456540,-0.745441377,-0.380196899,0.507952690
0.003123261,-0.351407468,0.012036551,0.059014805,-0.321077049,-0.080825239,-0.062021900,-0.332918018,-0.091237098,-0.000499209,-0.325096518,0.122222334,0.138712168,-0.333792925,-0.455018282,-0.110049397,-0.353890032,-0.452914059,0.006464786,-0.329090327,0.254303157,0.120835386,-0.293784171,-0.859296203,-0.098679386,-0.330076605,-0.863579452,-0.002301355,-0.348259419,0.311064154,0.185717911,-0.392519832,-0.934219599,-0.152647674,-0.436050504,-0.933851600,-0.013621259,-0.329850793,0.478278339,0.045030639,-0.343617082,0.395653248,-0.049217392,-0.344867945,0.396823883,-0.006165929,-0.258081764,0.625188410,0.155228540,-0.332568944,0.469975561,-0.146363452,-0.339060247,0.460670680,0.407945186,-0.248163551,0.494400352,-0.416223735,-0.304023921,0.499424160,0.651424289,-0.280509084,0.555343091,-0.662806869,-0.321844101,0.535040975,0.731770694,-0.338444889,0.521269798,-0.745108783,-0.379750371,0.508316398
0.003123261,-0.351407468,0.012036551,0.059014805,-0.321077049,-0.080825239,-0.062021900,-0.332918018,-0.091237098,-0.000499209,-0.325096518,0.122222334,0.138712168,-0.333792925,-0.455018282,-0.109896816,-0.353706241,-0.452944875,0.006464786,-0.329090327,0.254303157,0.120835386,-0.293784171,-0.859296203,-0.098297894,-0.329761297,-0.863596201,-0.002301355,-0.348259419,0.311064154,0.185717911,-0.392519832,-0.934219599,-0.152349830,-0.435780108,-0.933736205,-0.013621259,-0.329850793,0.478278339,0.045030639,-0.343617082,0.395653248,-0.049217392,-0.344867945,0.396823883,-0.006165929,-0.258081764,0.625188410,0.155228540,-0.332568944,0.469975561,-0.146363452,-0.339060247,0.460670680,0.407972336,-0.248262569,0.494461238,-0.416223735,-0.304023921,0.499424160,0.651380360,-0.280633777,0.555673659,-0.662806869,-0.321844101,0.535040975,0.731766880,-0.338383883,0.521380246,-0.745108783,-0.379750371,0.508316398
0.003123261,-0.351407468,0.012036551,0.058987748,-0.321107984,-0.080851629,-0.062050320,-0.332966715,-0.091227897,-0.000474083,-0.325052768,0.122212708,0.138693243,-0.333992988,-0.455037177,-0.110091090,-0.354074717,-0.452895224,0.006573102,-0.328984708,0.254290998,0.120860435,-0.294142008,-0.859332621,-0.098662615,-0.330362618,-0.863564909,-0.002154040,-0.348142207,0.311061889,0.185726732,-0.392918468,-0.934216321,-0.152656689,-0.436303258,-0.933867395,-0.013341589,-0.329711646,0.478282511,0.045241371,-0.343528837,0.395617038,-0.049006749,-0.344708443,0.396854550,-0.005767003,-0.257844061,0.625138283,0.155517697,-0.332589060,0.469839007,-0.146100089,-0.338842869,0.460776240,0.408388764,-0.248626724,0.494193047,-0.415941596,-0.303785533,0.499641299,0.651775837,-0.281201243,0.555380881,-0.662497520,-0.321825236,0.535335958,0.731996477,-0.339164525,0.521058440,-0.744822383,-0.379689783,0.508591712
0.003123261,-0.351407468,0.012036551,0.059020609,-0.321080983,-0.080823041,-0.062007599,-0.332988143,-0.091258667,-0.000538266,-0.325059474,0.122212201,0.139039993,-0.334015101,-0.454939902,-0.109791815,-0.354259491,-0.452950388,0.006531097,-0.328965575,0.254290074,0.121409208,-0.294064164,-0.859234333,-0.098266691,-0.330435693,-0.863610864,-0.002163346,-0.348124355,0.311065584,0.186274171,-0.392804772,-0.934166491,-0.152157888,-0.436324507,-0.934070230,-0.013295365,-0.329748005,0.478295922,0.045260526,-0.343534082,0.395606041,-0.048987087,-0.344721705,0.396875322,-0.005691439,-0.257865727,0.625142932,0.155582637,-0.332638651,0.469766498,-0.146057576,-0.338849127,0.460831106,0.408494204,-0.248822331,0.494203061,-0.415932536,-0.303868800,0.499533117,0.651855171,-0.281401247,0.555492580,-0.662495673,-0.322011113,0.535126269,0.732062280,-0.339380533,0.521165729,-0.744795382,-0.379861414,0.508273780
0.003123261,-0.351407468,0.012036551,0.059020609,-0.321080983,-0.080823041,-0.062007599,-0.332988143,-0.091258667,-0.000538266,-0.325059474,0.122212201,0.139039993,-0.334015101,-0.454939902,-0.109791815,-0.354259491,-0.452950388,0.006531097,-0.328965575,0.254290074,0.121409208,-0.294064164,-0.859234333,-0.098266691,-0.330435693,-0.863610864,-0.002163346,-0.348124355,0.311065584,0.186274171,-0.392804772,-0.934166491,-0.152173266,-0.436412215,-0.933926463,-0.013295365,-0.329748005,0.478295922,0.045260526,-0.343534082,0.395606041,-0.048987087,-0.344721705,0.396875322,-0.005691439,-0.257865727,0.625142932,0.155582637,-0.332638651,0.469766498,-0.146057576,-0.338849127,0.460831106,0.408494204,-0.248822331,0.494203061,-0.415932536,-0.303868800,0.499533117,0.651855171,-0.281401247,0.555492580,-0.662495673,-0.322011113,0.535126269,0.732062280,-0.339380533,0.521165729,-0.744702280,-0.379933476,0.508144438
0.003123261,-0.351407468,0.012036551,0.058998138,-0.321145564,-0.080857620,-0.062043127,-0.332971752,-0.091233321,-0.000468445,-0.325026274,0.122206554,0.138994798,-0.334230423,-0.454974115,-0.109870583,-0.354364008,-0.452912182,0.006641077,-0.328862339,0.254284322,0.121366337,-0.294356108,-0.859276235,-0.098339938,-0.330560416,-0.863573670,-0.002033641,-0.347983688,0.311075449,0.186152250,-0.393109918,-0.934259295,-0.152216166,-0.436526299,-0.933928490,-0.013070670,-0.329557866,0.478306621,0.045436297,-0.343390167,0.395589858,-0.048811086,-0.344538808,0.396908730,-0.005368018,-0.257505506,0.625065088,0.155830756,-0.332506448,0.469644248,-0.145887211,-0.338622332,0.460851848,0.408796400,-0.248847112,0.494058281,-0.415782094,-0.303634614,0.499407381,0.652111113,-0.281550795,0.555464625,-0.662361085,-0.321526319,0.535017192,0.732316196,-0.339525372,0.521125019,-0.744638860,-0.379307806,0.507950127
0.003123261,-0.351407468,0.012036551,0.059006318,-0.321175396,-0.080862425,-0.062040109,-0.332954258,-0.091232114,-0.000453358,-0.325015873,0.122204557,0.139000922,-0.334354997,-0.454976022,-0.109924756,-0.354472101,-0.452895999,0.006693418,-0.328817606,0.254281312,0.121418186,-0.294594079,-0.859291315,-0.098387681,-0.330689669,-0.863558531,-0.001980642,-0.347926766,0.311076641,0.186250299,-0.393341184,-0.934243262,-0.152147621,-0.436661333,-0.933993578,-0.012979089,-0.329502612,0.478310525,0.045507763,-0.343345791,0.395581365,-0.048739616,-0.344473660,0.396919668,-0.005164016,-0.257356524,0.625017047,0.155891210,-0.332431018,0.469647646,-0.145828217,-0.338497370,0.460838318,0.408837110,-0.248747408,0.494183332,-0.415739119,-0.303596139,0.499360770,0.652183950,-0.281646729,0.555357754,-0.662335873,-0.321252286,0.534965277,0.732285976,-0.339644730,0.520818055,-0.744714141,-0.378843933,0.507799625
0.003123261,-0.351407468,0.012036551,0.059006318,-0.321175396,-0.080862425,-0.062040109,-0.332954258,-0.091232114,-0.000453358,-0.325015873,0.122204557,0.139000922,-0.334354997,-0.454976022,-0.109924756,-0.354472101,-0.452895999,0.006693418,-0.328817606,0.254281312,0.121418186,-0.294594079,-0.859291315,-0.098387681,-0.330689669,-0.863558531,-0.001980642,-0.347926766,0.311076641,0.186250299,-0.393341184,-0.934243262,-0.152147621,-0.436661333,-0.933993578,-0.012979089,-0.329502612,0.478310525,0.045507763,-0.343345791,0.395581365,-0.048739616,-0.344473660,0.396919668,-0.005164016,-0.257356524,0.625017047,0.155891210,-0.332431018,0.469647646,-0.145828217,-0.338497370,0.460838318,0.408837110,-0.248747408,0.494183332,-0.415739119,-0.303596139,0.499360770,0.652183950,-0.281646729,0.555357754,-0.662335873,-0.321252286,0.534965277,0.732316017,-0.339677572,0.520942926,-0.744714141,-0.378843933,0.507799625
0.003123261,-0.351407468,0.012036551,0.059015941,-0.321203172,-0.080865659,-0.062029775,-0.332981914,-0.091243565,-0.000463208,-0.324984521,0.122196719,0.138974458,-0.334375918,-0.454987228,-0.109884053,-0.354645163,-0.452902764,0.006671249,-0.328727692,0.254275799,0.121339150,-0.294664532,-0.859305143,-0.098351918,-0.330936432,-0.863569736,-0.002031385,-0.347811431,0.311075300,0.186108917,-0.393432558,-0.934283435,-0.152149886,-0.436922401,-0.933954179,-0.013071134,-0.329379112,0.478305578,0.045435995,-0.343228012,0.395591706,-0.048811745,-0.344352841,0.396906465,-0.005223968,-0.257236958,0.625012338,0.155790955,-0.332314074,0.469700515,-0.145892158,-0.338406950,0.460840404,0.408723801,-0.248592928,0.494242549,-0.415824711,-0.303624392,0.499318004,0.652068198,-0.281657815,0.555337071,-0.662424803,-0.321330190,0.534874618,0.732166350,-0.339697182,0.520857871,-0.744743466,-0.378955126,0.507599056
0.003123261,-0.351407468,0.012036551,0.059015941,-0.321203172,-0.080865659,-0.062029775,-0.332981914,-0.091243565,-0.000463208,-0.324984521,0.122196719,0.138974458,-0.334375918,-0.454987228,-0.109816238,-0.354617178,-0.452913374,0.006671249,-0.328727692,0.254275799,0.121339150,-0.294664532,-0.859305143,-0.098147474,-0.330958039,-0.863579273,-0.002031385,-0.347811431,0.311075300,0.186108917,-0.393432558,-0.934283435,-0.152089849,-0.436915129,-0.933896661,-0.013071134,-0.329379112,0.478305578,0.045435995,-0.343228012,0.395591706,-0.048811745,-0.344352841,0.396906465,-0.005223968,-0.257236958,0.625012338,0.155790955,-0.332314074,0.469700515,-0.145892158,-0.338406950,0.460840404,0.408723801,-0.248592928,0.494242549,-0.415794998,-0.303247184,0.499183506,0.652068198,-0.281657815,0.555337071,-0.662438035,-0.320608377,0.534612179,0.732130766,-0.339567423,0.520558178,-0.744824052,-0.378114253,0.507288694
0.003123261,-0.351407468,0.012036551,0.059039004,-0.321221858,-0.080857851,-0.062002823,-0.333013684,-0.091266215,-0.000495918,-0.324956924,0.122189030,0.139105290,-0.334548473,-0.454950899,-0.109829418,-0.354785979,-0.452922523,0.006656609,-0.328680664,0.254267693,0.121578626,-0.294872016,-0.859276891,-0.098241016,-0.331255436,-0.863598108,-0.002032976,-0.347781420,0.311063468,0.186320752,-0.393690705,-0.934212327,-0.152176231,-0.437198460,-0.933942199,-0.013042262,-0.329314291,0.478291899,0.045448907,-0.343190342,0.395571291,-0.048798818,-0.344297290,0.396901488,-0.005204082,-0.257078409,0.624952972,0.155820578,-0.332275242,0.469655007,-0.145830736,-0.338341594,0.460908055,0.408709943,-0.248397529,0.494110525,-0.415738523,-0.303266197,0.499293953,0.652070940,-0.281477123,0.555130899,-0.662377834,-0.320667684,0.534728587,0.732022643,-0.339565217,0.520394862,-0.744673669,-0.378248006,0.507290304
0.003123261,-0.351407468,0.012036551,0.059039004,-0.321221858,-0.080857851,-0.062002823,-0.333013684,-0.091266215,-0.000495918,-0.324956924,0.122189030,0.139105290,-0.334548473,-0.454950899,-0.109829418,-0.354785979,-0.452922523,0.006656609,-0.328680664,0.254267693,0.121578626,-0.294872016,-0.859276891,-0.098241016,-0.331255436,-0.863598108,-0.002032976,-0.347781420,0.311063468,0.186320752,-0.393690705,-0.934212327,-0.152036220,-0.437175542,-0.934083700,-0.013042262,-0.329314291,0.478291899,0.045448907,-0.343190342,0.395571291,-0.048798818,-0.344297290,0.396901488,-0.005204082,-0.257078409,0.624952972,0.155820578,-0.332275242,0.469655007,-0.145774752,-0.338235408,0.460982889,0.408637881,-0.248187989,0.494135886,-0.415686518,-0.303230196,0.499404311,0.652056873,-0.281124473,0.555002213,-0.662313938,-0.320695668,0.534890175,0.731913686,-0.339431226,0.520414233,-0.744522870,-0.378362328,0.507373035
0.003123261,-0.351407468,0.012036551,0.059060983,-0.321246356,-0.080852583,-0.061977781,-0.333045959,-0.091287762,-0.000524461,-0.324925393,0.122180514,0.139066458,-0.334737420,-0.454952747,-0.109831497,-0.354897708,-0.452935696,0.006617537,-0.328614354,0.254260719,0.121482268,-0.295068324,-0.859277010,-0.098214023,-0.331246823,-0.863603592,-0.002075249,-0.347727090,0.311051965,0.186240047,-0.393808216,-0.934302688,-0.152022302,-0.437178522,-0.934061885,-0.013082393,-0.329257667,0.478280306,0.045408007,-0.343131572,0.395558774,-0.048839625,-0.344244301,0.396890819,-0.005260264,-0.257037044,0.624949753,0.155765533,-0.332202822,0.469661593,-0.145835936,-0.338226080,0.460945517,0.408584118,-0.248119384,0.494142234,-0.415741622,-0.303151995,0.499347121,0.652006388,-0.280981302,0.555035770,-0.662385821,-0.320451677,0.534797251,0.731988072,-0.339269817,0.520706594,-0.744717956,-0.377929866,0.507254303
0.003123261,-0.351407468,0.012036551,0.059046075,-0.321293741,-0.080876917,-0.061994780,-0.333095074,-0.091285750,-0.000505033,-0.324871004,0.122168057,0.139039040,-0.334815830,-0.454978645,-0.109819315,-0.354956448,-0.452936947,0.006596623,-0.328519017,0.254251570,0.121439576,-0.295115292,-0.859299183,-0.098136544,-0.331335127,-0.863604665,-0.002080263,-0.347602785,0.311055005,0.186211362,-0.393803328,-0.934381008,-0.151991650,-0.437336683,-0.933921933,-0.013081899,-0.329010040,0.478270054,0.045406632,-0.342935354,0.395555824,-0.048840720,-0.344064146,0.396893740,-0.005315573,-0.256791204,0.624943376,0.155755401,-0.331968099,0.469665974,-0.145872414,-0.338085383,0.460898489,0.408596903,-0.247949898,0.494133860,-0.415785789,-0.303045511,0.499277025,0.652004004,-0.280608386,0.555197239,-0.662426114,-0.320313871,0.534769535,0.732081056,-0.338828206,0.520973802,-0.744851589,-0.377665579,0.507241786
0.003123261,-0.351407468,0.012036551,0.059046075,-0.321293741,-0.080876917,-0.061994780,-0.333095074,-0.091285750,-0.000505033,-0.324871004,0.122168057,0.139039040,-0.334815830,-0.454978645,-0.109819315,-0.354956448,-0.452936947,0.006596623,-0.328519017,0.254251570,0.121439576,-0.295115292,-0.859299183,-0.098136544,-0.331335127,-0.863604665,-0.002080263,-0.347602785,0.311055005,0.186280251,-0.393857807,-0.934249759,-0.152017698,-0.437481582,-0.933683038,-0.013081899,-0.329010040,0.478270054,0.045406632,-0.342935354,0.395555824,-0.048840720,-0.344064146,0.396893740,-0.005315573,-0.256791204,0.624943376,0.155755401,-0.331968099,0.469665974,-0.145872414,-0.338085383,0.460898489,0.408621073,-0.248063937,0.494274974,-0.415785789,-0.303045511,0.499277025,0.651950777,-0.280786544,0.555611968,-0.662426114,-0.320313871,0.534769535,0.731954932,-0.338890612,0.521023810,-0.744894326,-0.377676904,0.507393897
0.003123261,-0.351407468,0.012036551,0.059035543,-0.321311295,-0.080888949,-0.062004328,-0.333132654,-0.091286376,-0.000501367,-0.324841291,0.122161016,0.139095575,-0.334825814,-0.454976588,-0.109832771,-0.355171472,-0.452926278,0.006602047,-0.328466028,0.254245073,0.121562272,-0.295244753,-0.859311700,-0.098085970,-0.331493258,-0.863588870,-0.002088267,-0.347552896,0.311045408,0.186414778,-0.394013375,-0.934217632,-0.151957393,-0.437543690,-0.933819890,-0.013132696,-0.328925043,0.478253663,0.045376945,-0.342868328,0.395557463,-0.048870757,-0.343995750,0.396871358,-0.005480894,-0.256685734,0.624922931,0.155672446,-0.331917435,0.469749272,-0.145897388,-0.338042259,0.460886151,0.408549845,-0.248114735,0.494582057,-0.415818065,-0.303023785,0.499232709,0.651800871,-0.280797809,0.556251168,-0.662472665,-0.320334762,0.534604669,0.731649160,-0.338949233,0.521383405,-0.744916141,-0.377689183,0.507136583
0.003123261,-0.351407468,0.012036551,0.059035543,-0.321311295,-0.080888949,-0.062004328,-0.333132654,-0.091286376,-0.000501367,-0.324841291,0.122161016,0.139095575,-0.334825814,-0.454976588,-0.109832771,-0.355171472,-0.452926278,0.006602047,-0.328466028,0.254245073,0.121562272,-0.295244753,-0.859311700,-0.098085970,-0.331493258,-0.863588870,-0.002088267,-0.347552896,0.311045408,0.186237499,-0.394083142,-0.934278846,-0.151960239,-0.437333971,-0.934133351,-0.013132696,-0.328925043,0.478253663,0.045376945,-0.342868328,0.395557463,-0.048870757,-0.343995750,0.396871358,-0.005480894,-0.256685734,0.624922931,0.155672446,-0.331917435,0.469749272,-0.145897388,-0.338042259,0.460886151,0.408549845,-0.248114735,0.494582057,-0.415818065,-0.303023785,0.499232709,0.651800871,-0.280797809,0.556251168,-0.662472665,-0.320334762,0.534604669,0.731397331,-0.339050978,0.520979702,-0.744890630,-0.377656043,0.506991506
0.003123261,-0.351407468,0.012036551,0.059056316,-0.321320683,-0.080879495,-0.061981052,-0.333144665,-0.091303185,-0.000526765,-0.324829400,0.122157320,0.139213979,-0.334845960,-0.454945862,-0.109733820,-0.355169892,-0.452953964,0.006587800,-0.328418076,0.254241794,0.121764123,-0.295398086,-0.859297633,-0.098016992,-0.331672847,-0.863627911,-0.002117621,-0.347514480,0.311036646,0.186536670,-0.394230038,-0.934189260,-0.151959285,-0.437554598,-0.934058726,-0.013180841,-0.328902334,0.478245497,0.045338679,-0.342831403,0.395553827,-0.048909035,-0.343970418,0.396858275,-0.005543062,-0.256668776,0.624918342,0.155612513,-0.331869364,0.469776243,-0.145898014,-0.338020980,0.460930496,0.408465147,-0.248018816,0.494700253,-0.415814638,-0.303030252,0.499331295,0.651667953,-0.280540794,0.556644261,-0.662467778,-0.320361227,0.534704328,0.731370866,-0.338781834,0.521593869,-0.744879425,-0.377718627,0.507147312
0.003123261,-0.351407468,0.012036551,0.059077762,-0.321303457,-0.080861002,-0.061954100,-0.333151489,-0.091321379,-0.000564895,-0.324837059,0.122157879,0.139207751,-0.334815323,-0.454933792,-0.109684333,-0.355162114,-0.452976048,0.006538581,-0.328452647,0.254242182,0.121627226,-0.295452744,-0.859288216,-0.098045923,-0.331783324,-0.863659024,-0.002178311,-0.347534329,0.311040163,0.186406374,-0.394281060,-0.934178948,-0.152002797,-0.437698245,-0.934028864,-0.013326004,-0.328871995,0.478237748,0.045236219,-0.342815399,0.395578772,-0.049011890,-0.343972623,0.396838069,-0.005711240,-0.256648809,0.624916852,0.155499518,-0.331918538,0.469826430,-0.146052852,-0.338067263,0.460835576,0.408356756,-0.248122483,0.494886339,-0.415991992,-0.303238869,0.499225587,0.651550770,-0.280797005,0.556784511,-0.662646294,-0.320585370,0.534582853,0.731308579,-0.339078248,0.521926284,-0.745069087,-0.377956122,0.507086873
0.003123261,-0.351407468,0.012036551,0.059077762,-0.321303457,-0.080861002,-0.061954100,-0.333151489,-0.091321379,-0.000564895,-0.324837059,0.122157879,0.139207751,-0.334815323,-0.454933792,-0.109684333,-0.355162114,-0.452976048,0.006538581,-0.328452647,0.254242182,0.121627226,-0.295452744,-0.859288216,-0.098045923,-0.331783324,-0.863659024,-0.002178311,-0.347534329,0.311040163,0.186406374,-0.394281060,-0.934178948,-0.152044326,-0.437633514,-0.934094310,-0.013326004,-0.328871995,0.478237748,0.045236219,-0.342815399,0.395578772,-0.049011890,-0.343972623,0.396838069,-0.005711240,-0.256648809,0.624916852,0.155499518,-0.331918538,0.469826430,-0.146052852,-0.338067263,0.460835576,0.408295274,-0.247946575,0.494918257,-0.415991992,-0.303238869,0.499225587,0.651533067,-0.280497730,0.556709468,-0.662646294,-0.320585370,0.534582853,0.731434703,-0.338812143,0.522238076,-0.745069087,-0.377956122,0.507086873
0.003123261,-0.351407468,0.012036551,0.059073132,-0.321277708,-0.080855452,-0.061952055,-0.333182931,-0.091328204,-0.000588760,-0.324838012,0.122157313,0.139201999,-0.334807843,-0.454927802,-0.109711803,-0.355170101,-0.452980399,0.006462992,-0.328464419,0.254244089,0.121670306,-0.295693308,-0.859308362,-0.098093152,-0.331826329,-0.863665819,-0.002276210,-0.347551674,0.311036795,0.186459810,-0.394532740,-0.934175432,-0.152011812,-0.437760472,-0.934035957,-0.013492894,-0.328896403,0.478230596,0.045103502,-0.342835546,0.395595104,-0.049145103,-0.343994200,0.396815598,-0.005971704,-0.256587625,0.624872386,0.155372620,-0.331965089,0.469837964,-0.146216944,-0.338129222,0.460770011,0.408194453,-0.248075157,0.494940996,-0.416173935,-0.303386390,0.499112099,0.651385546,-0.280777127,0.556836188,-0.662825704,-0.320821881,0.534442842,0.731252730,-0.339136422,0.522361100,-0.745251715,-0.378221422,0.507016778
0.003123261,-0.351407468,0.012036551,0.059048727,-0.321281165,-0.080871269,-0.061971825,-0.333248138,-0.091327235,-0.000589866,-0.324803740,0.122149006,0.139203772,-0.334968567,-0.454932302,-0.109684587,-0.355315775,-0.452980697,0.006465763,-0.328412086,0.254236102,0.121718898,-0.296022177,-0.859331131,-0.098021775,-0.332246274,-0.863680363,-0.002277078,-0.347514808,0.311023057,0.186490163,-0.394855917,-0.934221566,-0.151781097,-0.438379467,-0.933872223,-0.013556274,-0.328895569,0.478216648,0.045071729,-0.342808902,0.395599186,-0.049177133,-0.343982011,0.396785825,-0.006176131,-0.256466866,0.624806404,0.155334055,-0.331902713,0.469846904,-0.146272808,-0.338126153,0.460704893,0.408176661,-0.248080403,0.494966656,-0.416281611,-0.303553104,0.498835236,0.651310980,-0.280763745,0.557094276,-0.662929773,-0.321294516,0.534039259,0.731126308,-0.339087129,0.522438645,-0.745277703,-0.378821135,0.506644964
0.003123261,-0.351407468,0.012036551,0.059048727,-0.321281165,-0.080871269,-0.061971825,-0.333248138,-0.091327235,-0.000589866,-0.324803740,0.122149006,0.139203772,-0.334968567,-0.454932302,-0.109684587,-0.355315775,-0.452980697,0.006465763,-0.328412086,0.254236102,0.121718898,-0.296022177,-0.859331131,-0.098021775,-0.332246274,-0.863680363,-0.002277078,-0.347514808,0.311023057,0.186490163,-0.394855917,-0.934221566,-0.151855171,-0.438275784,-0.933972120,-0.013556274,-0.328895569,0.478216648,0.045071729,-0.342808902,0.395599186,-0.049177133,-0.343982011,0.396785825,-0.006176131,-0.256466866,0.624806404,0.155334055,-0.331902713,0.469846904,-0.146272808,-0.338126153,0.460704893,0.408174813,-0.248045564,0.494868845,-0.416232020,-0.303372145,0.499021620,0.651384413,-0.280769825,0.556679606,-0.662873089,-0.320948482,0.534357607,0.731357813,-0.339231521,0.522626758,-0.745221198,-0.378466994,0.506946445
0.003123261,-0.351407468,0.012036551,0.059043795,-0.321228981,-0.080857284,-0.061978083,-0.333183467,-0.091311902,-0.000580808,-0.324868858,0.122165024,0.139071509,-0.334952712,-0.454944253,-0.109733962,-0.355320215,-0.452955455,0.006429038,-0.328464985,0.254254878,0.121555321,-0.296132565,-0.859353900,-0.098133162,-0.332497180,-0.863670707,-0.002352654,-0.347553521,0.311040580,0.186275452,-0.394977599,-0.934273541,-0.151946336,-0.438512683,-0.933999062,-0.013700160,-0.329011172,0.478238106,0.044961300,-0.342889786,0.395638585,-0.049288116,-0.344057620,0.396785498,-0.006339920,-0.256524622,0.624800205,0.155210719,-0.331971258,0.469903648,-0.146434322,-0.338181347,0.460625827,0.408061445,-0.248151630,0.494950861,-0.416408092,-0.303398311,0.498813093,0.651279211,-0.280959547,0.556684911,-0.663061380,-0.321025729,0.534037828,0.731301486,-0.339541107,0.522954583,-0.745384753,-0.378531665,0.506526351
0.003123261,-0.351407468,0.012036551,0.059043795,-0.321228981,-0.080857284,-0.061978083,-0.333183467,-0.091311902,-0.000580808,-0.324868858,0.122165024,0.139071509,-0.334952712,-0.454944253,-0.109733962,-0.355320215,-0.452955455,0.006429038,-0.328464985,0.254254878,0.121555321,-0.296132565,-0.859353900,-0.098133162,-0.332497180,-0.863670707,-0.002352654,-0.347553521,0.311040580,0.186275452,-0.394977599,-0.934273541,-0.152048588,-0.438377440,-0.934124351,-0.013700160,-0.329011172,0.478238106,0.044961300,-0.342889786,0.395638585,-0.049288116,-0.344057620,0.396785498,-0.006339920,-0.256524622,0.624800205,0.155210719,-0.331971258,0.469903648,-0.146434322,-0.338181347,0.460625827,0.408061445,-0.248151630,0.494950861,-0.416408092,-0.303398311,0.498813093,0.651279211,-0.280959547,0.556684911,-0.663061380,-0.321025729,0.534037828,0.731156826,-0.339474469,0.522499025,-0.745384753,-0.378531665,0.506526351
0.003123261,-0.351407468,0.012036551,0.059050918,-0.321186751,-0.080839276,-0.061970487,-0.333133876,-0.091307923,-0.000587951,-0.324920207,0.122177139,0.139052838,-0.334751129,-0.454937577,-0.109751910,-0.355119079,-0.452957332,0.006392238,-0.328529745,0.254268199,0.121585757,-0.295823008,-0.859338999,-0.098163784,-0.332295537,-0.863672853,-0.002401447,-0.347628236,0.311048716,0.186324492,-0.394589990,-0.934345484,-0.152048901,-0.438222498,-0.934079468,-0.013777719,-0.329153478,0.478251785,0.044900775,-0.342966825,0.395653427,-0.049348041,-0.344191700,0.396789968,-0.006513054,-0.256664455,0.624817491,0.155190408,-0.332019448,0.469854504,-0.146504015,-0.338389099,0.460622191,0.408077091,-0.248289585,0.494838357,-0.416536450,-0.303832561,0.498599827,0.651268244,-0.281139493,0.556654990,-0.663211107,-0.321574807,0.533616960,0.731145918,-0.339645594,0.522454083,-0.745499194,-0.379093528,0.506026804
0.003123261,-0.351407468,0.012036551,0.059067998,-0.321184069,-0.080828100,-0.061946381,-0.333172917,-0.091329992,-0.000628794,-0.324902713,0.122171544,0.139147967,-0.334800005,-0.454907775,-0.109694377,-0.355279803,-0.452976376,0.006306062,-0.328524709,0.254264653,0.121620230,-0.296188205,-0.859336734,-0.098186813,-0.332405627,-0.863691330,-0.002486351,-0.347640485,0.311039567,0.186316162,-0.394992769,-0.934330642,-0.151983619,-0.438402951,-0.934059501,-0.013871606,-0.329186141,0.478244245,0.044813402,-0.342965692,0.395644903,-0.049434837,-0.344232798,0.396780878,-0.006639424,-0.256693006,0.624809504,0.155121773,-0.331956983,0.469808996,-0.146603018,-0.338518769,0.460602462,0.407984436,-0.248140648,0.494745851,-0.416691959,-0.304190218,0.498383999,0.651208043,-0.280937731,0.556462467,-0.663361549,-0.322070539,0.533366323,0.731166899,-0.339392602,0.522364020,-0.745586693,-0.379696041,0.505811334
0.003123261,-0.351407468,0.012036551,0.059067998,-0.321184069,-0.080828100,-0.061946381,-0.333172917,-0.091329992,-0.000628794,-0.324902713,0.122171544,0.139147967,-0.334800005,-0.454907775,-0.109694377,-0.355279803,-0.452976376,0.006306062,-0.328524709,0.254264653,0.121620230,-0.296188205,-0.859336734,-0.098186813,-0.332405627,-0.863691330,-0.002486351,-0.347640485,0.311039567,0.186316162,-0.394992769,-0.934330642,-0.151983619,-0.438402951,-0.934059501,-0.013871606,-0.329186141,0.478244245,0.044813402,-0.342965692,0.395644903,-0.049434837,-0.344232798,0.396780878,-0.006639424,-0.256693006,0.624809504,0.155121773,-0.331956983,0.469808996,-0.146603018,-0.338518769,0.460602462,0.408012509,-0.248174861,0.494575232,-0.416669846,-0.304058313,0.498421848,0.651295185,-0.281039894,0.556022346,-0.663351178,-0.321818620,0.533382595,0.731335938,-0.339496374,0.522119403,-0.745550811,-0.379409999,0.505680799
0.003123261,-0.351407468,0.012036551,0.059048560,-0.321142435,-0.080826260,-0.061959799,-0.333194554,-0.091325380,-0.000639038,-0.324918687,0.122175045,0.139086336,-0.334805459,-0.454913318,-0.109796718,-0.355392575,-0.452954441,0.006318402,-0.328568071,0.254266202,0.121470779,-0.296265692,-0.859345436,-0.098378524,-0.332474500,-0.863669515,-0.002465550,-0.347706258,0.311034858,0.186154842,-0.395047218,-0.934379935,-0.152196527,-0.438397974,-0.934132695,-0.013877862,-0.329355299,0.478249133,0.044820856,-0.343079954,0.395650327,-0.049427480,-0.344354540,0.396771044,-0.006610254,-0.256925195,0.624843836,0.155106917,-0.332102448,0.469852298,-0.146581888,-0.338653535,0.460614800,0.407919347,-0.248082697,0.494613618,-0.416642368,-0.304137081,0.498429179,0.651286125,-0.281057924,0.555667698,-0.663327694,-0.321938097,0.533340991,0.731376410,-0.339474827,0.521813452,-0.745450974,-0.379570782,0.505498886
0.003123261,-0.351407468,0.012036551,0.059048560,-0.321142435,-0.080826260,-0.061959799,-0.333194554,-0.091325380,-0.000639038,-0.324918687,0.122175045,0.139086336,-0.334805459,-0.454913318,-0.109796718,-0.355392575,-0.452954441,0.006318402,-0.328568071,0.254266202,0.121470779,-0.296265692,-0.859345436,-0.098378524,-0.332474500,-0.863669515,-0.002465550,-0.347706258,0.311034858,0.186154842,-0.395047218,-0.934379935,-0.152196527,-0.438397974,-0.934132695,-0.013877862,-0.329355299,0.478249133,0.044820856,-0.343079954,0.395650327,-0.049427480,-0.344354540,0.396771044,-0.006610254,-0.256925195,0.624843836,0.155106917,-0.332102448,0.469852298,-0.146581888,-0.338653535,0.460614800,0.407919347,-0.248082697,0.494613618,-0.416696459,-0.304242462,0.498137623,0.651286125,-0.281057924,0.555667698,-0.663405716,-0.322139323,0.532830715,0.731405258,-0.339546680,0.522006512,-0.745472193,-0.379841983,0.504965663
0.003123261,-0.351407468,0.012036551,0.059029993,-0.321129531,-0.080833212,-0.061974827,-0.333226204,-0.091321453,-0.000639570,-0.324911416,0.122173265,0.139150038,-0.334845513,-0.454900622,-0.109672762,-0.355374724,-0.452971935,0.006327848,-0.328547388,0.254264265,0.121712267,-0.296428442,-0.859351993,-0.098135836,-0.332610995,-0.863692284,-0.002449146,-0.347686023,0.311033845,0.186449140,-0.395230532,-0.934313774,-0.151911408,-0.438623577,-0.934053779,-0.013880029,-0.329261422,0.478238672,0.044828761,-0.343012065,0.395651430,-0.049419403,-0.344304562,0.396764278,-0.006699407,-0.256747305,0.624796033,0.155126855,-0.332044393,0.469836891,-0.146560371,-0.338620275,0.460629940,0.407887667,-0.247817218,0.494419396,-0.416691095,-0.304193556,0.498021185,0.651336849,-0.280710399,0.555188358,-0.663407564,-0.322131038,0.532641709,0.731494427,-0.339132518,0.521502793,-0.745479941,-0.379813462,0.504752219
0.003123261,-0.351407468,0.012036551,0.059029993,-0.321129531,-0.080833212,-0.061974827,-0.333226204,-0.091321453,-0.000639570,-0.324911416,0.122173265,0.139150038,-0.334845513,-0.454900622,-0.109672762,-0.355374724,-0.452971935,0.006327848,-0.328547388,0.254264265,0.121712267,-0.296428442,-0.859351993,-0.098135836,-0.332610995,-0.863692284,-0.002449146,-0.347686023,0.311033845,0.186449140,-0.395230532,-0.934313774,-0.151911408,-0.438623577,-0.934053779,-0.013880029,-0.329261422,0.478238672,0.044828761,-0.343012065,0.395651430,-0.049419403,-0.344304562,0.396764278,-0.006699407,-0.256747305,0.624796033,0.155126855,-0.332044393,0.469836891,-0.146560371,-0.338620275,0.460629940,0.407887667,-0.247817218,0.494419396,-0.416691095,-0.304193556,0.498021185,0.651336849,-0.280710399,0.555188358,-0.663407564,-0.322131038,0.532641709,0.731517375,-0.339176506,0.521633923,-0.745565832,-0.379689813,0.504750133
0.003123261,-0.351407468,0.012036551,0.059027690,-0.321108222,-0.080827661,-0.061972857,-0.333239764,-0.091325089,-0.000655098,-0.324918360,0.122174412,0.139136896,-0.334693015,-0.454902202,-0.109645069,-0.355390161,-0.452978849,0.006299042,-0.328562856,0.254265875,0.121617429,-0.296416104,-0.859363437,-0.098156631,-0.332657486,-0.863702297,-0.002477771,-0.347724676,0.311027676,0.186319023,-0.395274669,-0.934281230,-0.151975721,-0.438659281,-0.934046805,-0.013929835,-0.329350144,0.478236586,0.044789169,-0.343078941,0.395652920,-0.049459219,-0.344366640,0.396752894,-0.006747290,-0.256903559,0.624827266,0.155075580,-0.332103163,0.469854563,-0.146636814,-0.338678122,0.460562438,0.407827109,-0.247827098,0.494364738,-0.416784644,-0.304137588,0.497724742,0.651263356,-0.281008959,0.555028439,-0.663524866,-0.322092146,0.532166839,0.731158435,-0.339128256,0.520214081,-0.745601833,-0.379698962,0.504135311
0.003123261,-0.351407468,0.012036551,0.059026282,-0.321082205,-0.080820017,-0.061973099,-0.333221674,-0.091321759,-0.000658757,-0.324943900,0.122180417,0.139174849,-0.334685653,-0.454885483,-0.109616496,-0.355376840,-0.452979028,0.006287933,-0.328616321,0.254271507,0.121682733,-0.296363115,-0.859343588,-0.098085135,-0.332634360,-0.863700688,-0.002468580,-0.347793579,0.311031222,0.186305970,-0.395282090,-0.934249282,-0.151920453,-0.438612372,-0.934068620,-0.013861484,-0.329434216,0.478245825,0.044828586,-0.343152344,0.395639837,-0.049419340,-0.344445795,0.396773696,-0.006615702,-0.256985009,0.624832153,0.155153900,-0.332126975,0.469776303,-0.146581322,-0.338794768,0.460610330,0.407933533,-0.247869045,0.494058460,-0.416734010,-0.304308385,0.497787684,0.651368678,-0.281388402,0.554540992,-0.663462281,-0.322390079,0.532249331,0.731162667,-0.339237094,0.519050717,-0.745504320,-0.380032301,0.504188240
0.003123261,-0.351407468,0.012036551,0.059026282,-0.321082205,-0.080820017,-0.061973099,-0.333221674,-0.091321759,-0.000658757,-0.324943900,0.122180417,0.139174849,-0.334685653,-0.454885483,-0.109616496,-0.355376840,-0.452979028,0.006287933,-0.328616321,0.254271507,0.121682733,-0.296363115,-0.859343588,-0.098085135,-0.332634360,-0.863700688,-0.002468580,-0.347793579,0.311031222,0.186434507,-0.395193905,-0.934254706,-0.152017176,-0.438692123,-0.933874130,-0.013861484,-0.329434216,0.478245825,0.044828586,-0.343152344,0.395639837,-0.049419340,-0.344445795,0.396773696,-0.006615702,-0.256985009,0.624832153,0.155223384,-0.332147270,0.469675809,-0.146581322,-0.338794768,0.460610330,0.407998860,-0.247823864,0.493773222,-0.416732371,-0.304047346,0.497555971,0.651504755,-0.281308681,0.553989589,-0.663509369,-0.321890742,0.531791925,0.731778562,-0.338688225,0.518821299,-0.745660484,-0.379397780,0.503772855
0.003123261,-0.351407468,0.012036551,0.059006341,-0.321082592,-0.080832139,-0.061991323,-0.333254427,-0.091316029,-0.000650969,-0.324927539,0.122176751,0.139099330,-0.334756196,-0.454906940,-0.109629840,-0.355456948,-0.452970982,0.006324450,-0.328577399,0.254266948,0.121561259,-0.296440989,-0.859363794,-0.098081335,-0.332648575,-0.863688469,-0.002424507,-0.347726613,0.311037302,0.186256364,-0.395275682,-0.934318662,-0.151991174,-0.438689381,-0.933904529,-0.013857654,-0.329288423,0.478240490,0.044853393,-0.343032807,0.395653754,-0.049394436,-0.344348252,0.396768034,-0.006646133,-0.256790429,0.624804378,0.155203000,-0.331980199,0.469749957,-0.146568730,-0.338757932,0.460591286,0.407979667,-0.247620493,0.493706971,-0.416751772,-0.304063529,0.497351825,0.651550889,-0.280928224,0.553756773,-0.663542628,-0.321948260,0.531465232,0.731678545,-0.338538855,0.518632948,-0.745709658,-0.379398972,0.503377080
0.003123261,-0.351407468,0.012036551,0.058997083,-0.321062624,-0.080831200,-0.061993588,-0.333297819,-0.091322228,-0.000672184,-0.324919015,0.122173987,0.139080852,-0.334807158,-0.454905391,-0.109692633,-0.355477542,-0.452970624,0.006300801,-0.328516334,0.254265755,0.121511452,-0.296556294,-0.859366894,-0.098241188,-0.332703024,-0.863692701,-0.002444417,-0.347682655,0.311030924,0.186164707,-0.395435721,-0.934298873,-0.152087823,-0.438728690,-0.933980107,-0.013824234,-0.329325318,0.478246659,0.044863187,-0.342998594,0.395631373,-0.049383432,-0.344369888,0.396781176,-0.006546815,-0.256880641,0.624833643,0.155179083,-0.331927508,0.469775021,-0.146522745,-0.338758945,0.460655838,0.407915354,-0.247397721,0.493558109,-0.416672051,-0.303891361,0.497500658,0.651580095,-0.280344546,0.553427517,-0.663475454,-0.321598858,0.531616330,0.731282115,-0.338447571,0.518146634,-0.745739996,-0.378903419,0.503515065
0.003123261,-0.351407468,0.012036551,0.058997083,-0.321062624,-0.080831200,-0.061993588,-0.333297819,-0.091322228,-0.000672184,-0.324919015,0.122173987,0.139080852,-0.334807158,-0.454905391,-0.109692633,-0.355477542,-0.452970624,0.006300801,-0.328516334,0.254265755,0.121511452,-0.296556294,-0.859366894,-0.098241188,-0.332703024,-0.863692701,-0.002444417,-0.347682655,0.311030924,0.186164707,-0.395435721,-0.934298873,-0.152087823,-0.438728690,-0.933980107,-0.013824234,-0.329325318,0.478246659,0.044863187,-0.342998594,0.395631373,-0.049383432,-0.344369888,0.396781176,-0.006546815,-0.256880641,0.624833643,0.155179083,-0.331927508,0.469775021,-0.146522745,-0.338758945,0.460655838,0.407934695,-0.247415006,0.493413746,-0.416763484,-0.304226398,0.497143894,0.651587129,-0.280307651,0.553362727,-0.663587213,-0.322239757,0.530950844,0.731083035,-0.338221908,0.517314970,-0.745741963,-0.379659861,0.502764404
0.003123261,-0.351407468,0.012036551,0.059018608,-0.321104407,-0.080831885,-0.061964765,-0.333383650,-0.091355368,-0.000717003,-0.324850172,0.122155845,0.139203697,-0.334929734,-0.454881400,-0.109699637,-0.355581433,-0.452997923,0.006207179,-0.328400761,0.254251450,0.121720538,-0.296812415,-0.859359264,-0.098185256,-0.332502335,-0.863701284,-0.002519950,-0.347574890,0.311016738,0.186388344,-0.395747960,-0.934204578,-0.152040362,-0.438537359,-0.933968008,-0.013918303,-0.329062402,0.478214115,0.044779409,-0.342799246,0.395616651,-0.049466971,-0.344192713,0.396759897,-0.006792813,-0.256491601,0.624746144,0.155061871,-0.331682801,0.469803214,-0.146632269,-0.338489890,0.460586905,0.407884538,-0.247319549,0.493257314,-0.416946858,-0.304004520,0.496569306,0.651504874,-0.279970825,0.553468108,-0.663823128,-0.322022349,0.529988348,0.730894089,-0.337814718,0.517073870,-0.745947182,-0.379476875,0.501782537
0.003123261,-0.351407468,0.012036551,0.059018608,-0.321104407,-0.080831885,-0.061964765,-0.333383650,-0.091355368,-0.000717003,-0.324850172,0.122155845,0.139007911,-0.334513873,-0.454938471,-0.109699637,-0.355581433,-0.452997923,0.006207179,-0.328400761,0.254251450,0.121323317,-0.295926809,-0.859363079,-0.098185256,-0.332502335,-0.863701284,-0.002440966,-0.347578764,0.311027527,0.185933352,-0.394788444,-0.934355855,-0.152081162,-0.438738674,-0.933631897,-0.013605827,-0.329077840,0.478241950,0.044976428,-0.342809588,0.395561695,-0.049268272,-0.344202012,0.396836340,-0.006275072,-0.256517351,0.624768972,0.155362412,-0.331699580,0.469595134,-0.146344364,-0.338502556,0.460799217,0.408218503,-0.247340843,0.492702365,-0.416608095,-0.304016620,0.497161090,0.651922286,-0.279999107,0.552570999,-0.663437665,-0.322033942,0.530923307,0.731268525,-0.337787062,0.515994489,-0.745601654,-0.379485548,0.502828121
0.003123261,-0.351407468,0.012036551,0.059020236,-0.321121871,-0.080836609,-0.061963726,-0.333396941,-0.091358356,-0.000715927,-0.324832499,0.122151621,0.139101759,-0.334718853,-0.454916716,-0.109694310,-0.355629146,-0.452999413,0.006226281,-0.328330100,0.254247695,0.121504821,-0.296317369,-0.859362781,-0.098138899,-0.332486510,-0.863698006,-0.002427941,-0.347492486,0.311028123,0.186128482,-0.395222306,-0.934286654,-0.152053133,-0.438629895,-0.933755577,-0.013622400,-0.328953534,0.478236318,0.044975303,-0.342694789,0.395568609,-0.049269378,-0.344103426,0.396828711,-0.006339089,-0.256300032,0.624719620,0.155372411,-0.331530809,0.469577342,-0.146380156,-0.338392377,0.460737944,0.408234179,-0.247123569,0.492444545,-0.416709244,-0.303981036,0.496682733,0.651993334,-0.279671580,0.552147567,-0.663589954,-0.321877897,0.530134022,0.731281161,-0.337299079,0.515193284,-0.745712101,-0.379344851,0.501948059
0.003123261,-0.351407468,0.012036551,0.058997028,-0.321089238,-0.080839917,-0.061993059,-0.333332211,-0.091328584,-0.000674461,-0.324885130,0.122165747,0.139136776,-0.334819913,-0.454902589,-0.109702751,-0.355539441,-0.452973902,0.006334428,-0.328360975,0.254258871,0.121530890,-0.296318799,-0.859338760,-0.098201819,-0.332470566,-0.863678217,-0.002362973,-0.347489297,0.311044157,0.186117649,-0.395218879,-0.934300900,-0.152061269,-0.438456804,-0.934015274,-0.013634467,-0.328942657,0.478246331,0.045000922,-0.342692256,0.395606756,-0.049244449,-0.344092786,0.396822602,-0.006250161,-0.256151438,0.624656200,0.155407533,-0.331471115,0.469592690,-0.146370113,-0.338408440,0.460711569,0.408241391,-0.246911272,0.492203414,-0.416757405,-0.304239631,0.496448934,0.652059495,-0.279644072,0.551563561,-0.663636029,-0.322334170,0.529809058,0.731199265,-0.337042570,0.513941467,-0.745674610,-0.379903555,0.501588643
0.003123261,-0.351407468,0.012036551,0.058997028,-0.321089238,-0.080839917,-0.061993059,-0.333332211,-0.091328584,-0.000674461,-0.324885130,0.122165747,0.139136776,-0.334819913,-0.454902589,-0.109702751,-0.355539441,-0.452973902,0.006334428,-0.328360975,0.254258871,0.121530890,-0.296318799,-0.859338760,-0.098201819,-0.332470566,-0.863678217,-0.002362973,-0.347489297,0.311044157,0.186117649,-0.395218879,-0.934300900,-0.152061269,-0.438456804,-0.934015274,-0.013634467,-0.328942657,0.478246331,0.045000922,-0.342692256,0.395606756,-0.049244449,-0.344092786,0.396822602,-0.006250161,-0.256151438,0.624656200,0.155407533,-0.331471115,0.469592690,-0.146370113,-0.338408440,0.460711569,0.408241391,-0.246911272,0.492203414,-0.416737795,-0.303930223,0.496299684,0.652034760,-0.279518604,0.551733971,-0.663658500,-0.321742594,0.529500008,0.731293619,-0.337204427,0.514808536,-0.745707691,-0.379186928,0.501056552
0.003123261,-0.351407468,0.012036551,0.058972426,-0.321088344,-0.080854438,-0.062015232,-0.333373547,-0.091321833,-0.000666044,-0.324865401,0.122161284,0.139127195,-0.334767014,-0.454915822,-0.109733611,-0.355561674,-0.452967137,0.006356719,-0.328271031,0.254255503,0.121485971,-0.296220511,-0.859346151,-0.098248541,-0.332441300,-0.863668978,-0.002337105,-0.347341746,0.311060727,0.186134368,-0.395083487,-0.934304118,-0.152075395,-0.438494623,-0.933929801,-0.013596859,-0.328707397,0.478253961,0.045035940,-0.342462987,0.395613521,-0.049208235,-0.343929201,0.396844178,-0.006191741,-0.255840331,0.624625027,0.155480593,-0.331078023,0.469517529,-0.146322504,-0.338293016,0.460754693,0.408274442,-0.246290967,0.491720945,-0.416733295,-0.304074258,0.496265471,0.652168274,-0.278626442,0.550987601,-0.663643837,-0.322061062,0.529447317,0.731510282,-0.336501896,0.514540672,-0.745630383,-0.379578024,0.500970006
0.003123261,-0.351407468,0.012036551,0.058972426,-0.321088344,-0.080854438,-0.062015232,-0.333373547,-0.091321833,-0.000666044,-0.324865401,0.122161284,0.139127195,-0.334767014,-0.454915822,-0.109733611,-0.355561674,-0.452967137,0.006356719,-0.328271031,0.254255503,0.121485971,-0.296220511,-0.859346151,-0.098248541,-0.332441300,-0.863668978,-0.002337105,-0.347341746,0.311060727,0.186134368,-0.395083487,-0.934304118,-0.152190566,-0.438570261,-0.933726907,-0.013596859,-0.328707397,0.478253961,0.045035940,-0.342462987,0.395613521,-0.049208235,-0.343929201,0.396844178,-0.006191741,-0.255840331,0.624625027,0.155480593,-0.331078023,0.469517529,-0.146322504,-0.338293016,0.460754693,0.408274442,-0.246290967,0.491720945,-0.416733295,-0.304074258,0.496265471,0.652143240,-0.278717130,0.551041186,-0.663643837,-0.322061062,0.529447317,0.731520176,-0.336811155,0.515020549,-0.745630383,-0.379578024,0.500970006
0.003123261,-0.351407468,0.012036551,0.058942027,-0.321089655,-0.080873117,-0.062040653,-0.333442897,-0.091317885,-0.000663375,-0.324830592,0.122152977,0.138980970,-0.334759444,-0.454959631,-0.109731279,-0.355585784,-0.452969640,0.006349356,-0.328216046,0.254248232,0.121333323,-0.296202093,-0.859388649,-0.098195560,-0.332419932,-0.863667488,-0.002347708,-0.347284317,0.311053783,0.185990870,-0.395067155,-0.934335947,-0.152067378,-0.438493580,-0.933863163,-0.013594717,-0.328625590,0.478245169,0.045031443,-0.342397124,0.395602643,-0.049212750,-0.343856245,0.396839947,-0.006098298,-0.255654812,0.624559939,0.155527174,-0.330973983,0.469424397,-0.146349669,-0.338157564,0.460710496,0.408336163,-0.246143341,0.491285831,-0.416759193,-0.303892583,0.496186376,0.652249455,-0.278514117,0.550453246,-0.663673520,-0.321937382,0.529308617,0.731566668,-0.336733490,0.514503419,-0.745696008,-0.379516035,0.501060665
0.003123261,-0.351407468,0.012036551,0.058982037,-0.321112990,-0.080856688,-0.062005553,-0.333392680,-0.091331266,-0.000673382,-0.324840277,0.122154973,0.139020965,-0.334719718,-0.454945534,-0.109780230,-0.355492860,-0.452974528,0.006292378,-0.328222781,0.254252791,0.121361345,-0.296035439,-0.859361947,-0.098317459,-0.332343698,-0.863675356,-0.002442540,-0.347302526,0.311048687,0.185888559,-0.394932985,-0.934378624,-0.152077839,-0.438297302,-0.934137225,-0.013694584,-0.328668863,0.478242517,0.044930231,-0.342472523,0.395604432,-0.049315300,-0.343852818,0.396829754,-0.005971717,-0.255654871,0.624523938,0.155442774,-0.331116438,0.469411314,-0.146466702,-0.338109314,0.460674226,0.408296227,-0.246390760,0.491165280,-0.416865170,-0.303577960,0.495975733,0.652184367,-0.278812498,0.550408244,-0.663773119,-0.321777821,0.529060185,0.731403053,-0.337162346,0.514452696,-0.745819032,-0.379472256,0.501117587
0.003123261,-0.351407468,0.012036551,0.058982037,-0.321112990,-0.080856688,-0.062005553,-0.333392680,-0.091331266,-0.000673382,-0.324840277,0.122154973,0.139020965,-0.334719718,-0.454945534,-0.109780230,-0.355492860,-0.452974528,0.006292378,-0.328222781,0.254252791,0.121361345,-0.296035439,-0.859361947,-0.098317459,-0.332343698,-0.863675356,-0.002442540,-0.347302526,0.311048687,0.186002940,-0.394890875,-0.934335589,-0.152208149,-0.438368589,-0.933930159,-0.013694584,-0.328668863,0.478242517,0.044930231,-0.342472523,0.395604432,-0.049315300,-0.343852818,0.396829754,-0.006155973,-0.255546570,0.624479413,0.155487925,-0.331117719,0.469343901,-0.146466702,-0.338109314,0.460674226,0.408284903,-0.246220112,0.491084009,-0.416865170,-0.303577960,0.495975733,0.652321339,-0.278829932,0.549608827,-0.663773119,-0.321777821,0.529060185,0.731814146,-0.337112993,0.514153600,-0.745887399,-0.379475594,0.501326501
0.003123261,-0.351407468,0.012036551,0.058990788,-0.321108103,-0.080849811,-0.061993718,-0.333404034,-0.091340691,-0.000692033,-0.324837834,0.122153737,0.139067054,-0.334665418,-0.454932451,-0.109681368,-0.355471402,-0.452997416,0.006278597,-0.328201264,0.254251778,0.121466465,-0.296041906,-0.859357238,-0.098178640,-0.332327157,-0.863697410,-0.002446480,-0.347273558,0.311051697,0.186061874,-0.394936621,-0.934318900,-0.152048975,-0.438418090,-0.933867991,-0.013732438,-0.328636646,0.478242874,0.044912729,-0.342400193,0.395612538,-0.049331833,-0.343854457,0.396827102,-0.006414230,-0.255370736,0.624419093,0.155502990,-0.330946118,0.469287783,-0.146500662,-0.338190794,0.460652173,0.408211917,-0.245766833,0.490949422,-0.416959912,-0.303801298,0.495624632,0.652337193,-0.278410554,0.549083114,-0.663844943,-0.322449386,0.528630674,0.732029259,-0.336611480,0.513941467,-0.745854855,-0.380445868,0.501213014
0.003123261,-0.351407468,0.012036551,0.058990788,-0.321108103,-0.080849811,-0.061993718,-0.333404034,-0.091340691,-0.000692033,-0.324837834,0.122153737,0.139067054,-0.334665418,-0.454932451,-0.109681368,-0.355471402,-0.452997416,0.006278597,-0.328201264,0.254251778,0.121466465,-0.296041906,-0.859357238,-0.098178640,-0.332327157,-0.863697410,-0.002446480,-0.347273558,0.311051697,0.186061874,-0.394936621,-0.934318900,-0.151879847,-0.438404590,-0.934017897,-0.013732438,-0.328636646,0.478242874,0.044912729,-0.342400193,0.395612538,-0.049331833,-0.343854457,0.396827102,-0.006414230,-0.255370736,0.624419093,0.155562818,-0.330922484,0.469194204,-0.146575779,-0.338180512,0.460536778,0.408328474,-0.245841578,0.490578592,-0.417061210,-0.303475976,0.494992077,0.652368784,-0.278804153,0.548888981,-0.663926661,-0.322605312,0.527868867,0.731974244,-0.337061584,0.513644874,-0.745742559,-0.381035030,0.500793636
0.003123261,-0.351407468,0.012036551,0.058987688,-0.321072310,-0.080840014,-0.061994884,-0.333382934,-0.091336295,-0.000697522,-0.324871093,0.122161567,0.139052108,-0.334635496,-0.454925001,-0.109729096,-0.355404317,-0.452989757,0.006284720,-0.328203768,0.254259795,0.121457964,-0.296062499,-0.859354854,-0.098278143,-0.332344025,-0.863695860,-0.002417844,-0.347266376,0.311066419,0.186039045,-0.394962847,-0.934321463,-0.152057201,-0.438353628,-0.934059203,-0.013627947,-0.328706503,0.478271276,0.044979617,-0.342433274,0.395608157,-0.049264431,-0.343885809,0.396864563,-0.006318211,-0.255326033,0.624390483,0.155812860,-0.330927551,0.468909293,-0.146601677,-0.338197261,0.460430324,0.408604026,-0.245760009,0.489637852,-0.417162716,-0.303351134,0.494141340,0.652728021,-0.279251963,0.547292888,-0.663984537,-0.323231190,0.526899993,0.732405782,-0.337714761,0.512555838,-0.745721936,-0.382131338,0.500618219
0.003123261,-0.351407468,0.012036551,0.058987688,-0.321072310,-0.080840014,-0.061994884,-0.333382934,-0.091336295,-0.000697522,-0.324871093,0.122161567,0.139052108,-0.334635496,-0.454925001,-0.109729096,-0.355404317,-0.452989757,0.006284720,-0.328203768,0.254259795,0.121457964,-0.296062499,-0.859354854,-0.098278143,-0.332344025,-0.863695860,-0.002417844,-0.347266376,0.311066419,0.186039045,-0.394962847,-0.934321463,-0.152057201,-0.438353628,-0.934059203,-0.013627947,-0.328706503,0.478271276,0.044979617,-0.342433274,0.395608157,-0.049264431,-0.343885809,0.396864563,-0.006318211,-0.255326033,0.624390483,0.156006768,-0.330842257,0.468601793,-0.146747008,-0.338140070,0.460202038,0.408788502,-0.245471776,0.488597244,-0.417430103,-0.303227484,0.492847621,0.653039217,-0.279549301,0.545365632,-0.664214730,-0.323976457,0.525346994,0.732880950,-0.338320076,0.511536539,-0.745906889,-0.383378953,0.500074804
0.003123261,-0.351407468,0.012036551,0.058978342,-0.321024209,-0.080829933,-0.062005904,-0.333324611,-0.091319181,-0.000684066,-0.324930429,0.122176327,0.139039859,-0.334680259,-0.454912156,-0.109748244,-0.355369329,-0.452970147,0.006307161,-0.328311682,0.254272848,0.121543713,-0.296123117,-0.859347820,-0.098308228,-0.332486510,-0.863686562,-0.002417077,-0.347406924,0.311065167,0.186027169,-0.395036459,-0.934381366,-0.152170211,-0.438524097,-0.933944166,-0.013615398,-0.329001009,0.478287816,0.044985510,-0.342661500,0.395608991,-0.049258765,-0.344097763,0.396868765,-0.006351285,-0.255463660,0.624330401,0.156281829,-0.331071049,0.468191653,-0.146966293,-0.338368446,0.459860206,0.409184158,-0.245734572,0.486757636,-0.417746365,-0.302682519,0.490822315,0.653433800,-0.280261546,0.543258488,-0.664489686,-0.325075567,0.522534788,0.732841671,-0.339743406,0.509651780,-0.745791316,-0.385205954,0.497728646
0.003123261,-0.351407468,0.012036551,0.058975764,-0.320990771,-0.080820516,-0.062010407,-0.333273888,-0.091307431,-0.000674402,-0.324976772,0.122187771,0.139004976,-0.334754288,-0.454905689,-0.109885283,-0.355320126,-0.452940762,0.006393941,-0.328368217,0.254279912,0.121576883,-0.296238899,-0.859348297,-0.098516926,-0.332532704,-0.863664448,-0.002324481,-0.347508192,0.311058044,0.185888514,-0.395253927,-0.934395075,-0.152344197,-0.438620657,-0.933872640,-0.013366291,-0.329182386,0.478299916,0.045153994,-0.342840344,0.395563602,-0.049090110,-0.344211370,0.396903574,-0.005930384,-0.255539536,0.624280632,0.156772226,-0.331258833,0.467651606,-0.146982014,-0.338442087,0.459604383,0.409791172,-0.245904759,0.484463215,-0.417834938,-0.301851571,0.488823444,0.654122233,-0.281259716,0.540092945,-0.664514720,-0.325942695,0.519776106,0.733086824,-0.341549933,0.506884575,-0.745375276,-0.386914223,0.495589226
0.003123261,-0.351407468,0.012036551,0.058975764,-0.320990771,-0.080820516,-0.062010407,-0.333273888,-0.091307431,-0.000674402,-0.324976772,0.122187771,0.139004976,-0.334754288,-0.454905689,-0.109885283,-0.355320126,-0.452940762,0.006393941,-0.328368217,0.254279912,0.121543705,-0.296290636,-0.859351754,-0.098501131,-0.332691759,-0.863672793,-0.002338698,-0.347579509,0.311031818,0.185992464,-0.395224005,-0.934388697,-0.152133241,-0.438829720,-0.933954775,-0.013451596,-0.329458058,0.478291243,0.045105644,-0.342994213,0.395561039,-0.049138423,-0.344403625,0.396863341,-0.006088456,-0.255759299,0.624247432,0.156921834,-0.331307501,0.467324555,-0.147326112,-0.338782012,0.459113479,0.409823060,-0.245315433,0.482585222,-0.418370783,-0.301643014,0.485748231,0.654307067,-0.281825036,0.536778688,-0.664983153,-0.328105807,0.515268147,0.733034849,-0.342899412,0.504452646,-0.745110989,-0.390272021,0.491691738
0.003123261,-0.351407468,0.012036551,0.059003808,-0.320993394,-0.080804497,-0.061985586,-0.333224982,-0.091314487,-0.000682237,-0.324999094,0.122192860,0.139081150,-0.334857285,-0.454875678,-0.109874591,-0.355355322,-0.452940822,0.006314836,-0.328380078,0.254289061,0.121786475,-0.296384096,-0.859327972,-0.098388106,-0.332729042,-0.863670170,-0.002489463,-0.347612053,0.311022878,0.186064154,-0.395462871,-0.934319735,-0.151971281,-0.438840568,-0.934029341,-0.013551134,-0.329519063,0.478288770,0.044975366,-0.343103468,0.395544738,-0.049270071,-0.344402522,0.396863580,-0.005789026,-0.255786806,0.624207377,0.157118380,-0.331424892,0.466797829,-0.147706181,-0.338810772,0.458722830,0.410078317,-0.245206654,0.479614347,-0.418898523,-0.300698787,0.482305348,0.654749453,-0.283042252,0.532024682,-0.665432930,-0.329453647,0.510292828,0.732856572,-0.344903737,0.499689668,-0.744747221,-0.392857194,0.487266928
0.003123261,-0.351407468,0.012036551,0.059003808,-0.320993394,-0.080804497,-0.061985586,-0.333224982,-0.091314487,-0.000682237,-0.324999094,0.122192860,0.139097258,-0.335031122,-0.454865754,-0.109874591,-0.355355322,-0.452940822,0.006166982,-0.328393817,0.254296482,0.121945687,-0.296665579,-0.859334350,-0.098271713,-0.332435042,-0.863650560,-0.002718049,-0.347620219,0.311019599,0.186098963,-0.395844400,-0.934300423,-0.151759267,-0.438507438,-0.934141338,-0.013706171,-0.329520136,0.478289604,0.044776678,-0.343190521,0.395528853,-0.049470302,-0.344343156,0.396873176,-0.005366466,-0.255805582,0.624185324,0.157290846,-0.331554562,0.466201425,-0.148144603,-0.338779837,0.458354384,0.410340667,-0.245227128,0.476198196,-0.419456095,-0.299613297,0.478603363,0.655205250,-0.284397840,0.526689112,-0.665881157,-0.330725342,0.504987299,0.732522786,-0.347009689,0.493903846,-0.744311631,-0.395399332,0.482472986
0.003123261,-0.351407468,0.012036551,0.058952931,-0.320973277,-0.080828510,-0.062047154,-0.333162248,-0.091264606,-0.000602066,-0.325042754,0.122206055,0.138798118,-0.334884018,-0.454947561,-0.110150427,-0.355337501,-0.452859730,0.006332168,-0.328493446,0.254303783,0.121484101,-0.296262562,-0.859384894,-0.098563761,-0.332389653,-0.863568425,-0.002561566,-0.347823381,0.310990334,0.185447097,-0.395467460,-0.934478879,-0.152163729,-0.438568860,-0.933812618,-0.013532839,-0.329957217,0.478286564,0.044945136,-0.343472719,0.395496964,-0.049300727,-0.344696701,0.396856636,-0.005128528,-0.256203800,0.624158859,0.157812983,-0.331819415,0.465600431,-0.148351893,-0.339255482,0.457739860,0.410714626,-0.244743288,0.472315252,-0.419762552,-0.298935235,0.474002570,0.655851007,-0.285650492,0.520034194,-0.666016340,-0.333056957,0.498171777,0.732204020,-0.348883897,0.486198366,-0.743459761,-0.398891479,0.475604475
0.003123261,-0.351407468,0.012036551,0.058973357,-0.320977360,-0.080817565,-0.062031321,-0.333110482,-0.091265440,-0.000598670,-0.325065583,0.122211628,0.138967082,-0.334995031,-0.454900861,-0.110144645,-0.355281532,-0.452859461,0.006337050,-0.328531921,0.254308850,0.121895090,-0.296311885,-0.859342575,-0.098424837,-0.332222044,-0.863558054,-0.002589348,-0.347937733,0.310964346,0.185648531,-0.395642132,-0.934449136,-0.152068138,-0.438394159,-0.933779895,-0.013487858,-0.330176532,0.478276491,0.044954658,-0.343633801,0.395452350,-0.049290445,-0.344869792,0.396853477,-0.004988963,-0.256276309,0.624069035,0.158186883,-0.331980318,0.464965701,-0.148698032,-0.339430541,0.457153171,0.410930425,-0.244245142,0.468096316,-0.420148283,-0.297912359,0.469192863,0.656284273,-0.287112147,0.512887299,-0.666216731,-0.334832579,0.491023690,0.731460810,-0.351232380,0.478099376,-0.742699921,-0.401706159,0.468237579
0.003123261,-0.351407468,0.012036551,0.058973357,-0.320977360,-0.080817565,-0.062031321,-0.333110482,-0.091265440,-0.000598670,-0.325065583,0.122211628,0.138967082,-0.334995031,-0.454900861,-0.110318705,-0.355591536,-0.452817142,0.006337050,-0.328531921,0.254308850,0.121752664,-0.296355277,-0.859340668,-0.098869108,-0.332648993,-0.863529921,-0.002620682,-0.348022878,0.310930133,0.185383245,-0.395738214,-0.934481680,-0.152421132,-0.438714087,-0.933982730,-0.013622130,-0.330511093,0.478261828,0.044871975,-0.343837589,0.395452976,-0.049373768,-0.345088631,0.396795660,-0.005291741,-0.256576836,0.624046803,0.158368677,-0.332238436,0.464542776,-0.149202496,-0.339677155,0.456398040,0.410854876,-0.243711159,0.464087695,-0.420688242,-0.297247499,0.463409662,0.656333745,-0.288780302,0.505935490,-0.666582465,-0.336923093,0.482151598,0.730060577,-0.354139745,0.470360219,-0.742042005,-0.404657990,0.458512992
0.003123261,-0.351407468,0.012036551,0.059005532,-0.320963949,-0.080793798,-0.061998200,-0.333073676,-0.091279797,-0.000626128,-0.325092226,0.122217067,0.139100924,-0.335148841,-0.454849064,-0.110247329,-0.355467260,-0.452841997,0.006288834,-0.328578949,0.254314840,0.121981010,-0.296359628,-0.859278619,-0.098693997,-0.332451463,-0.863547742,-0.002706938,-0.348146170,0.310903788,0.185433179,-0.395880759,-0.934387624,-0.152216762,-0.438557982,-0.933960378,-0.013630148,-0.330695927,0.478247046,0.044826739,-0.343974829,0.395404279,-0.049417920,-0.345256776,0.396793753,-0.004963034,-0.256817520,0.624040723,0.158773154,-0.332480609,0.463767588,-0.149543449,-0.339821756,0.455894053,0.410949707,-0.243206784,0.458896875,-0.420959115,-0.296415538,0.457740754,0.656592190,-0.290460497,0.497226864,-0.666599214,-0.339050591,0.472990692,0.728979826,-0.356866419,0.460848451,-0.740993798,-0.407674402,0.448553652
0.003123261,-0.351407468,0.012036551,0.059005532,-0.320963949,-0.080793798,-0.061998200,-0.333073676,-0.091279797,-0.000626128,-0.325092226,0.122217067,0.139100924,-0.335148841,-0.454849064,-0.110247329,-0.355467260,-0.452841997,0.006288834,-0.328578949,0.254314840,0.121913202,-0.296064526,-0.859247327,-0.098539971,-0.332646400,-0.863554299,-0.002735105,-0.348204732,0.310879022,0.185335666,-0.395614654,-0.934342980,-0.152150393,-0.438898742,-0.933679819,-0.013563190,-0.330770046,0.478230089,0.044848040,-0.344024748,0.395351231,-0.049395375,-0.345336109,0.396797240,-0.004364496,-0.257035881,0.624064207,0.159302205,-0.332693517,0.462888569,-0.149781585,-0.339858055,0.455449641,0.411098540,-0.242727593,0.453331977,-0.421012640,-0.295411587,0.451956481,0.656854570,-0.292195737,0.487961948,-0.666314065,-0.341079712,0.463402629,0.727960646,-0.359547079,0.450802445,-0.739610016,-0.410589308,0.438162297
0.003123261,-0.351407468,0.012036551,0.058977492,-0.320950806,-0.080806375,-0.062022474,-0.333115846,-0.091271974,-0.000620699,-0.325079948,0.122214325,0.139019221,-0.335504532,-0.454858959,-0.110393651,-0.355553150,-0.452815175,0.006194678,-0.328548580,0.254317760,0.121983893,-0.296358943,-0.859257698,-0.098722026,-0.332445890,-0.863512516,-0.002862861,-0.348246455,0.310851514,0.185172051,-0.396011919,-0.934414506,-0.152284175,-0.438569367,-0.933869660,-0.013711526,-0.330999225,0.478220671,0.044711702,-0.344140291,0.395332158,-0.049531311,-0.345490158,0.396768987,-0.004816952,-0.256950438,0.623914182,0.159708768,-0.332955867,0.461965740,-0.150306970,-0.339943081,0.454743177,0.411009699,-0.242328987,0.447092652,-0.421129704,-0.294016600,0.444753230,0.656899095,-0.293758392,0.477683097,-0.665903330,-0.343272269,0.451762199,0.726862073,-0.362102628,0.440168291,-0.737772465,-0.413988352,0.425781220
0.003123261,-0.351407468,0.012036551,0.059003249,-0.320954353,-0.080792025,-0.061987568,-0.333170414,-0.091303617,-0.000676116,-0.325050861,0.122205466,0.138976574,-0.335581809,-0.454856336,-0.110516675,-0.355724365,-0.452818394,0.005997097,-0.328459561,0.254317701,0.122014001,-0.296232820,-0.859238386,-0.098899432,-0.332466960,-0.863508701,-0.003118637,-0.348214567,0.310822129,0.185019597,-0.395949543,-0.934463739,-0.152418718,-0.438540190,-0.933974147,-0.013984232,-0.331069171,0.478200614,0.044447288,-0.344160855,0.395310163,-0.049795892,-0.345509738,0.396736413,-0.005201398,-0.256802887,0.623790145,0.159930348,-0.333174795,0.461131275,-0.151001155,-0.339936018,0.453954756,0.410638213,-0.241972432,0.440777570,-0.421177506,-0.292138278,0.437398404,0.656590998,-0.295384645,0.467172831,-0.665290415,-0.344989568,0.439638376,0.725362062,-0.364659786,0.429164857,-0.735673547,-0.416863322,0.412780970
0.003123261,-0.351407468,0.012036551,0.059003249,-0.320954353,-0.080792025,-0.061987568,-0.333170414,-0.091303617,-0.000676116,-0.325050861,0.122205466,0.138976574,-0.335581809,-0.454856336,-0.110516675,-0.355724365,-0.452818394,0.005997097,-0.328459561,0.254317701,0.122040875,-0.296286881,-0.859244764,-0.098770469,-0.332236499,-0.863492012,-0.003097500,-0.348323703,0.310787290,0.184972703,-0.396100610,-0.934403241,-0.152130127,-0.438401818,-0.933939815,-0.013819011,-0.331346124,0.478192210,0.044544436,-0.344316304,0.395234704,-0.049696360,-0.345734745,0.396747708,-0.004723165,-0.257233769,0.623840928,0.160462543,-0.333537668,0.460321248,-0.151362032,-0.340455860,0.453172207,0.410307288,-0.241496488,0.434003711,-0.420662761,-0.290389031,0.430272967,0.656365037,-0.296583593,0.455529213,-0.663864493,-0.347246110,0.427180797,0.723908126,-0.366523445,0.416549206,-0.732562244,-0.420268029,0.399085045
0.003123261,-0.351407468,0.012036551,0.058989331,-0.320991874,-0.080812722,-0.062000759,-0.333231032,-0.091305993,-0.000668837,-0.324997097,0.122192852,0.139024079,-0.335523069,-0.454867721,-0.110618755,-0.355749220,-0.452811062,0.006001179,-0.328340322,0.254306942,0.122109175,-0.296019107,-0.859236717,-0.098965943,-0.332176566,-0.863482475,-0.003106644,-0.348290563,0.310744017,0.184906021,-0.395920873,-0.934391201,-0.152352631,-0.438448608,-0.933748662,-0.013762535,-0.331297100,0.478151500,0.044569653,-0.344260454,0.395170957,-0.049670108,-0.345704854,0.396723688,-0.004389562,-0.257158190,0.623769164,0.160840273,-0.333816051,0.459680706,-0.151718378,-0.340335488,0.452444643,0.409693003,-0.241078973,0.427142262,-0.419912338,-0.288234353,0.422254384,0.655751467,-0.297989398,0.443228573,-0.662039638,-0.348914027,0.413214236,0.722217023,-0.368571252,0.403559297,-0.728868246,-0.423240900,0.384052396
0.003123261,-0.351407468,0.012036551,0.058989331,-0.320991874,-0.080812722,-0.062000759,-0.333231032,-0.091305993,-0.000668837,-0.324997097,0.122192852,0.139024079,-0.335523069,-0.454867721,-0.110336706,-0.355525136,-0.452862799,0.006001179,-0.328340322,0.254306942,0.122109175,-0.296019107,-0.859236717,-0.098387375,-0.331786960,-0.863516212,-0.003125993,-0.348412931,0.310697466,0.184674621,-0.396105766,-0.934338152,-0.151874155,-0.438113749,-0.933623314,-0.013760008,-0.331445575,0.478109002,0.044563804,-0.344367117,0.395116031,-0.049674876,-0.345862985,0.396686107,-0.004160912,-0.257297158,0.623707116,0.161141276,-0.334312588,0.459132016,-0.152065963,-0.340300769,0.451755464,0.408802688,-0.240799338,0.420328617,-0.418921739,-0.286392570,0.413862228,0.654751658,-0.299492151,0.430654377,-0.659743547,-0.350900739,0.398600280,0.720255673,-0.370636016,0.390394270,-0.724560916,-0.426612079,0.368476033
0.003123261,-0.351407468,0.012036551,0.058946580,-0.320953310,-0.080825783,-0.062041271,-0.333245337,-0.091282964,-0.000646228,-0.325014770,0.122197852,0.139012277,-0.335511208,-0.454873085,-0.110651851,-0.355634540,-0.452797025,0.005999323,-0.328366876,0.254312932,0.122279681,-0.295797050,-0.859229088,-0.098958999,-0.332052410,-0.863466740,-0.003123242,-0.348460853,0.310696602,0.184796393,-0.395846158,-0.934421003,-0.152294144,-0.438299686,-0.933809459,-0.013694988,-0.331613064,0.478124142,0.044598170,-0.344472677,0.395100057,-0.049639821,-0.345974386,0.396704584,-0.004406036,-0.257095695,0.623553932,0.161558628,-0.334719747,0.458460778,-0.152475089,-0.340281397,0.450926363,0.407656729,-0.240089834,0.412991047,-0.417639136,-0.284567863,0.404687762,0.653464019,-0.300115794,0.417233616,-0.657005191,-0.352450639,0.382660985,0.717720151,-0.371767342,0.375877589,-0.720165908,-0.428994894,0.351154536
0.003123261,-0.351407468,0.012036551,0.058922399,-0.320932150,-0.080833375,-0.062063519,-0.333259404,-0.091271386,-0.000636009,-0.325021416,0.122199789,0.138936475,-0.335529506,-0.454890132,-0.110737868,-0.355618000,-0.452778757,0.005955760,-0.328484267,0.254314721,0.122292981,-0.295585036,-0.859227061,-0.099017262,-0.331812173,-0.863434792,-0.003196685,-0.348666489,0.310662061,0.184694111,-0.395640016,-0.934507132,-0.152208790,-0.437945187,-0.934058249,-0.013806676,-0.332055986,0.478110909,0.044507165,-0.344777673,0.395080090,-0.049730558,-0.346317589,0.396664590,-0.004969982,-0.257281572,0.623436928,0.161811695,-0.335419744,0.457861662,-0.152938291,-0.340457678,0.450156003,0.406116664,-0.239791229,0.405355752,-0.416118652,-0.282954931,0.395534515,0.651672959,-0.300950706,0.403362155,-0.653776705,-0.354081392,0.366396427,0.714770854,-0.373120248,0.361132890,-0.715242088,-0.431418747,0.333504349
0.003123261,-0.351407468,0.012036551,0.058922399,-0.320932150,-0.080833375,-0.062063519,-0.333259404,-0.091271386,-0.000636009,-0.325021416,0.122199789,0.138936475,-0.335529506,-0.454890132,-0.110737868,-0.355618000,-0.452778757,0.005955760,-0.328484267,0.254314721,0.122292981,-0.295585036,-0.859227061,-0.099017262,-0.331812173,-0.863434792,-0.003265102,-0.348734826,0.310626358,0.184538424,-0.395735681,-0.934508920,-0.152208790,-0.437945187,-0.934058249,-0.014062291,-0.332087487,0.478059590,0.044348158,-0.344782084,0.395092547,-0.049889799,-0.346402138,0.396580100,-0.005906778,-0.256841660,0.623181939,0.161943883,-0.335838497,0.457387805,-0.153319180,-0.340121716,0.449593544,0.404132903,-0.239666075,0.396708876,-0.414196551,-0.280967921,0.386365473,0.649351001,-0.301626563,0.388263762,-0.649872482,-0.355125129,0.349665046,0.711484790,-0.374465853,0.345755607,-0.709640741,-0.433263421,0.315560490
0.003123261,-0.351407468,0.012036551,0.058884110,-0.320908695,-0.080848679,-0.062111687,-0.333188266,-0.091228470,-0.000568448,-0.325071335,0.122214034,0.138865456,-0.335593194,-0.454909086,-0.110815272,-0.355660379,-0.452724904,0.005867810,-0.328665465,0.254333138,0.122325510,-0.295427740,-0.859228373,-0.099066362,-0.331769139,-0.863375187,-0.003429137,-0.349032789,0.310590118,0.184464261,-0.395601362,-0.934567750,-0.152302995,-0.437906682,-0.933957815,-0.014296661,-0.332624286,0.478042364,0.044150259,-0.345181286,0.395080030,-0.050087687,-0.346837580,0.396529138,-0.006321698,-0.257099748,0.623029888,0.161957294,-0.336770862,0.457049519,-0.153814703,-0.340043992,0.448893845,0.401582092,-0.239881545,0.387918949,-0.412075430,-0.279567927,0.376796365,0.646341145,-0.302398026,0.372849941,-0.645505667,-0.356338501,0.332008243,0.707336485,-0.375799507,0.329665571,-0.703444123,-0.435107082,0.296236843
0.003123261,-0.351407468,0.012036551,0.058861136,-0.320753008,-0.080811203,-0.062139686,-0.332995176,-0.091176510,-0.000531356,-0.325265914,0.122261591,0.138640344,-0.335509360,-0.454911917,-0.110997915,-0.355509728,-0.452649415,0.005723137,-0.329035252,0.254384518,0.122184619,-0.295329601,-0.859233201,-0.099314228,-0.331700683,-0.863306284,-0.003638384,-0.349515080,0.310589910,0.184187055,-0.395574152,-0.934590459,-0.152768120,-0.437828720,-0.933738828,-0.014547084,-0.333413422,0.478069246,0.043920554,-0.345814496,0.395098090,-0.050317597,-0.347480357,0.396521628,-0.006525007,-0.257646471,0.622927666,0.161887333,-0.337975413,0.456838161,-0.154381514,-0.340095460,0.448132366,0.398583651,-0.240357637,0.379170775,-0.409670800,-0.278441072,0.367014647,0.642724752,-0.303341687,0.357479751,-0.640555739,-0.357582390,0.313928396,0.702487111,-0.377276629,0.313488990,-0.696562886,-0.436903417,0.276347458
0.003123261,-0.351407468,0.012036551,0.058861136,-0.320753008,-0.080811203,-0.062139686,-0.332995176,-0.091176510,-0.000531356,-0.325265914,0.122261591,0.138640344,-0.335509360,-0.454911917,-0.110997915,-0.355509728,-0.452649415,0.005747997,-0.328893065,0.254387319,0.122184619,-0.295329601,-0.859233201,-0.099314228,-0.331700683,-0.863306284,-0.003632721,-0.349408478,0.310576528,0.184136808,-0.395658791,-0.934519172,-0.152443305,-0.437858433,-0.933939517,-0.014549176,-0.333170801,0.478042245,0.043919217,-0.345676124,0.395087272,-0.050320234,-0.347275406,0.396501362,-0.006386808,-0.257258266,0.622816563,0.161852390,-0.338106155,0.456925094,-0.154861808,-0.340068877,0.447163314,0.395485282,-0.239845455,0.371209830,-0.406745136,-0.276404560,0.357410133,0.638615072,-0.303543925,0.341667563,-0.635060847,-0.356866598,0.295870215,0.697369218,-0.377316624,0.296075404,-0.689397871,-0.435928792,0.255402863
0.003123261,-0.351407468,0.012036551,0.058854185,-0.320681155,-0.080791607,-0.062142231,-0.332957059,-0.091168083,-0.000543658,-0.325330704,0.122276515,0.138541356,-0.335327864,-0.454916179,-0.111080520,-0.355220407,-0.452645689,0.005693269,-0.328978628,0.254403651,0.122203976,-0.294871449,-0.859214664,-0.099394210,-0.331383944,-0.863300860,-0.003732763,-0.349587202,0.310551167,0.184064776,-0.395245194,-0.934516430,-0.152402550,-0.437462687,-0.934143186,-0.014750193,-0.333400309,0.478015184,0.043768749,-0.345874071,0.395091087,-0.050471321,-0.347485185,0.396448970,-0.006489526,-0.257352412,0.622712851,0.161764205,-0.338630348,0.456849039,-0.155430689,-0.340439290,0.446262538,0.392065346,-0.239427596,0.363538802,-0.403639823,-0.274960548,0.347983778,0.633910477,-0.303781301,0.325963974,-0.629035354,-0.356444240,0.277651578,0.691442311,-0.377309650,0.278458387,-0.681466401,-0.435262650,0.234297335
0.003123261,-0.351407468,0.012036551,0.058854185,-0.320681155,-0.080791607,-0.062142231,-0.332957059,-0.091168083,-0.000543658,-0.325330704,0.122276515,0.138541356,-0.335327864,-0.454916179,-0.111080520,-0.355220407,-0.452645689,0.005526032,-0.329102814,0.254407972,0.122203976,-0.294871449,-0.859214664,-0.099394210,-0.331383944,-0.863300860,-0.004011824,-0.349813342,0.310499072,0.184083924,-0.395207912,-0.934550285,-0.152402550,-0.437462687,-0.934143186,-0.015283898,-0.333750278,0.477958053,0.043364480,-0.346121997,0.395110190,-0.050876174,-0.347806334,0.396330595,-0.006919800,-0.257344663,0.622461200,0.161626786,-0.339325607,0.456406832,-0.156133190,-0.340695620,0.445502728,0.388432741,-0.238881290,0.356124461,-0.400382400,-0.273713619,0.338686645,0.628623724,-0.303989828,0.310173392,-0.622515082,-0.355518073,0.258971870,0.684452951,-0.377223849,0.260243654,-0.672766984,-0.434156358,0.212801456
0.003123261,-0.351407468,0.012036551,0.058819085,-0.320700824,-0.080819190,-0.062180359,-0.332986116,-0.091149151,-0.000505516,-0.325303823,0.122271426,0.138376981,-0.335462272,-0.454966784,-0.111236572,-0.355348974,-0.452604651,0.005490406,-0.329081506,0.254406095,0.121970922,-0.294989586,-0.859260857,-0.099615552,-0.331637472,-0.863268971,-0.004102492,-0.349844098,0.310468554,0.183752120,-0.395407975,-0.934568346,-0.152670592,-0.437683761,-0.934124947,-0.015502030,-0.333744049,0.477915347,0.043211397,-0.346110016,0.395112693,-0.051029339,-0.347836792,0.396265924,-0.007060037,-0.257036090,0.622253656,0.161792949,-0.339530051,0.455813259,-0.156595111,-0.340568364,0.444748253,0.385081947,-0.237778708,0.349158406,-0.396819293,-0.272593766,0.329745024,0.623095453,-0.303959936,0.294277400,-0.615481734,-0.354251236,0.240817487,0.676900506,-0.376811534,0.241639301,-0.663653791,-0.432272136,0.191490546
0.003123261,-0.351407468,0.012036551,0.058819085,-0.320700824,-0.080819190,-0.062180359,-0.332986116,-0.091149151,-0.000505516,-0.325303823,0.122271426,0.138376981,-0.335462272,-0.454966784,-0.111236572,-0.355348974,-0.452604651,0.005490406,-0.329081506,0.254406095,0.122091979,-0.294911414,-0.859257936,-0.099630065,-0.331404030,-0.863255799,-0.004119974,-0.349892676,0.310447544,0.183731362,-0.395476431,-0.934485912,-0.152623951,-0.437455595,-0.934149563,-0.015546643,-0.333741188,0.477887541,0.043180995,-0.346123010,0.395097315,-0.051059600,-0.347866386,0.396237493,-0.007000256,-0.256817788,0.622105002,0.162119165,-0.339678943,0.455110908,-0.156925648,-0.340398878,0.444029957,0.381771803,-0.236514747,0.342432410,-0.392970115,-0.271569073,0.321150243,0.617139399,-0.303831935,0.278301120,-0.607921720,-0.352729112,0.223179966,0.668685973,-0.376213551,0.222830772,-0.653999805,-0.429856002,0.170556679
0.003123261,-0.351407468,0.012036551,0.058795735,-0.320615649,-0.080804974,-0.062202703,-0.332920641,-0.091123305,-0.000492147,-0.325390637,0.122292385,0.138141841,-0.335217685,-0.455003828,-0.111405410,-0.355226249,-0.452562451,0.005450945,-0.329332083,0.254424661,0.121502481,-0.294109702,-0.859224319,-0.100020163,-0.330963165,-0.863201141,-0.004192946,-0.350252360,0.310419708,0.183287293,-0.394537061,-0.934516907,-0.153066471,-0.436874300,-0.934265435,-0.015778417,-0.334324896,0.477870256,0.043030929,-0.346556991,0.395115793,-0.051209308,-0.348370999,0.396170914,-0.007040571,-0.257451475,0.622102916,0.162425295,-0.340078592,0.454212755,-0.157325372,-0.340784788,0.443386674,0.378971159,-0.234962195,0.337400973,-0.388975263,-0.271452606,0.312675983,0.610722065,-0.304175079,0.262947142,-0.599660516,-0.351800144,0.205226928,0.659561872,-0.375448734,0.203720093,-0.643937290,-0.427909315,0.149657965
0.003123261,-0.351407468,0.012036551,0.058825251,-0.320641071,-0.080795713,-0.062172476,-0.332928270,-0.091143817,-0.000517041,-0.325370550,0.122286834,0.138265416,-0.335410476,-0.454968035,-0.111338861,-0.355360299,-0.452580094,0.005313965,-0.329371691,0.254422337,0.121685892,-0.294106662,-0.859171033,-0.099933021,-0.331022769,-0.863213837,-0.004377847,-0.350373834,0.310378462,0.183546990,-0.394526392,-0.934411168,-0.152984694,-0.436911762,-0.934307158,-0.016178619,-0.334506452,0.477819681,0.042741869,-0.346650571,0.395131350,-0.051497534,-0.348568380,0.396074623,-0.007341815,-0.257508039,0.621979654,0.162557781,-0.340030253,0.453353047,-0.157889694,-0.340920210,0.442654908,0.375859857,-0.233043030,0.332346618,-0.384853780,-0.271055102,0.304234684,0.603697479,-0.303872645,0.247993141,-0.590946078,-0.350537032,0.187624454,0.649481952,-0.374164164,0.185255572,-0.633056045,-0.425695866,0.129153535
