Han-tp28/mjlab/export/vr_m3_1_mode2_csv/walk_forward_amateur_001__A001/smpl_joint_local.csv
smpl_joint_local_0_x,smpl_joint_local_0_y,smpl_joint_local_0_z,smpl_joint_local_1_x,smpl_joint_local_1_y,smpl_joint_local_1_z,smpl_joint_local_2_x,smpl_joint_local_2_y,smpl_joint_local_2_z,smpl_joint_local_3_x,smpl_joint_local_3_y,smpl_joint_local_3_z,smpl_joint_local_4_x,smpl_joint_local_4_y,smpl_joint_local_4_z,smpl_joint_local_5_x,smpl_joint_local_5_y,smpl_joint_local_5_z,smpl_joint_local_6_x,smpl_joint_local_6_y,smpl_joint_local_6_z,smpl_joint_local_7_x,smpl_joint_local_7_y,smpl_joint_local_7_z,smpl_joint_local_8_x,smpl_joint_local_8_y,smpl_joint_local_8_z,smpl_joint_local_9_x,smpl_joint_local_9_y,smpl_joint_local_9_z,smpl_joint_local_10_x,smpl_joint_local_10_y,smpl_joint_local_10_z,smpl_joint_local_11_x,smpl_joint_local_11_y,smpl_joint_local_11_z,smpl_joint_local_12_x,smpl_joint_local_12_y,smpl_joint_local_12_z,smpl_joint_local_13_x,smpl_joint_local_13_y,smpl_joint_local_13_z,smpl_joint_local_14_x,smpl_joint_local_14_y,smpl_joint_local_14_z,smpl_joint_local_15_x,smpl_joint_local_15_y,smpl_joint_local_15_z,smpl_joint_local_16_x,smpl_joint_local_16_y,smpl_joint_local_16_z,smpl_joint_local_17_x,smpl_joint_local_17_y,smpl_joint_local_17_z,smpl_joint_local_18_x,smpl_joint_local_18_y,smpl_joint_local_18_z,smpl_joint_local_19_x,smpl_joint_local_19_y,smpl_joint_local_19_z,smpl_joint_local_20_x,smpl_joint_local_20_y,smpl_joint_local_20_z,smpl_joint_local_21_x,smpl_joint_local_21_y,smpl_joint_local_21_z,smpl_joint_local_22_x,smpl_joint_local_22_y,smpl_joint_local_22_z,smpl_joint_local_23_x,smpl_joint_local_23_y,smpl_joint_local_23_z
0.350772560,-0.017717391,0.016927458,0.324771404,0.040471971,-0.075835958,0.329522163,-0.080984771,-0.086980470,0.323155016,-0.020480037,0.126818001,0.345847845,0.120365620,-0.449609369,0.350797236,-0.128849417,-0.448661327,0.326148242,-0.013976812,0.258948803,0.307678550,0.106020063,-0.854205728,0.331178337,-0.114571542,-0.859457672,0.344185561,-0.023939818,0.315882981,0.410998672,0.165656388,-0.927284122,0.434304208,-0.174372494,-0.929243922,0.323396832,-0.034631848,0.482859313,0.341368049,0.023355097,0.400573194,0.337210208,-0.070812672,0.401449472,0.249794215,-0.023385391,0.628616273,0.335537702,0.133593440,0.475426078,0.324972987,-0.167575940,0.464968175,0.264357269,0.390155762,0.501802087,0.273072809,-0.434842020,0.502772212,0.306871951,0.631238341,0.565943003,0.276269972,-0.682240009,0.537027359,0.368007332,0.710495114,0.535057068,0.329254508,-0.767647624,0.509840846
0.350772560,-0.017717391,0.016927458,0.324771404,0.040471971,-0.075835958,0.329522163,-0.080984771,-0.086980470,0.323155016,-0.020480037,0.126818001,0.345690936,0.120611131,-0.449565649,0.350797236,-0.128849417,-0.448661327,0.326148242,-0.013976812,0.258948803,0.307472080,0.106458724,-0.854164064,0.331178337,-0.114571542,-0.859457672,0.344185561,-0.023939818,0.315882981,0.410853803,0.166109532,-0.927143455,0.434555620,-0.174332857,-0.928905070,0.323396832,-0.034631848,0.482859313,0.341368049,0.023355097,0.400573194,0.337210208,-0.070812672,0.401449472,0.250526041,-0.022953168,0.628949642,0.335388035,0.133524239,0.475516140,0.324972987,-0.167575940,0.464968175,0.263993204,0.390015215,0.502005935,0.273072809,-0.434842020,0.502772212,0.306549311,0.631110668,0.566070914,0.276269972,-0.682240009,0.537027359,0.367588341,0.710363686,0.534985840,0.329254508,-0.767647624,0.509840846
0.350777000,-0.017764032,0.016786609,0.324775785,0.040425271,-0.075976819,0.329526633,-0.081031442,-0.087121330,0.323159397,-0.020526767,0.126677141,0.345676094,0.120680988,-0.449682623,0.350795299,-0.128777429,-0.448818237,0.326182604,-0.014181048,0.258814931,0.307310581,0.106601477,-0.854269862,0.330783039,-0.114279285,-0.859587967,0.344245195,-0.024196744,0.315731853,0.410673141,0.166232556,-0.927292407,0.434213310,-0.174027383,-0.928967893,0.323492408,-0.034960210,0.482708067,0.341472775,0.023058027,0.400445998,0.337267160,-0.071108073,0.401277065,0.251264602,-0.022954687,0.629090905,0.335469902,0.133170485,0.475470304,0.325012267,-0.167962864,0.464652747,0.263975710,0.389616549,0.502125800,0.273248345,-0.435269386,0.502357543,0.306730628,0.630678773,0.566183448,0.276412070,-0.682670116,0.536595762,0.367703557,0.709910631,0.534914970,0.329326808,-0.768135190,0.509453535
0.350777000,-0.017764032,0.016786609,0.324775785,0.040425271,-0.075976819,0.329526633,-0.081031442,-0.087121330,0.323159397,-0.020526767,0.126677141,0.345676094,0.120680988,-0.449682623,0.350795299,-0.128777429,-0.448818237,0.326182604,-0.014181048,0.258814931,0.307310581,0.106601477,-0.854269862,0.330783039,-0.114279285,-0.859587967,0.344245195,-0.024196744,0.315731853,0.410673141,0.166232556,-0.927292407,0.434213310,-0.174027383,-0.928967893,0.323492408,-0.034960210,0.482708067,0.341472775,0.023058027,0.400445998,0.337267160,-0.071108073,0.401277065,0.251264602,-0.022954687,0.629090905,0.335469902,0.133170485,0.475470304,0.325087965,-0.168031543,0.464562207,0.263975710,0.389616549,0.502125800,0.273468494,-0.435399950,0.502025843,0.307085365,0.630620718,0.566164315,0.276765406,-0.682833016,0.536016822,0.368130177,0.709778905,0.534849405,0.329639733,-0.768314898,0.508849025
0.350786179,-0.017772198,0.016583681,0.324785024,0.040417105,-0.076179728,0.329535872,-0.081039578,-0.087324254,0.323168635,-0.020534903,0.126474231,0.345637172,0.120539904,-0.449916720,0.350788176,-0.128936231,-0.449002206,0.326208562,-0.014222115,0.258613199,0.307184815,0.106341511,-0.854491472,0.330622971,-0.114581838,-0.859769404,0.344289720,-0.024269700,0.315518618,0.410529077,0.165907592,-0.927592993,0.433956325,-0.174341708,-0.929283500,0.323561132,-0.035084784,0.482494503,0.341548651,0.022956073,0.400249928,0.337309122,-0.071208805,0.401048392,0.251478583,-0.023048803,0.628946483,0.335642457,0.133096874,0.475240350,0.325114489,-0.168166906,0.464277565,0.264123023,0.389539182,0.501865268,0.273535073,-0.435531676,0.501821697,0.307413787,0.630479574,0.566020787,0.276839435,-0.682946324,0.535945654,0.368657500,0.709462404,0.534651220,0.329654217,-0.768497050,0.508878767
0.350786179,-0.017772198,0.016583681,0.324785024,0.040417105,-0.076179728,0.329535872,-0.081039578,-0.087324254,0.323168635,-0.020534903,0.126474231,0.345637172,0.120539904,-0.449916720,0.350788176,-0.128936231,-0.449002206,0.326208562,-0.014222115,0.258613199,0.307184815,0.106341511,-0.854491472,0.330622971,-0.114581838,-0.859769404,0.344289720,-0.024269700,0.315518618,0.410529077,0.165907592,-0.927592993,0.433925450,-0.174239546,-0.929416835,0.323561132,-0.035084784,0.482494503,0.341548651,0.022956073,0.400249928,0.337309122,-0.071208805,0.401048392,0.251478583,-0.023048803,0.628946483,0.335642457,0.133096874,0.475240350,0.325114489,-0.168166906,0.464277565,0.264123023,0.389539182,0.501865268,0.273535073,-0.435531676,0.501821697,0.307413787,0.630479574,0.566020787,0.276839435,-0.682946324,0.535945654,0.368878573,0.709247231,0.534542859,0.329613864,-0.768542409,0.508944333
0.350794643,-0.017902642,0.016262371,0.324793518,0.040286690,-0.076501064,0.329544276,-0.081170052,-0.087645575,0.323177040,-0.020665348,0.126152918,0.345201671,0.120074421,-0.450334281,0.350520313,-0.129407674,-0.449294329,0.326213092,-0.014319241,0.258290380,0.306362808,0.105469167,-0.854857683,0.329922974,-0.115400434,-0.860052168,0.344331801,-0.024345934,0.315187544,0.409717083,0.164927125,-0.928033113,0.433215678,-0.175312519,-0.929495513,0.323535234,-0.035077304,0.482160419,0.341572791,0.022919863,0.399895936,0.337303370,-0.071243286,0.400736302,0.251535296,-0.022989213,0.628648698,0.335780144,0.133096933,0.474841952,0.325057775,-0.168161660,0.464016438,0.264438927,0.389609039,0.501271784,0.273569673,-0.435523242,0.501708448,0.307880908,0.630531311,0.565393507,0.277018070,-0.682912946,0.535998404,0.369357467,0.709179401,0.533641100,0.329841435,-0.768499434,0.509061337
0.350797325,-0.018028855,0.016062828,0.324796140,0.040160418,-0.076700598,0.329546958,-0.081296295,-0.087845117,0.323179752,-0.020791531,0.125953376,0.344971865,0.119742930,-0.450590134,0.350320756,-0.129825041,-0.449466586,0.326259941,-0.014444947,0.258089781,0.305920690,0.104878932,-0.855083704,0.329372883,-0.116052866,-0.860214651,0.344416738,-0.024446487,0.314979225,0.409244865,0.164276898,-0.928350270,0.432617545,-0.176124096,-0.929591894,0.323632658,-0.035093069,0.481959075,0.341684639,0.022859246,0.399666190,0.337378532,-0.071301788,0.400550216,0.251732528,-0.022961900,0.628492832,0.335994154,0.133053809,0.474594355,0.325154662,-0.168186262,0.463886529,0.264889807,0.389648736,0.500857353,0.273810595,-0.435562015,0.501674592,0.308477402,0.630606532,0.564746559,0.277369559,-0.682942033,0.536023021,0.369923741,0.709120452,0.532606125,0.330214679,-0.768530846,0.509136200
0.350797325,-0.018028855,0.016062828,0.324796140,0.040160418,-0.076700598,0.329546958,-0.081296295,-0.087845117,0.323179752,-0.020791531,0.125953376,0.344971865,0.119742930,-0.450590134,0.350320756,-0.129825041,-0.449466586,0.326259941,-0.014444947,0.258089781,0.305920690,0.104878932,-0.855083704,0.329372883,-0.116052866,-0.860214651,0.344416738,-0.024446487,0.314979225,0.409244865,0.164276898,-0.928350270,0.432566971,-0.176019758,-0.929757118,0.323632658,-0.035093069,0.481959075,0.341684639,0.022859246,0.399666190,0.337378532,-0.071301788,0.400550216,0.251732528,-0.022961900,0.628492832,0.335994154,0.133053809,0.474594355,0.325154662,-0.168186262,0.463886529,0.264889807,0.389648736,0.500857353,0.273810595,-0.435562015,0.501674592,0.308477402,0.630606532,0.564746559,0.277369559,-0.682942033,0.536023021,0.369937658,0.709003687,0.532348871,0.330214679,-0.768530846,0.509136200
0.350809991,-0.017944425,0.015880829,0.324808806,0.040244848,-0.076882586,0.329559624,-0.081211805,-0.088027105,0.323192358,-0.020707160,0.125771374,0.345044404,0.120058894,-0.450719476,0.350328118,-0.129503012,-0.449680686,0.326281518,-0.014475614,0.257913053,0.306009412,0.105414242,-0.855222583,0.329411209,-0.115574926,-0.860425055,0.344445199,-0.024567038,0.314784378,0.409283042,0.164807856,-0.928563774,0.432610482,-0.175546676,-0.929955661,0.323731959,-0.035450250,0.481757760,0.341743141,0.022619516,0.399538785,0.337447882,-0.071543157,0.400292456,0.251723289,-0.023811057,0.628278136,0.336072445,0.132786751,0.474508494,0.325282484,-0.168532059,0.463479966,0.264981866,0.389364451,0.500976920,0.274062097,-0.435987353,0.500870526,0.308739096,0.630264997,0.564965606,0.277587950,-0.683385074,0.535094976,0.370088190,0.708785295,0.532655180,0.330483019,-0.768954873,0.508246422
0.350809991,-0.017944425,0.015880829,0.324808806,0.040244848,-0.076882586,0.329559624,-0.081211805,-0.088027105,0.323192358,-0.020707160,0.125771374,0.345044404,0.120058894,-0.450719476,0.350328118,-0.129503012,-0.449680686,0.326281518,-0.014475614,0.257913053,0.306009412,0.105414242,-0.855222583,0.329411209,-0.115574926,-0.860425055,0.344445199,-0.024567038,0.314784378,0.409283042,0.164807856,-0.928563774,0.432620883,-0.175670892,-0.929832876,0.323731959,-0.035450250,0.481757760,0.341743141,0.022619516,0.399538785,0.337447882,-0.071543157,0.400292456,0.251547456,-0.024183020,0.628220677,0.336095065,0.132888824,0.474360049,0.325282484,-0.168532059,0.463479966,0.264998555,0.389497876,0.500505805,0.274062097,-0.435987353,0.500870526,0.308765620,0.630488515,0.564147651,0.277587950,-0.683385074,0.535094976,0.369976968,0.709198356,0.532038033,0.330483019,-0.768954873,0.508246422
0.350807220,-0.018029451,0.015845455,0.324806035,0.040159881,-0.076917976,0.329556823,-0.081296861,-0.088062488,0.323189616,-0.020792127,0.125735998,0.345070064,0.120058715,-0.450735271,0.350355506,-0.129458383,-0.449731648,0.326246142,-0.014632881,0.257881820,0.306225538,0.105600059,-0.855263412,0.329525173,-0.115431517,-0.860477030,0.344398528,-0.024767101,0.314749181,0.409487844,0.164990246,-0.928623497,0.432799160,-0.175436407,-0.929868042,0.323711097,-0.035789549,0.481716633,0.341716290,0.022347748,0.399544030,0.337409198,-0.071815014,0.400218457,0.251516640,-0.024699479,0.628188133,0.336094528,0.132554293,0.474459827,0.325253367,-0.168857381,0.463325590,0.265118480,0.389154017,0.501021326,0.273914695,-0.436326027,0.500458360,0.309196234,0.630028427,0.564888835,0.277277410,-0.683748484,0.534519792,0.370477170,0.708724141,0.532876968,0.330094576,-0.769388020,0.507739604
0.350799680,-0.018102050,0.015929539,0.324798495,0.040087312,-0.076833889,0.329549283,-0.081369430,-0.087978400,0.323182106,-0.020864725,0.125820085,0.345105112,0.119876742,-0.450672239,0.350526661,-0.129527867,-0.449637681,0.326201707,-0.014710993,0.257967025,0.306511700,0.105394691,-0.855223536,0.330149651,-0.115502954,-0.860405922,0.344324440,-0.024876207,0.314838320,0.409797728,0.164727658,-0.928596377,0.433473170,-0.175438046,-0.929783583,0.323641568,-0.035944909,0.481803328,0.341642559,0.022215456,0.399646133,0.337338984,-0.071947604,0.400294960,0.251341164,-0.024950132,0.628229797,0.335982263,0.132413596,0.474571258,0.325182915,-0.168995708,0.463393331,0.264978826,0.389016330,0.501031399,0.273770511,-0.436494112,0.500208318,0.309040904,0.629891932,0.564904690,0.277051985,-0.683949888,0.534035444,0.370556742,0.708331048,0.532714248,0.329870582,-0.769599080,0.507289588
0.350799680,-0.018102050,0.015929539,0.324798495,0.040087312,-0.076833889,0.329549283,-0.081369430,-0.087978400,0.323182106,-0.020864725,0.125820085,0.345403731,0.120107204,-0.450606585,0.350526661,-0.129527867,-0.449637681,0.326201707,-0.014710993,0.257967025,0.307274997,0.105880588,-0.855210960,0.330149651,-0.115502954,-0.860405922,0.344324440,-0.024876207,0.314838320,0.410625339,0.165151924,-0.928543150,0.433293164,-0.175364673,-0.930114031,0.323641568,-0.035944909,0.481803328,0.341642559,0.022215456,0.399646133,0.337338984,-0.071947604,0.400294960,0.251119375,-0.024922222,0.628117979,0.335990816,0.132383436,0.474616319,0.325095892,-0.168997794,0.463373363,0.264827788,0.388980806,0.500696838,0.273615986,-0.436493814,0.500110865,0.308725893,0.629815340,0.564837635,0.276847124,-0.683925748,0.534116209,0.370790660,0.707546890,0.531991303,0.329779565,-0.769525945,0.507437587
0.350789309,-0.018125325,0.016131032,0.324788123,0.040064007,-0.076632395,0.329538941,-0.081392735,-0.087776899,0.323171675,-0.020888060,0.126021564,0.345561802,0.120305747,-0.450348228,0.350886941,-0.129242063,-0.449455470,0.326148450,-0.014817357,0.258173317,0.307894945,0.106387436,-0.855006635,0.330978811,-0.114910901,-0.860236108,0.344220310,-0.025074959,0.315044194,0.411284715,0.165636957,-0.928300977,0.434212536,-0.174727321,-0.929849446,0.323533177,-0.036339521,0.481995493,0.341552138,0.021914810,0.399908930,0.337220162,-0.072247714,0.400443733,0.250877559,-0.025370181,0.628247917,0.335876465,0.131995350,0.475005686,0.324966460,-0.169380233,0.463393062,0.264595330,0.388553500,0.501149416,0.273291022,-0.436928213,0.499472290,0.308545917,0.629366159,0.565336466,0.276304364,-0.684419155,0.533066154,0.370885074,0.706832767,0.532383919,0.329236031,-0.769991159,0.506295800
0.350789309,-0.018125325,0.016131032,0.324788123,0.040064007,-0.076632395,0.329538941,-0.081392735,-0.087776899,0.323171675,-0.020888060,0.126021564,0.345561802,0.120305747,-0.450348228,0.351182878,-0.129063040,-0.449461520,0.326148450,-0.014817357,0.258173317,0.307894945,0.106387436,-0.855006635,0.331545293,-0.114570677,-0.860249460,0.344220310,-0.025074959,0.315044194,0.411284715,0.165636957,-0.928300977,0.434919357,-0.174425960,-0.929620743,0.323533177,-0.036339521,0.481995493,0.341552138,0.021914810,0.399908930,0.337220162,-0.072247714,0.400443733,0.250877559,-0.025370181,0.628247917,0.335876465,0.131995350,0.475005686,0.324966460,-0.169380233,0.463393062,0.264520437,0.388540566,0.501072288,0.273291022,-0.436928213,0.499472290,0.308495998,0.629438877,0.564919591,0.276304364,-0.684419155,0.533066154,0.370931208,0.706861556,0.532045901,0.329236031,-0.769991159,0.506295800
0.350786567,-0.018100291,0.016218597,0.324785382,0.040089011,-0.076544814,0.329536200,-0.081367701,-0.087689333,0.323168933,-0.020862997,0.126109138,0.345752001,0.120573550,-0.450197637,0.351022780,-0.128889933,-0.449402809,0.326100409,-0.014861494,0.258265018,0.308629572,0.106961399,-0.854916692,0.331875831,-0.114358678,-0.860212564,0.344143599,-0.025151849,0.315139115,0.412047267,0.166168123,-0.928206205,0.435260415,-0.174266160,-0.929523110,0.323417783,-0.036511093,0.482079178,0.341465354,0.021788329,0.400030941,0.337116152,-0.072373658,0.400509298,0.250595003,-0.025588930,0.628251970,0.335811436,0.131853819,0.475151360,0.324879795,-0.169542670,0.463405669,0.264476418,0.388412207,0.501145720,0.272940367,-0.437102377,0.499015570,0.308631867,0.629295707,0.564924836,0.275637150,-0.684623063,0.532416463,0.371091455,0.706628859,0.531887174,0.328636527,-0.770137668,0.505596578
0.350771219,-0.018305957,0.016318789,0.324770033,0.039883345,-0.076444648,0.329520911,-0.081573367,-0.087589145,0.323153555,-0.021068633,0.126209319,0.345960230,0.120378941,-0.450082511,0.350964069,-0.129074633,-0.449308008,0.326063037,-0.015092909,0.258366883,0.309201151,0.106745481,-0.854834080,0.332343638,-0.114635855,-0.860145271,0.344095111,-0.025373638,0.315246195,0.412652612,0.165870875,-0.928141415,0.435689718,-0.174616426,-0.929449916,0.323351800,-0.036743551,0.482183427,0.341412455,0.021560490,0.400141269,0.337055176,-0.072601169,0.400612146,0.250404269,-0.025878549,0.628298283,0.335837960,0.131637245,0.475251079,0.324805319,-0.169766322,0.463511854,0.264607728,0.388244629,0.501046598,0.272601128,-0.437310100,0.498852879,0.308928430,0.629144430,0.564649582,0.274971485,-0.684848845,0.532144427,0.371423155,0.706390917,0.531475723,0.327993870,-0.770341396,0.505300641
0.350771219,-0.018305957,0.016318789,0.324770033,0.039883345,-0.076444648,0.329520911,-0.081573367,-0.087589145,0.323153555,-0.021068633,0.126209319,0.345960230,0.120378941,-0.450082511,0.350964069,-0.129074633,-0.449308008,0.326063037,-0.015092909,0.258366883,0.309201151,0.106745481,-0.854834080,0.332343638,-0.114635855,-0.860145271,0.344095111,-0.025373638,0.315246195,0.412652612,0.165870875,-0.928141415,0.435638040,-0.174419314,-0.929696798,0.323351800,-0.036743551,0.482183427,0.341412455,0.021560490,0.400141269,0.337055176,-0.072601169,0.400612146,0.250404269,-0.025878549,0.628298283,0.335837960,0.131637245,0.475251079,0.324805319,-0.169766322,0.463511854,0.264607728,0.388244629,0.501046598,0.272601128,-0.437310100,0.498852879,0.308928430,0.629144430,0.564649582,0.274971485,-0.684848845,0.532144427,0.371488243,0.706377625,0.531567574,0.327974975,-0.770328760,0.505223274
0.350769222,-0.018402249,0.016252946,0.324768007,0.039787024,-0.076510474,0.329518825,-0.081669688,-0.087654985,0.323151618,-0.021164984,0.126143485,0.346037149,0.120336115,-0.450132310,0.351007104,-0.129156083,-0.449373037,0.326099843,-0.015247554,0.258302808,0.309360921,0.106854588,-0.854896426,0.332378000,-0.114607796,-0.860206008,0.344120592,-0.025534332,0.315184623,0.412800610,0.165961146,-0.928235590,0.435719311,-0.174438268,-0.929647386,0.323413730,-0.036885768,0.482127637,0.341479361,0.021405786,0.400077701,0.337081283,-0.072753996,0.400555015,0.250472188,-0.026035190,0.628246546,0.335904777,0.131475210,0.475198209,0.324802190,-0.169881403,0.463507295,0.264784336,0.388119906,0.500926256,0.272478163,-0.437404215,0.498830110,0.309164047,0.629059196,0.564337790,0.274483025,-0.684944153,0.532136619,0.371701330,0.706339598,0.531323731,0.327415705,-0.770482600,0.505261183
0.350769222,-0.018402249,0.016252946,0.324768007,0.039787024,-0.076510474,0.329518825,-0.081669688,-0.087654985,0.323151618,-0.021164984,0.126143485,0.346037149,0.120336115,-0.450132310,0.350904495,-0.128942907,-0.449407130,0.326099843,-0.015247554,0.258302808,0.309360921,0.106854588,-0.854896426,0.332226992,-0.114109665,-0.860227704,0.344120592,-0.025534332,0.315184623,0.412800610,0.165961146,-0.928235590,0.435680747,-0.174050003,-0.929406404,0.323413730,-0.036885768,0.482127637,0.341479361,0.021405786,0.400077701,0.337081283,-0.072753996,0.400555015,0.250472188,-0.026035190,0.628246546,0.335904777,0.131475210,0.475198209,0.324802190,-0.169881403,0.463507295,0.264784336,0.388119906,0.500926256,0.272478163,-0.437404215,0.498830110,0.308926314,0.629139662,0.564198196,0.274483025,-0.684944153,0.532136619,0.371280432,0.706607223,0.531276524,0.327396214,-0.770478070,0.505209148
0.350773722,-0.018323332,0.016245209,0.324772567,0.039865971,-0.076518200,0.329523385,-0.081590712,-0.087662712,0.323156118,-0.021086007,0.126135752,0.346133053,0.120571077,-0.450101137,0.351036310,-0.128862351,-0.449407488,0.326120049,-0.015186667,0.258295536,0.309669495,0.107255906,-0.854889929,0.332715511,-0.114104748,-0.860246837,0.344124198,-0.025460154,0.315185010,0.413112879,0.166398734,-0.928194642,0.436056763,-0.173978329,-0.929651141,0.323394567,-0.036778241,0.482127398,0.341467947,0.021497369,0.400067925,0.337075979,-0.072662532,0.400564194,0.250433147,-0.025970876,0.628239572,0.335920334,0.131598264,0.475144327,0.324794173,-0.169764429,0.463555336,0.265049487,0.388333231,0.500659645,0.272609085,-0.437307209,0.498931795,0.309448898,0.629298091,0.563960195,0.274428904,-0.684832335,0.532358825,0.371751189,0.706673622,0.530725479,0.327288330,-0.770439148,0.505557656
0.350779027,-0.018244058,0.016220044,0.324777871,0.039945215,-0.076543376,0.329528660,-0.081511468,-0.087687895,0.323161423,-0.021006763,0.126110584,0.346228451,0.120589435,-0.450134307,0.351319432,-0.128912568,-0.449399054,0.326123714,-0.014988154,0.258265048,0.309920788,0.107083589,-0.854930818,0.333348840,-0.114394024,-0.860262394,0.344121784,-0.025223225,0.315163404,0.413380325,0.166190267,-0.928241849,0.436674684,-0.174222857,-0.929728210,0.323364705,-0.036470026,0.482107252,0.341449827,0.021770865,0.400025636,0.337060928,-0.072388977,0.400561780,0.250353187,-0.025652230,0.628193617,0.335906088,0.131889433,0.475076377,0.324866146,-0.169467032,0.463606656,0.265177697,0.388677657,0.500451267,0.272848874,-0.437020540,0.499148786,0.309756011,0.629562259,0.563931465,0.274586499,-0.684507906,0.532858908,0.372089952,0.706867695,0.530592859,0.327371836,-0.770215154,0.506232619
0.350779027,-0.018244058,0.016220044,0.324777871,0.039945215,-0.076543376,0.329528660,-0.081511468,-0.087687895,0.323161423,-0.021006763,0.126110584,0.346228451,0.120589435,-0.450134307,0.351319432,-0.128912568,-0.449399054,0.326123714,-0.014988154,0.258265048,0.309920788,0.107083589,-0.854930818,0.332878947,-0.114367515,-0.860240638,0.344121784,-0.025223225,0.315163404,0.413380325,0.166190267,-0.928241849,0.436123401,-0.174195111,-0.929828465,0.323364705,-0.036470026,0.482107252,0.341449827,0.021770865,0.400025636,0.337060928,-0.072388977,0.400561780,0.250353187,-0.025652230,0.628193617,0.335906088,0.131889433,0.475076377,0.324866146,-0.169467032,0.463606656,0.265177697,0.388677657,0.500451267,0.272848874,-0.437020540,0.499148786,0.309756011,0.629562259,0.563931465,0.274586499,-0.684507906,0.532858908,0.372207522,0.706814647,0.530690253,0.327371836,-0.770215154,0.506232619
0.350793153,-0.018135667,0.016034938,0.324791968,0.040053666,-0.076728493,0.329542816,-0.081403077,-0.087873004,0.323175520,-0.020898372,0.125925481,0.346195459,0.120792955,-0.450301617,0.351452678,-0.128743693,-0.449584961,0.326180488,-0.014940530,0.258081704,0.309780031,0.107365429,-0.855091155,0.332924843,-0.114053935,-0.860417545,0.344189376,-0.025179952,0.314975858,0.413149297,0.166535497,-0.928478479,0.436282277,-0.173882633,-0.929836333,0.323446959,-0.036417097,0.481922150,0.341517627,0.021820098,0.399834752,0.337141693,-0.072340310,0.400378317,0.250494450,-0.025675550,0.628043652,0.336038530,0.131967068,0.474848509,0.325070500,-0.169399053,0.463476539,0.265591681,0.388841867,0.500129223,0.273250520,-0.436965346,0.499211192,0.310461968,0.629722595,0.563418508,0.275093734,-0.684419274,0.533159852,0.373003393,0.706957221,0.530305386,0.327898800,-0.770159483,0.506679475
0.350812405,-0.017890811,0.015887612,0.324811250,0.040298522,-0.076875806,0.329562038,-0.081158161,-0.088020310,0.323194772,-0.020653456,0.125778154,0.346199214,0.121193558,-0.450416088,0.351440281,-0.128307313,-0.449759126,0.326200426,-0.014748394,0.257936746,0.309651911,0.107935399,-0.855199337,0.332806230,-0.113335401,-0.860576630,0.344197839,-0.024990112,0.314834088,0.412913889,0.167249918,-0.928620994,0.436261833,-0.173227102,-0.929794729,0.323392093,-0.036238104,0.481771767,0.341472596,0.022007585,0.399692625,0.337134421,-0.072154582,0.400232971,0.250487596,-0.025558129,0.627921700,0.336019039,0.132174224,0.474679351,0.325048387,-0.169199064,0.463350266,0.265823275,0.389125586,0.499879897,0.273261607,-0.436757445,0.499191195,0.310937524,0.630043507,0.562852859,0.275127172,-0.684207678,0.533165574,0.373493433,0.707323551,0.529873252,0.328015268,-0.769909382,0.506727517
0.350812405,-0.017890811,0.015887612,0.324811250,0.040298522,-0.076875806,0.329562038,-0.081158161,-0.088020310,0.323194772,-0.020653456,0.125778154,0.346199214,0.121193558,-0.450416088,0.351440281,-0.128307313,-0.449759126,0.326200426,-0.014748394,0.257936746,0.309651911,0.107935399,-0.855199337,0.332806230,-0.113335401,-0.860576630,0.344197839,-0.024990112,0.314834088,0.412913889,0.167249918,-0.928620994,0.436207533,-0.173038900,-0.930037975,0.323392093,-0.036238104,0.481771767,0.341472596,0.022007585,0.399692625,0.337134421,-0.072154582,0.400232971,0.250487596,-0.025558129,0.627921700,0.336019039,0.132174224,0.474679351,0.325048387,-0.169199064,0.463350266,0.265823275,0.389125586,0.499879897,0.273674190,-0.436813146,0.499368072,0.310937524,0.630043507,0.562852859,0.275921583,-0.684241176,0.533480704,0.373621792,0.707254171,0.529954612,0.328922629,-0.769879937,0.507063866
0.350818515,-0.017811447,0.015842654,0.324817330,0.040377915,-0.076920763,0.329568088,-0.081078827,-0.088065282,0.323200911,-0.020574152,0.125733197,0.346212864,0.121358514,-0.450442076,0.351551265,-0.128180593,-0.449803978,0.326201409,-0.014645845,0.257890850,0.309628189,0.108149439,-0.855223596,0.332745165,-0.113136709,-0.860611081,0.344226062,-0.024900287,0.314777344,0.412857294,0.167506039,-0.928657532,0.436096609,-0.172679484,-0.930284202,0.323472649,-0.036171556,0.481720001,0.341522902,0.022086263,0.399642736,0.337193042,-0.072076350,0.400172323,0.250731528,-0.025445893,0.627947927,0.336150408,0.132270575,0.474609435,0.325049639,-0.169120654,0.463278890,0.266137779,0.389274180,0.499786735,0.273753405,-0.436725229,0.499478668,0.311610788,0.630167782,0.562594652,0.276114106,-0.684152365,0.533590674,0.374464452,0.707256794,0.529734433,0.329221904,-0.769692242,0.507067800
0.350818515,-0.017811447,0.015842654,0.324817330,0.040377915,-0.076920763,0.329568088,-0.081078827,-0.088065282,0.323200911,-0.020574152,0.125733197,0.346212864,0.121358514,-0.450442076,0.351551265,-0.128180593,-0.449803978,0.326201409,-0.014645845,0.257890850,0.309628189,0.108149439,-0.855223596,0.332745165,-0.113136709,-0.860611081,0.344226062,-0.024900287,0.314777344,0.412857294,0.167506039,-0.928657532,0.436012357,-0.172836125,-0.930275142,0.323472649,-0.036171556,0.481720001,0.341522902,0.022086263,0.399642736,0.337193042,-0.072076350,0.400172323,0.250731528,-0.025445893,0.627947927,0.336150408,0.132270575,0.474609435,0.325049639,-0.169120654,0.463278890,0.266137779,0.389274180,0.499786735,0.273796618,-0.436698169,0.499739051,0.311610788,0.630167782,0.562594652,0.276497364,-0.684120297,0.533862472,0.374464452,0.707256794,0.529734433,0.329646409,-0.769603491,0.507239938
0.350831151,-0.017818898,0.015551468,0.324829966,0.040370405,-0.077211954,0.329580784,-0.081086278,-0.088356465,0.323213547,-0.020581603,0.125442013,0.346118093,0.121576875,-0.450690359,0.351407737,-0.127947450,-0.450135827,0.326247036,-0.014716387,0.257601708,0.309303015,0.108706325,-0.855461836,0.332558751,-0.112543568,-0.860927582,0.344274610,-0.024969727,0.314487457,0.412481487,0.168094039,-0.928941727,0.435867488,-0.172254235,-0.930520415,0.323498845,-0.036251873,0.481426597,0.341572225,0.022009492,0.399356961,0.337220669,-0.072152168,0.399877191,0.250782579,-0.025494337,0.627664626,0.336309135,0.132188737,0.474338859,0.325003326,-0.169190720,0.462978333,0.266787887,0.389307767,0.499699801,0.273629516,-0.436739057,0.499482900,0.312880605,0.630040646,0.562671781,0.276428998,-0.684169114,0.533540189,0.375827551,0.707023799,0.529742062,0.329626977,-0.769589663,0.506814599
0.350831151,-0.017818898,0.015551468,0.324829966,0.040370405,-0.077211954,0.329580784,-0.081086278,-0.088356465,0.323213547,-0.020581603,0.125442013,0.346118093,0.121576875,-0.450690359,0.351233631,-0.127784014,-0.450167388,0.326247036,-0.014716387,0.257601708,0.309303015,0.108706325,-0.855461836,0.332266837,-0.112143934,-0.860944808,0.344274610,-0.024969727,0.314487457,0.412481487,0.168094039,-0.928941727,0.435614109,-0.171941638,-0.930405617,0.323498845,-0.036251873,0.481426597,0.341572225,0.022009492,0.399356961,0.337220669,-0.072152168,0.399877191,0.250782579,-0.025494337,0.627664626,0.336309135,0.132188737,0.474338859,0.325003326,-0.169190720,0.462978333,0.266887724,0.389328539,0.499761850,0.273629516,-0.436739057,0.499482900,0.312999040,0.629987240,0.563003302,0.276428998,-0.684169114,0.533540189,0.375765324,0.707022905,0.529851854,0.329626977,-0.769589663,0.506814599
0.350835174,-0.017860740,0.015411276,0.324833989,0.040328592,-0.077352151,0.329584837,-0.081128150,-0.088496663,0.323217541,-0.020623446,0.125301823,0.346156061,0.121635079,-0.450806886,0.351402193,-0.127911940,-0.450286657,0.326245815,-0.014708728,0.257459462,0.309343904,0.108916163,-0.855583370,0.332501203,-0.112339005,-0.861069679,0.344284832,-0.024940282,0.314345449,0.412539750,0.168294430,-0.929046512,0.435742319,-0.172064781,-0.930749834,0.323558122,-0.036133468,0.481296629,0.341653168,0.022077322,0.399195910,0.337219983,-0.072080314,0.399757683,0.250808597,-0.025283769,0.627511322,0.336544633,0.132308632,0.474111855,0.324961185,-0.169079646,0.462911189,0.267512798,0.389556229,0.499505997,0.273551881,-0.436613381,0.499472320,0.313876122,0.630159438,0.562774062,0.276558042,-0.684039652,0.533539593,0.376841068,0.707019567,0.529591799,0.329693675,-0.769478559,0.506749392
0.350827575,-0.017996907,0.015425524,0.324826449,0.040192425,-0.077337906,0.329577237,-0.081264287,-0.088482417,0.323210001,-0.020759583,0.125316069,0.346254766,0.121619433,-0.450760305,0.351559818,-0.127985567,-0.450270474,0.326214105,-0.014758497,0.257470369,0.309356153,0.108927488,-0.855529785,0.332565874,-0.112500519,-0.861052513,0.344251215,-0.024937421,0.314366430,0.412542075,0.168229073,-0.929068744,0.435739577,-0.172195554,-0.930858731,0.323574632,-0.035989225,0.481333286,0.341662377,0.022149444,0.399179816,0.337198317,-0.072006285,0.399818927,0.250814438,-0.025008753,0.627532840,0.336645424,0.132462472,0.473981589,0.324892908,-0.168946967,0.463053316,0.267865807,0.389781773,0.499334365,0.273450017,-0.436478943,0.499580532,0.314328492,0.630369663,0.562588334,0.276457191,-0.683902621,0.533666968,0.377340615,0.707173586,0.529365540,0.329546750,-0.769349694,0.506810725
0.350827575,-0.017996907,0.015425524,0.324826449,0.040192425,-0.077337906,0.329577237,-0.081264287,-0.088482417,0.323210001,-0.020759583,0.125316069,0.346254766,0.121619433,-0.450760305,0.351559818,-0.127985567,-0.450270474,0.326214105,-0.014758497,0.257470369,0.309356153,0.108927488,-0.855529785,0.332565874,-0.112500519,-0.861052513,0.344251215,-0.024937421,0.314366430,0.412542075,0.168229073,-0.929068744,0.435824811,-0.172217011,-0.930714250,0.323574632,-0.035989225,0.481333286,0.341662377,0.022149444,0.399179816,0.337198317,-0.072006285,0.399818927,0.250814438,-0.025008753,0.627532840,0.336645424,0.132462472,0.473981589,0.324892908,-0.168946967,0.463053316,0.267865807,0.389781773,0.499334365,0.273450017,-0.436478943,0.499580532,0.314328492,0.630369663,0.562588334,0.276457191,-0.683902621,0.533666968,0.377340615,0.707173586,0.529365540,0.329625428,-0.769260168,0.506682754
0.350843906,-0.017758846,0.015330735,0.324842691,0.040430456,-0.077432685,0.329593509,-0.081026256,-0.088577203,0.323226273,-0.020521581,0.125221282,0.346271336,0.122018874,-0.450819850,0.351637721,-0.127610058,-0.450379223,0.326191217,-0.014537096,0.257377237,0.309358656,0.109491825,-0.855593204,0.332552403,-0.111938149,-0.861149907,0.344213068,-0.024708748,0.314279407,0.412494063,0.168821335,-0.929180562,0.435827523,-0.171518028,-0.930904627,0.323541492,-0.035756886,0.481247127,0.341611922,0.022382170,0.399090141,0.337174505,-0.071774721,0.399734676,0.250646561,-0.024787799,0.627380371,0.336553186,0.132728308,0.473840296,0.324908376,-0.168757051,0.462912738,0.267760038,0.390032113,0.499312013,0.273654401,-0.436360836,0.499178290,0.314190596,0.630567908,0.562786937,0.276591837,-0.683799624,0.533160210,0.377136141,0.707430005,0.529572427,0.329669178,-0.769169331,0.506035149
0.350852102,-0.017619580,0.015303220,0.324850917,0.040569723,-0.077460214,0.329601765,-0.080886990,-0.088604718,0.323234528,-0.020382226,0.125193775,0.346313000,0.122174919,-0.450841784,0.351758778,-0.127511233,-0.450394660,0.326175034,-0.014363050,0.257348686,0.309490442,0.109689415,-0.855624616,0.332657397,-0.111824304,-0.861164033,0.344193190,-0.024528563,0.314253151,0.412592232,0.169109464,-0.929185987,0.435964257,-0.171243727,-0.931008458,0.323542684,-0.035553604,0.481224984,0.341593415,0.022575527,0.399056643,0.337172657,-0.071582049,0.399716765,0.250568032,-0.024501696,0.627312303,0.336464584,0.132907182,0.473823398,0.324889809,-0.168580800,0.462866515,0.267544210,0.390163362,0.499432594,0.273831069,-0.436227351,0.499092251,0.314083219,0.630737066,0.562684298,0.276633620,-0.683670282,0.533055842,0.377014756,0.707522690,0.529267669,0.329548597,-0.769106150,0.505822003
0.350852102,-0.017619580,0.015303220,0.324850917,0.040569723,-0.077460214,0.329601765,-0.080886990,-0.088604718,0.323234528,-0.020382226,0.125193775,0.346313000,0.122174919,-0.450841784,0.351758778,-0.127511233,-0.450394660,0.326175034,-0.014363050,0.257348686,0.309490442,0.109689415,-0.855624616,0.332657397,-0.111824304,-0.861164033,0.344193190,-0.024528563,0.314253151,0.412592232,0.169109464,-0.929185987,0.435964257,-0.171243727,-0.931008458,0.323542684,-0.035553604,0.481224984,0.341593415,0.022575527,0.399056643,0.337172657,-0.071582049,0.399716765,0.250568032,-0.024501696,0.627312303,0.336464584,0.132907182,0.473823398,0.324889809,-0.168580800,0.462866515,0.267544210,0.390163362,0.499432594,0.273831069,-0.436227351,0.499092251,0.314083219,0.630737066,0.562684298,0.276633620,-0.683670282,0.533055842,0.377048105,0.707549930,0.529393077,0.329548597,-0.769106150,0.505822003
0.350857049,-0.017609090,0.015203346,0.324855834,0.040580243,-0.077560082,0.329606682,-0.080876499,-0.088704593,0.323239416,-0.020371795,0.125093892,0.346199095,0.122120917,-0.450962573,0.351807415,-0.127506971,-0.450491041,0.326158702,-0.014350951,0.257249206,0.309306413,0.109547168,-0.855736315,0.332660347,-0.111862212,-0.861259937,0.344166458,-0.024538517,0.314152986,0.412402868,0.168900788,-0.929358721,0.435960203,-0.171323568,-0.931079030,0.323553860,-0.035591692,0.481127679,0.341586143,0.022551239,0.398965031,0.337165236,-0.071606457,0.399610281,0.250626922,-0.024498403,0.627235651,0.336474776,0.132859886,0.473766893,0.324933887,-0.168594241,0.462786853,0.267516613,0.390105426,0.499381572,0.274010241,-0.436267614,0.499004453,0.314233363,0.630673766,0.562522411,0.276878953,-0.683713794,0.532939255,0.377193809,0.707451761,0.529142439,0.329825997,-0.769092083,0.505587757
0.350857049,-0.017609090,0.015203346,0.324855834,0.040580243,-0.077560082,0.329606682,-0.080876499,-0.088704593,0.323239416,-0.020371795,0.125093892,0.346199095,0.122120917,-0.450962573,0.351783574,-0.127437562,-0.450501412,0.326158702,-0.014350951,0.257249206,0.309306413,0.109547168,-0.855736315,0.332694024,-0.111659288,-0.861267805,0.344166458,-0.024538517,0.314152986,0.412402868,0.168900788,-0.929358721,0.435955942,-0.171263605,-0.931021154,0.323553860,-0.035591692,0.481127679,0.341586143,0.022551239,0.398965031,0.337165236,-0.071606457,0.399610281,0.250626922,-0.024498403,0.627235651,0.336474776,0.132859886,0.473766893,0.324933887,-0.168594241,0.462786853,0.267516613,0.390105426,0.499381572,0.273636788,-0.436214894,0.498866826,0.314233363,0.630673766,0.562522411,0.276160121,-0.683682799,0.532670319,0.377064943,0.707425833,0.528841376,0.328984618,-0.769120991,0.505269349
0.350859582,-0.017635643,0.015113418,0.324858397,0.040553689,-0.077650003,0.329609215,-0.080903023,-0.088794522,0.323241949,-0.020398349,0.125003964,0.346267819,0.122093797,-0.451048821,0.351818889,-0.127608269,-0.450570762,0.326179057,-0.014324158,0.257156432,0.309306324,0.109524429,-0.855816364,0.332743824,-0.112022936,-0.861345232,0.344218999,-0.024486512,0.314054549,0.412436664,0.168819189,-0.929438889,0.435968429,-0.171646118,-0.931137621,0.323617458,-0.035461992,0.481035709,0.341658890,0.022640496,0.398846477,0.337211967,-0.071515679,0.399532676,0.250637174,-0.024327546,0.627113879,0.336577237,0.132985979,0.473596036,0.324981630,-0.168437392,0.462810636,0.267490327,0.390210569,0.499074221,0.273754537,-0.436054319,0.499017507,0.314261258,0.630807400,0.562066019,0.276305914,-0.683512330,0.532891035,0.377261668,0.707423747,0.528391719,0.329196513,-0.768875957,0.505384505
0.350859582,-0.017635643,0.015113418,0.324858397,0.040553689,-0.077650003,0.329609215,-0.080903023,-0.088794522,0.323241949,-0.020398349,0.125003964,0.346267819,0.122093797,-0.451048821,0.351818889,-0.127608269,-0.450570762,0.326179057,-0.014324158,0.257156432,0.309306324,0.109524429,-0.855816364,0.332743824,-0.112022936,-0.861345232,0.344218999,-0.024486512,0.314054549,0.412436664,0.168819189,-0.929438889,0.435955077,-0.171504110,-0.931278348,0.323617458,-0.035461992,0.481035709,0.341658890,0.022640496,0.398846477,0.337211967,-0.071515679,0.399532676,0.250637174,-0.024327546,0.627113879,0.336577237,0.132985979,0.473596036,0.324878246,-0.168375716,0.462884933,0.267276704,0.390150696,0.499097258,0.273720652,-0.436001033,0.499127895,0.313909620,0.630814910,0.561934173,0.276336193,-0.683451295,0.533053279,0.377121419,0.707322776,0.528409183,0.329318702,-0.768732607,0.505469263
0.350863397,-0.017646223,0.015011506,0.324862212,0.040543109,-0.077751920,0.329613000,-0.080913633,-0.088896446,0.323245764,-0.020408958,0.124902055,0.346322745,0.121925414,-0.451182216,0.351789117,-0.127735466,-0.450659692,0.326187700,-0.014312714,0.257053405,0.309242427,0.109205902,-0.855934262,0.332472086,-0.112208456,-0.861425102,0.344256222,-0.024466515,0.313943982,0.412275970,0.168500155,-0.929692447,0.435670316,-0.171723932,-0.931348324,0.323702604,-0.035400182,0.480933785,0.341719270,0.022681922,0.398724705,0.337274551,-0.071474195,0.399435967,0.250781089,-0.024245903,0.627039790,0.336650074,0.133031458,0.473469108,0.324998677,-0.168341830,0.462787926,0.267371476,0.390205950,0.498931468,0.273773134,-0.435946375,0.499088019,0.313958466,0.630890310,0.561725140,0.276222706,-0.683395624,0.533032715,0.377150089,0.707511961,0.528422713,0.328998327,-0.768797159,0.505424261
0.350871176,-0.017637551,0.014838776,0.324869990,0.040551752,-0.077924639,0.329620779,-0.080904961,-0.089069150,0.323253632,-0.020400256,0.124729335,0.346177906,0.121994346,-0.451350540,0.351635307,-0.127625883,-0.450855285,0.326215804,-0.014367998,0.256883144,0.308870494,0.109340250,-0.856083751,0.332152992,-0.111954838,-0.861607373,0.344283998,-0.024514914,0.313775063,0.411816001,0.168670028,-0.929936349,0.435385287,-0.171504736,-0.931450903,0.323688567,-0.035469472,0.480758369,0.341714919,0.022624552,0.398559779,0.337289631,-0.071532547,0.399260551,0.250835687,-0.024402365,0.626905262,0.336639106,0.132952631,0.473335445,0.325085253,-0.168450460,0.462549388,0.267430782,0.390138865,0.498870015,0.273919821,-0.436073452,0.498798400,0.313834786,0.630808115,0.561856985,0.276362658,-0.683523774,0.532735050,0.376943916,0.707537055,0.528645098,0.328995943,-0.769004166,0.505097806
0.350871176,-0.017637551,0.014838776,0.324869990,0.040551752,-0.077924639,0.329620779,-0.080904961,-0.089069150,0.323253632,-0.020400256,0.124729335,0.346177906,0.121994346,-0.451350540,0.351635307,-0.127625883,-0.450855285,0.326215804,-0.014367998,0.256883144,0.308870494,0.109340250,-0.856083751,0.332152992,-0.111954838,-0.861607373,0.344283998,-0.024514914,0.313775063,0.411873311,0.168734699,-0.929804206,0.435526431,-0.171540797,-0.931211054,0.323688567,-0.035469472,0.480758369,0.341714919,0.022624552,0.398559779,0.337289631,-0.071532547,0.399260551,0.250835687,-0.024402365,0.626905262,0.336639106,0.132952631,0.473335445,0.325085253,-0.168450460,0.462549388,0.267544925,0.390155435,0.499012202,0.273919821,-0.436073452,0.498798400,0.314006090,0.630741835,0.562272727,0.276362658,-0.683523774,0.532735050,0.376998454,0.707407057,0.528694749,0.329003513,-0.769048393,0.505249739
0.350872695,-0.017687678,0.014742419,0.324871510,0.040501684,-0.078021005,0.329622358,-0.080954999,-0.089165516,0.323255092,-0.020450324,0.124632962,0.346086085,0.122040272,-0.451431245,0.351709396,-0.127662793,-0.450948924,0.326230675,-0.014426559,0.256786883,0.308790803,0.109484732,-0.856168687,0.332065135,-0.111886963,-0.861689270,0.344315171,-0.024594396,0.313669860,0.411808372,0.168881088,-0.929867029,0.435317397,-0.171465069,-0.931479275,0.323725879,-0.035600841,0.480650425,0.341757119,0.022517562,0.398470223,0.337317765,-0.071639091,0.399140179,0.250886917,-0.024649039,0.626812935,0.336729348,0.132785320,0.473338008,0.325142443,-0.168557167,0.462434381,0.267778099,0.389999777,0.499279857,0.273970872,-0.436184436,0.498642683,0.314243168,0.630496025,0.562879384,0.276431024,-0.683653951,0.532437444,0.377277374,0.706998825,0.529010594,0.329046071,-0.769157767,0.504838288
0.350872695,-0.017687678,0.014742419,0.324871510,0.040501684,-0.078021005,0.329622358,-0.080954999,-0.089165516,0.323255092,-0.020450324,0.124632962,0.346086085,0.122040272,-0.451431245,0.351709396,-0.127662793,-0.450948924,0.326230675,-0.014426559,0.256786883,0.308790803,0.109484732,-0.856168687,0.332065135,-0.111886963,-0.861689270,0.344315171,-0.024594396,0.313669860,0.411868036,0.168700337,-0.929928899,0.435110390,-0.171453506,-0.931794345,0.323725879,-0.035600841,0.480650425,0.341757119,0.022517562,0.398470223,0.337317765,-0.071639091,0.399140179,0.250886917,-0.024649039,0.626812935,0.336729348,0.132785320,0.473338008,0.325142443,-0.168557167,0.462434381,0.267778099,0.389999777,0.499279857,0.273970872,-0.436184436,0.498642683,0.314243168,0.630496025,0.562879384,0.276431024,-0.683653951,0.532437444,0.377367377,0.706743956,0.528605938,0.329015672,-0.769129455,0.504693151
0.350874275,-0.017689228,0.014703603,0.324873120,0.040500104,-0.078059837,0.329623908,-0.080956638,-0.089204341,0.323256642,-0.020451933,0.124594159,0.346059680,0.122052670,-0.451468647,0.351657212,-0.127668172,-0.450990587,0.326213062,-0.014385760,0.256746590,0.308852911,0.109483838,-0.856213808,0.332142353,-0.112023234,-0.861742198,0.344313025,-0.024556875,0.313624114,0.411920726,0.168778867,-0.929923594,0.435214281,-0.171677738,-0.931733131,0.323758513,-0.035545856,0.480610192,0.341766834,0.022564799,0.398419470,0.337337911,-0.071592242,0.399101406,0.250942290,-0.024575174,0.626782715,0.336737096,0.132827997,0.473293871,0.325174809,-0.168459162,0.462476164,0.267742574,0.390026689,0.499278039,0.274031401,-0.436075628,0.498804271,0.314052790,0.630495906,0.563092172,0.276512444,-0.683537602,0.532654583,0.377166301,0.706841111,0.529015899,0.329128444,-0.769016027,0.504979193
0.350870013,-0.017757326,0.014724208,0.324868828,0.040432006,-0.078039229,0.329619616,-0.081024736,-0.089183748,0.323252410,-0.020520031,0.124614753,0.346073568,0.121841967,-0.451478124,0.351645887,-0.127825379,-0.450958937,0.326230526,-0.014427722,0.256765455,0.308959305,0.109024554,-0.856224000,0.332265645,-0.112384260,-0.861724675,0.344310522,-0.024596184,0.313649744,0.412039310,0.168283075,-0.929946065,0.435360134,-0.172097802,-0.931632161,0.323691368,-0.035612375,0.480626017,0.341731936,0.022511601,0.398451805,0.337302059,-0.071645528,0.399116635,0.250880063,-0.024606645,0.626798213,0.336785913,0.132783651,0.473318756,0.325157642,-0.168545127,0.462445050,0.267897010,0.390004903,0.499359488,0.274118155,-0.436172247,0.498841077,0.314406306,0.630466104,0.563059211,0.276562095,-0.683626533,0.532749712,0.377578884,0.706839383,0.529155672,0.329173863,-0.769136369,0.505163193
0.350870013,-0.017757326,0.014724208,0.324868828,0.040432006,-0.078039229,0.329619616,-0.081024736,-0.089183748,0.323252410,-0.020520031,0.124614753,0.346073568,0.121841967,-0.451478124,0.351645887,-0.127825379,-0.450958937,0.326230526,-0.014427722,0.256765455,0.308959305,0.109024554,-0.856224000,0.332265645,-0.112384260,-0.861724675,0.344310522,-0.024596184,0.313649744,0.412039310,0.168283075,-0.929946065,0.435293525,-0.172135085,-0.931698382,0.323691368,-0.035612375,0.480626017,0.341731936,0.022511601,0.398451805,0.337302059,-0.071645528,0.399116635,0.250880063,-0.024606645,0.626798213,0.336785913,0.132783651,0.473318756,0.325157642,-0.168545127,0.462445050,0.267717510,0.389953792,0.499389678,0.274118155,-0.436172247,0.498841077,0.314107060,0.630466640,0.562981784,0.276562095,-0.683626533,0.532749712,0.377318293,0.706979275,0.529466212,0.329173863,-0.769136369,0.505163193
0.350861728,-0.017921627,0.014720349,0.324860573,0.040267706,-0.078043088,0.329611391,-0.081189036,-0.089187600,0.323244125,-0.020684302,0.124610893,0.346115977,0.121628612,-0.451489776,0.351584524,-0.128063843,-0.450956404,0.326234996,-0.014632672,0.256763190,0.309239835,0.108822882,-0.856257737,0.332238793,-0.112675875,-0.861725688,0.344315380,-0.024826616,0.313642800,0.412358224,0.168034971,-0.929963470,0.435325384,-0.172408015,-0.931628823,0.323696703,-0.035885870,0.480616331,0.341760904,0.022255719,0.398459762,0.337288260,-0.071899593,0.399095148,0.250802159,-0.024919420,0.626750052,0.336894989,0.132541716,0.473311365,0.325137913,-0.168820158,0.462390363,0.268031776,0.389768034,0.499370009,0.274057388,-0.436442167,0.498766214,0.314682931,0.630208969,0.563042462,0.276474118,-0.683896780,0.532673359,0.377972513,0.706651390,0.529514790,0.329073012,-0.769439697,0.505164564
0.350857854,-0.018091649,0.014604589,0.324856699,0.040097713,-0.078158848,0.329607517,-0.081359029,-0.089303359,0.323240221,-0.020854384,0.124495141,0.346188813,0.121513426,-0.451589227,0.351524413,-0.128155380,-0.451085716,0.326258868,-0.014816344,0.256647438,0.309346497,0.108814597,-0.856363654,0.332329810,-0.112677246,-0.861858666,0.344368070,-0.025030851,0.313514233,0.412462771,0.167969048,-0.930118561,0.435572088,-0.172303736,-0.931622148,0.323830277,-0.036166430,0.480492651,0.341871768,0.022010118,0.398355812,0.337368935,-0.072144061,0.398946702,0.250860453,-0.025317252,0.626597583,0.337046802,0.132284135,0.473227829,0.325200528,-0.169091076,0.462197840,0.268383950,0.389556617,0.499359369,0.274171442,-0.436754018,0.498344719,0.315147072,0.629909992,0.563279808,0.276787162,-0.684228301,0.532094538,0.378424853,0.706277847,0.529560447,0.329467475,-0.769722462,0.504590869
0.350857854,-0.018091649,0.014604589,0.324856699,0.040097713,-0.078158848,0.329607517,-0.081359029,-0.089303359,0.323240221,-0.020854384,0.124495141,0.346188813,0.121513426,-0.451589227,0.351524413,-0.128155380,-0.451085716,0.326258868,-0.014816344,0.256647438,0.309346497,0.108814597,-0.856363654,0.332329810,-0.112677246,-0.861858666,0.344368070,-0.025030851,0.313514233,0.412462771,0.167969048,-0.930118561,0.435464859,-0.172370821,-0.931723297,0.323830277,-0.036166430,0.480492651,0.341871768,0.022010118,0.398355812,0.337368935,-0.072144061,0.398946702,0.250860453,-0.025317252,0.626597583,0.337046802,0.132284135,0.473227829,0.325200528,-0.169091076,0.462197840,0.268349826,0.389557362,0.499261320,0.273992389,-0.436694682,0.498530090,0.315160692,0.629985332,0.562865674,0.276442766,-0.684152722,0.532410741,0.378581554,0.706499100,0.529751062,0.329115093,-0.769646525,0.504890144
0.350849926,-0.018075138,0.014813285,0.324848801,0.040114164,-0.077950157,0.329599589,-0.081342548,-0.089094661,0.323232323,-0.020837814,0.124703832,0.346428573,0.121414304,-0.451391488,0.351800889,-0.128172949,-0.450855255,0.326156884,-0.014849037,0.256860495,0.309952617,0.108688504,-0.856198311,0.333092988,-0.112758562,-0.861653149,0.344216138,-0.025102496,0.313736111,0.413118422,0.167798966,-0.929919124,0.436260074,-0.172423571,-0.931494772,0.323651910,-0.036317527,0.480705976,0.341706812,0.021898031,0.398599744,0.337203145,-0.072256386,0.399145007,0.250535697,-0.025493026,0.626739442,0.336818576,0.132156998,0.473489702,0.324978948,-0.169254839,0.462306440,0.268131465,0.389433652,0.499516457,0.273733407,-0.436874181,0.498469383,0.314977348,0.629865289,0.563080788,0.276226640,-0.684347749,0.532232285,0.378533989,0.706422925,0.530330360,0.328909218,-0.769812107,0.504639983
0.350849926,-0.018075138,0.014813285,0.324848801,0.040114164,-0.077950157,0.329599589,-0.081342548,-0.089094661,0.323232323,-0.020837814,0.124703832,0.346428573,0.121414304,-0.451391488,0.351800889,-0.128172949,-0.450855255,0.326156884,-0.014849037,0.256860495,0.309952617,0.108688504,-0.856198311,0.333092988,-0.112758562,-0.861653149,0.344216138,-0.025102496,0.313736111,0.413118422,0.167798966,-0.929919124,0.436119974,-0.172516793,-0.931621790,0.323651910,-0.036317527,0.480705976,0.341706812,0.021898031,0.398599744,0.337203145,-0.072256386,0.399145007,0.250535697,-0.025493026,0.626739442,0.336818576,0.132156998,0.473489702,0.324978948,-0.169254839,0.462306440,0.268131465,0.389433652,0.499516457,0.273733407,-0.436874181,0.498469383,0.314977348,0.629865289,0.563080788,0.276226640,-0.684347749,0.532232285,0.378462553,0.706285119,0.529873371,0.328909218,-0.769812107,0.504639983
0.350843430,-0.018067598,0.014977071,0.324842244,0.040121734,-0.077786364,0.329593062,-0.081335008,-0.088930860,0.323225826,-0.020830303,0.124867618,0.346432507,0.121369541,-0.451238483,0.351809472,-0.128216833,-0.450683862,0.326100826,-0.014858931,0.257026136,0.310038775,0.108658910,-0.856053174,0.333289742,-0.112855643,-0.861492217,0.344143242,-0.025119066,0.313905925,0.413161576,0.167787641,-0.929819524,0.436398149,-0.172591746,-0.931359768,0.323567748,-0.036350906,0.480873287,0.341595471,0.021877855,0.398770452,0.337150276,-0.072279334,0.399312973,0.250375718,-0.025608629,0.626874924,0.336644888,0.132186353,0.473583370,0.324971586,-0.169286013,0.462470680,0.268033653,0.389495254,0.499490798,0.273938298,-0.436973572,0.498428077,0.314885646,0.629904389,0.563135982,0.276535332,-0.684470832,0.532009602,0.378376186,0.706322670,0.529935300,0.329247892,-0.769902050,0.504371643
0.350840211,-0.018179774,0.014915736,0.324839026,0.040009528,-0.077847682,0.329589814,-0.081447184,-0.088992193,0.323222607,-0.020942479,0.124806285,0.346441567,0.121221125,-0.451306909,0.351845682,-0.128410846,-0.450732142,0.326134294,-0.014981389,0.256964475,0.310279369,0.108330637,-0.856136501,0.333197892,-0.113234967,-0.861541569,0.344201416,-0.025231451,0.313838243,0.413442671,0.167359650,-0.929926157,0.436348557,-0.172940940,-0.931372464,0.323673636,-0.036420256,0.480814308,0.341671795,0.021788210,0.398690671,0.337237656,-0.072369307,0.399259984,0.250506788,-0.025645345,0.626826108,0.336712182,0.132141739,0.473436534,0.325126559,-0.169371843,0.462436944,0.268103778,0.389462113,0.499237597,0.274237096,-0.437101543,0.498283774,0.314997613,0.629909337,0.562706828,0.276896954,-0.684593439,0.531899869,0.378460199,0.706381023,0.529575467,0.329685867,-0.769993544,0.504312098
0.350840211,-0.018179774,0.014915736,0.324839026,0.040009528,-0.077847682,0.329589814,-0.081447184,-0.088992193,0.323222607,-0.020942479,0.124806285,0.346441567,0.121221125,-0.451306909,0.351845682,-0.128410846,-0.450732142,0.326134294,-0.014981389,0.256964475,0.310279369,0.108330637,-0.856136501,0.333197892,-0.113234967,-0.861541569,0.344201416,-0.025231451,0.313838243,0.413442671,0.167359650,-0.929926157,0.436348557,-0.172940940,-0.931372464,0.323673636,-0.036420256,0.480814308,0.341671795,0.021788210,0.398690671,0.337237656,-0.072369307,0.399259984,0.250506788,-0.025645345,0.626826108,0.336712182,0.132141739,0.473436534,0.325126559,-0.169371843,0.462436944,0.268141091,0.389488995,0.499067456,0.274106503,-0.437071711,0.498320669,0.315108627,0.629992664,0.562268138,0.276646018,-0.684567928,0.531914175,0.378575951,0.706544876,0.529332757,0.329403698,-0.769939780,0.504179478
0.350828558,-0.018367857,0.014959259,0.324827403,0.039821506,-0.077804171,0.329578161,-0.081635237,-0.088948682,0.323210955,-0.021130532,0.124849811,0.346564829,0.120988637,-0.451265305,0.351939797,-0.128693521,-0.450669825,0.326137930,-0.015154362,0.257006973,0.310513198,0.108038545,-0.856103003,0.333302498,-0.113580942,-0.861482143,0.344215423,-0.025408775,0.313876659,0.413693935,0.167004496,-0.929918587,0.436355829,-0.173355907,-0.931397736,0.323762119,-0.036625385,0.480860084,0.341747701,0.021593153,0.398740739,0.337270766,-0.072562456,0.399291247,0.250647455,-0.025784716,0.626893222,0.336867124,0.131922513,0.473527551,0.325113505,-0.169547766,0.462485909,0.268188536,0.389241874,0.499150813,0.273890316,-0.437211692,0.498349160,0.315395147,0.629797935,0.561973572,0.276334167,-0.684716582,0.531886339,0.378870726,0.706368804,0.529097319,0.329096794,-0.770041227,0.504016042
0.350828558,-0.018367857,0.014959259,0.324827403,0.039821506,-0.077804171,0.329578161,-0.081635237,-0.088948682,0.323210955,-0.021130532,0.124849811,0.346564829,0.120988637,-0.451265305,0.351939797,-0.128693521,-0.450669825,0.326137930,-0.015154362,0.257006973,0.310513198,0.108038545,-0.856103003,0.333302498,-0.113580942,-0.861482143,0.344215423,-0.025408775,0.313876659,0.413693935,0.167004496,-0.929918587,0.436355829,-0.173355907,-0.931397736,0.323762119,-0.036625385,0.480860084,0.341747701,0.021593153,0.398740739,0.337270766,-0.072562456,0.399291247,0.250647455,-0.025784716,0.626893222,0.336867124,0.131922513,0.473527551,0.325113505,-0.169547766,0.462485909,0.268188536,0.389241874,0.499150813,0.273994774,-0.437270463,0.498058140,0.315395147,0.629797935,0.561973572,0.276534617,-0.684803724,0.531377316,0.378942490,0.706392050,0.529291153,0.329370737,-0.770075798,0.503484964
0.350823015,-0.018495470,0.014931150,0.324821889,0.039693832,-0.077832267,0.329572678,-0.081762850,-0.088976771,0.323205501,-0.021258146,0.124821693,0.346618116,0.120965451,-0.451267183,0.351849407,-0.128654897,-0.450724751,0.326131761,-0.015284151,0.256978959,0.310664833,0.108234674,-0.856120408,0.333347976,-0.113389641,-0.861537576,0.344210684,-0.025543243,0.313847333,0.413884282,0.167221069,-0.929865301,0.436465114,-0.173159122,-0.931363702,0.323691368,-0.036781430,0.480821133,0.341718256,0.021446377,0.398717493,0.337225378,-0.072708547,0.399252176,0.250502825,-0.026008978,0.626822174,0.336893737,0.131782264,0.473498195,0.325055301,-0.169682860,0.462461174,0.268101037,0.389086306,0.498968899,0.273827344,-0.437404692,0.497881442,0.315324545,0.629708529,0.561524451,0.276321352,-0.684951186,0.531105936,0.378832966,0.706325531,0.528819442,0.329104304,-0.770244300,0.503177345
0.350823015,-0.018495470,0.014931150,0.324821889,0.039693832,-0.077832267,0.329572678,-0.081762850,-0.088976771,0.323205501,-0.021258146,0.124821693,0.346618116,0.120965451,-0.451267183,0.351849407,-0.128654897,-0.450724751,0.326131761,-0.015284151,0.256978959,0.310664833,0.108234674,-0.856120408,0.333347976,-0.113389641,-0.861537576,0.344210684,-0.025543243,0.313847333,0.413884282,0.167221069,-0.929865301,0.436465114,-0.173159122,-0.931363702,0.323691368,-0.036781430,0.480821133,0.341718256,0.021446377,0.398717493,0.337225378,-0.072708547,0.399252176,0.250502825,-0.026008978,0.626822174,0.336893737,0.131782264,0.473498195,0.325055301,-0.169682860,0.462461174,0.268101037,0.389086306,0.498968899,0.273827344,-0.437404692,0.497881442,0.315324545,0.629708529,0.561524451,0.276321352,-0.684951186,0.531105936,0.378877312,0.706344724,0.528951049,0.328975618,-0.770322442,0.503173709
0.350816905,-0.018597364,0.014949029,0.324815780,0.039591968,-0.077814400,0.329566568,-0.081864804,-0.088958904,0.323199332,-0.021360070,0.124839574,0.346521914,0.120827824,-0.451262355,0.351850092,-0.128763497,-0.450705618,0.326128811,-0.015391290,0.256997019,0.310718924,0.107988656,-0.856125593,0.333400548,-0.113572434,-0.861523509,0.344225258,-0.025652885,0.313859373,0.414013028,0.166900665,-0.929825604,0.436489850,-0.173420042,-0.931323886,0.323743403,-0.036897361,0.480837375,0.341770023,0.021330863,0.398733884,0.337244809,-0.072822601,0.399262160,0.250618339,-0.026095480,0.626868069,0.336965442,0.131662220,0.473522544,0.325037301,-0.169824779,0.462421119,0.268198311,0.388982356,0.498898894,0.273616433,-0.437537879,0.497628063,0.315777689,0.629565120,0.561336577,0.276053309,-0.685106516,0.530691862,0.379001647,0.705924034,0.527496219,0.328738034,-0.770416141,0.502629161
0.350811929,-0.018627435,0.015029142,0.324810743,0.039561898,-0.077734284,0.329561561,-0.081894845,-0.088878788,0.323194325,-0.021390140,0.124919690,0.346629679,0.120824307,-0.451169908,0.351929665,-0.128776401,-0.450622499,0.326121777,-0.015427321,0.257077456,0.310873568,0.108007818,-0.856038034,0.333567590,-0.113550946,-0.861442983,0.344221115,-0.025669664,0.313942373,0.414244920,0.166826963,-0.929704010,0.436643004,-0.173423916,-0.931242108,0.323719144,-0.036850005,0.480922163,0.341757178,0.021346450,0.398798674,0.337229162,-0.072806686,0.399362296,0.250563115,-0.025974661,0.626931965,0.336898685,0.131722450,0.473518044,0.325037032,-0.169793054,0.462548524,0.268169940,0.389077395,0.498644412,0.273638576,-0.437509060,0.497766227,0.316094369,0.629636765,0.560908318,0.276173890,-0.685073018,0.530857682,0.379062325,0.705909014,0.526401579,0.328895390,-0.770355165,0.502780080
0.350811929,-0.018627435,0.015029142,0.324810743,0.039561898,-0.077734284,0.329561561,-0.081894845,-0.088878788,0.323194325,-0.021390140,0.124919690,0.346629679,0.120824307,-0.451169908,0.351929665,-0.128776401,-0.450622499,0.326121777,-0.015427321,0.257077456,0.310873568,0.108007818,-0.856038034,0.333567590,-0.113550946,-0.861442983,0.344221115,-0.025669664,0.313942373,0.414164841,0.166960627,-0.929709375,0.436714888,-0.173526436,-0.931047559,0.323719144,-0.036850005,0.480922163,0.341757178,0.021346450,0.398798674,0.337229162,-0.072806686,0.399362296,0.250563115,-0.025974661,0.626931965,0.336924106,0.131791145,0.473418146,0.325037032,-0.169793054,0.462548524,0.268131375,0.389147013,0.498359203,0.273380160,-0.437490046,0.497532308,0.316028088,0.629780650,0.560357094,0.275676668,-0.685086727,0.530395806,0.378554434,0.706558824,0.526171327,0.328256071,-0.770469666,0.502358377
0.350809455,-0.018717974,0.014973791,0.324808240,0.039471358,-0.077789620,0.329559088,-0.081985354,-0.088934138,0.323191851,-0.021480680,0.124864332,0.346658289,0.120722115,-0.451225966,0.351908594,-0.128818721,-0.450685173,0.326119930,-0.015507460,0.257021606,0.310842663,0.107926369,-0.856089532,0.333423913,-0.113508523,-0.861496985,0.344197601,-0.025753349,0.313892782,0.414138496,0.166807264,-0.929812014,0.436530471,-0.173476607,-0.931168258,0.323636800,-0.036987662,0.480861753,0.341704488,0.021235198,0.398763508,0.337174952,-0.072917998,0.399294883,0.250454873,-0.026145920,0.626861036,0.336859703,0.131627828,0.473459095,0.325027883,-0.169926375,0.462456077,0.268100649,0.389001757,0.498306721,0.273361295,-0.437649429,0.497224361,0.315896094,0.629691482,0.560164332,0.275641859,-0.685267091,0.529929698,0.378657848,0.706298351,0.526025653,0.328138828,-0.770671248,0.501802504
0.350801319,-0.018897891,0.014939092,0.324800134,0.039291441,-0.077824339,0.329550952,-0.082165271,-0.088968843,0.323183686,-0.021660596,0.124829642,0.346724153,0.120495617,-0.451266497,0.351812869,-0.129090220,-0.450713456,0.326075763,-0.015680343,0.256987393,0.310922921,0.107659519,-0.856130004,0.333321929,-0.113893330,-0.861529171,0.344171256,-0.025929570,0.313852310,0.414283365,0.166438192,-0.929843426,0.436379910,-0.173854172,-0.931278586,0.323705614,-0.037095517,0.480837554,0.341722786,0.021094292,0.398704797,0.337200284,-0.073058963,0.399278134,0.250601292,-0.026145220,0.626867652,0.336921513,0.131461054,0.473441541,0.324990749,-0.170021519,0.462497622,0.268126845,0.388843119,0.498105645,0.273018420,-0.437671989,0.497369856,0.315699816,0.629628718,0.559761643,0.274996936,-0.685290217,0.530090094,0.378963739,0.705746651,0.525456429,0.327295363,-0.770811260,0.501947582
0.350801319,-0.018897891,0.014939092,0.324800134,0.039291441,-0.077824339,0.329550952,-0.082165271,-0.088968843,0.323183686,-0.021660596,0.124829642,0.346724153,0.120495617,-0.451266497,0.351812869,-0.129090220,-0.450713456,0.326075763,-0.015680343,0.256987393,0.310922921,0.107659519,-0.856130004,0.333321929,-0.113893330,-0.861529171,0.344171256,-0.025929570,0.313852310,0.414283365,0.166438192,-0.929843426,0.436379910,-0.173854172,-0.931278586,0.323705614,-0.037095517,0.480837554,0.341722786,0.021094292,0.398704797,0.337200284,-0.073058963,0.399278134,0.250601292,-0.026145220,0.626867652,0.336921513,0.131461054,0.473441541,0.324990749,-0.170021519,0.462497622,0.268146515,0.388862193,0.497961551,0.273350060,-0.437782049,0.497015268,0.315664023,0.629638433,0.559696555,0.275635302,-0.685438037,0.529429197,0.378733307,0.705566883,0.524621665,0.328056574,-0.770856142,0.501203179
0.350805193,-0.019001424,0.014714106,0.324804038,0.039187878,-0.078049324,0.329554856,-0.082268834,-0.089193828,0.323187560,-0.021764159,0.124604642,0.346594393,0.120372981,-0.451503456,0.351580352,-0.129342318,-0.450933605,0.326118529,-0.015792340,0.256761938,0.310662031,0.107508421,-0.856354415,0.332524002,-0.114176929,-0.861724734,0.344257236,-0.026013047,0.313618183,0.414048314,0.166244507,-0.930065572,0.435526311,-0.174198776,-0.931503713,0.323742002,-0.037132978,0.480600446,0.341787040,0.021033645,0.398457378,0.337258190,-0.073119193,0.399054557,0.250602037,-0.026261359,0.626618505,0.337021112,0.131392717,0.473207623,0.324967444,-0.170079544,0.462261677,0.268496037,0.388880640,0.497515112,0.273313552,-0.437888086,0.496385127,0.315883011,0.629641831,0.559408903,0.275548160,-0.685585976,0.528481126,0.378878474,0.705440402,0.523922980,0.327961147,-0.770999670,0.500226498
0.350805193,-0.019001424,0.014714106,0.324804038,0.039187878,-0.078049324,0.329554856,-0.082268834,-0.089193828,0.323187560,-0.021764159,0.124604642,0.346167535,0.120204002,-0.451564819,0.351580352,-0.129342318,-0.450933605,0.326118529,-0.015792340,0.256761938,0.309753299,0.107167602,-0.856367290,0.332524002,-0.114176929,-0.861724734,0.344265968,-0.025934547,0.313629478,0.413063407,0.165851414,-0.930226803,0.435722023,-0.174253970,-0.931166291,0.323776782,-0.036822259,0.480630219,0.341810167,0.021229923,0.398403645,0.337279290,-0.072921902,0.399132252,0.250660062,-0.025746390,0.626644611,0.337058306,0.131692737,0.473001450,0.324996412,-0.169794157,0.462475777,0.268542647,0.389215589,0.496962339,0.273342252,-0.437553972,0.496978968,0.315944582,0.630061388,0.558514535,0.275576532,-0.685207069,0.529418409,0.378882855,0.705821753,0.522845626,0.327983141,-0.770661116,0.501274168
0.350808471,-0.018984348,0.014658294,0.324807286,0.039204985,-0.078105137,0.329558104,-0.082251757,-0.089249641,0.323190898,-0.021747023,0.124548845,0.346300274,0.120305210,-0.451594979,0.351563126,-0.129319191,-0.450991482,0.326090783,-0.015754819,0.256705880,0.310013324,0.107346177,-0.856411338,0.332379967,-0.114106625,-0.861774921,0.344231725,-0.025901705,0.313574672,0.413352370,0.166046202,-0.930217505,0.435477078,-0.174189776,-0.931361139,0.323729843,-0.036818832,0.480571896,0.341757655,0.021249622,0.398355633,0.337247819,-0.072903365,0.399069786,0.250540227,-0.025788978,0.626553297,0.336959273,0.131726325,0.472930014,0.324966460,-0.169810280,0.462360561,0.268388480,0.389255613,0.496663421,0.273404479,-0.437640607,0.496452987,0.315683097,0.630166411,0.558043897,0.275535047,-0.685335636,0.528577983,0.378451198,0.705883861,0.521986306,0.327959955,-0.770745635,0.500334322
0.350805193,-0.018910557,0.014830473,0.324804038,0.039278775,-0.077932961,0.329554856,-0.082177937,-0.089077465,0.323187590,-0.021673262,0.124721013,0.346605062,0.120541692,-0.451369494,0.351729989,-0.129113168,-0.450826079,0.326001674,-0.015650779,0.256878525,0.310425907,0.107689202,-0.856198847,0.332821727,-0.113844723,-0.861620247,0.344079345,-0.025851041,0.313757867,0.413782418,0.166397303,-0.929974198,0.435816228,-0.173818618,-0.931451976,0.323482901,-0.036897570,0.480734974,0.341549814,0.021235675,0.398573101,0.337052822,-0.072918415,0.399213374,0.250086367,-0.025816500,0.626608551,0.336632848,0.131702781,0.473153889,0.324786901,-0.169862866,0.462449700,0.267840803,0.389193118,0.496669352,0.273507416,-0.437786579,0.496232510,0.315241635,0.630145848,0.557802558,0.275875032,-0.685500026,0.528197229,0.377778828,0.705758095,0.521128178,0.328441024,-0.770812988,0.499922246
0.350805193,-0.018910557,0.014830473,0.324804038,0.039278775,-0.077932961,0.329554856,-0.082177937,-0.089077465,0.323187590,-0.021673262,0.124721013,0.346605062,0.120541692,-0.451369494,0.351729989,-0.129113168,-0.450826079,0.326001674,-0.015650779,0.256878525,0.310425907,0.107689202,-0.856198847,0.332821727,-0.113844723,-0.861620247,0.344079345,-0.025851041,0.313757867,0.413782418,0.166397303,-0.929974198,0.435816228,-0.173818618,-0.931451976,0.323482901,-0.036897570,0.480734974,0.341549814,0.021235675,0.398573101,0.337052822,-0.072918415,0.399213374,0.250086367,-0.025816500,0.626608551,0.336632848,0.131702781,0.473153889,0.324786901,-0.169862866,0.462449700,0.267840803,0.389193118,0.496669352,0.273201108,-0.437746793,0.496080935,0.315113455,0.630128026,0.557971776,0.275285780,-0.685483813,0.527883410,0.377938986,0.705837131,0.521997094,0.327728212,-0.770798326,0.499384314
0.350801706,-0.019028664,0.014763200,0.324800491,0.039160669,-0.078000233,0.329551369,-0.082296073,-0.089144737,0.323184103,-0.021791399,0.124653749,0.346509159,0.120498449,-0.451425880,0.351625353,-0.129184335,-0.450905591,0.325955093,-0.015774131,0.256812423,0.310204357,0.107694596,-0.856245518,0.332594782,-0.113852054,-0.861691713,0.343982339,-0.025983036,0.313706219,0.413533509,0.166445076,-0.930025458,0.435625136,-0.173820198,-0.931475520,0.323325992,-0.037034005,0.480675668,0.341402948,0.021104366,0.398519605,0.336940557,-0.073051393,0.399159908,0.249885693,-0.025927886,0.626525283,0.336375535,0.131609112,0.473037183,0.324702799,-0.169994369,0.462403923,0.267446637,0.389094770,0.496199876,0.273291677,-0.437925905,0.495923221,0.314547062,0.630122602,0.557269514,0.275475383,-0.685669780,0.527665913,0.377581537,0.705885470,0.521776736,0.327961206,-0.770938516,0.499109834
0.350801706,-0.019028664,0.014763200,0.324800491,0.039160669,-0.078000233,0.329551369,-0.082296073,-0.089144737,0.323184103,-0.021791399,0.124653749,0.346509159,0.120498449,-0.451425880,0.351625353,-0.129184335,-0.450905591,0.325955093,-0.015774131,0.256812423,0.310204357,0.107694596,-0.856245518,0.332594782,-0.113852054,-0.861691713,0.343982339,-0.025983036,0.313706219,0.413533509,0.166445076,-0.930025458,0.435691833,-0.173941016,-0.931272805,0.323325992,-0.037034005,0.480675668,0.341402948,0.021104366,0.398519605,0.336940557,-0.073051393,0.399159908,0.249885693,-0.025927886,0.626525283,0.336375535,0.131609112,0.473037183,0.324702799,-0.169994369,0.462403923,0.267446637,0.389094770,0.496199876,0.273291677,-0.437925905,0.495923221,0.314635575,0.630091548,0.557323635,0.275475383,-0.685669780,0.527665913,0.377886891,0.705873132,0.522258997,0.327961206,-0.770938516,0.499109834
0.350796312,-0.019217432,0.014644976,0.324795157,0.038971871,-0.078118451,0.329545945,-0.082484871,-0.089262962,0.323178738,-0.021980137,0.124535523,0.346408725,0.120249778,-0.451562643,0.351433367,-0.129289687,-0.451045960,0.325975388,-0.015996665,0.256695181,0.309953451,0.107531577,-0.856371462,0.332234263,-0.113820761,-0.861819088,0.344013155,-0.026228338,0.313581556,0.413292170,0.166249216,-0.930163980,0.435226917,-0.173877656,-0.931582332,0.323382109,-0.037283838,0.480553806,0.341478527,0.020851970,0.398400187,0.336959243,-0.073301136,0.399031788,0.249898195,-0.026066676,0.626372993,0.336499870,0.131399930,0.472856849,0.324627221,-0.170267239,0.462221980,0.267675400,0.388938010,0.495745778,0.273039162,-0.438172936,0.495675176,0.314960897,0.629947543,0.556743979,0.275159955,-0.685930729,0.527313888,0.378361911,0.705633759,0.521743536,0.327648580,-0.771263242,0.498954982
0.350806266,-0.019004673,0.014683759,0.324805140,0.039184660,-0.078079678,0.329555959,-0.082272053,-0.089224175,0.323188692,-0.021767348,0.124574304,0.346343637,0.120387375,-0.451544613,0.351458490,-0.129234329,-0.450985849,0.325963020,-0.015796363,0.256734997,0.309807718,0.107543588,-0.856342256,0.332302213,-0.113951892,-0.861767948,0.344010532,-0.026041716,0.313615829,0.413143456,0.166172981,-0.930209160,0.435226679,-0.173844248,-0.931772768,0.323394507,-0.037074924,0.480591416,0.341496199,0.021048009,0.398429871,0.336954325,-0.073103935,0.399071693,0.249861076,-0.025636762,0.626368463,0.336512536,0.131624043,0.472844571,0.324628562,-0.170073316,0.462258071,0.267640650,0.389164984,0.495556891,0.272933185,-0.437972724,0.495596021,0.314825177,0.630189061,0.556576073,0.275354087,-0.685724497,0.527259409,0.378308475,0.705798030,0.521557748,0.328007996,-0.771065056,0.499232739
0.350806266,-0.019004673,0.014683759,0.324805140,0.039184660,-0.078079678,0.329555959,-0.082272053,-0.089224175,0.323188692,-0.021767348,0.124574304,0.346343637,0.120387375,-0.451544613,0.351458490,-0.129234329,-0.450985849,0.325963020,-0.015796363,0.256734997,0.309807718,0.107543588,-0.856342256,0.332302213,-0.113951892,-0.861767948,0.344010532,-0.026041716,0.313615829,0.413108230,0.166289479,-0.930165708,0.435288012,-0.173979968,-0.931566000,0.323394507,-0.037074924,0.480591416,0.341496199,0.021048009,0.398429871,0.336954325,-0.073103935,0.399071693,0.249741793,-0.025813594,0.626321971,0.336517155,0.131669372,0.472777456,0.324628562,-0.170073316,0.462258071,0.267470211,0.389164925,0.495474279,0.272933185,-0.437972724,0.495596021,0.314857483,0.630329370,0.555777669,0.275354087,-0.685724497,0.527259409,0.378287345,0.706212997,0.521260858,0.328005433,-0.771134794,0.499441236
0.350804299,-0.019049436,0.014673511,0.324803084,0.039139897,-0.078089900,0.329553872,-0.082316816,-0.089234412,0.323186696,-0.021812111,0.124564067,0.346291780,0.120329857,-0.451560467,0.351409733,-0.129241586,-0.451003760,0.325947970,-0.015817642,0.256723970,0.309803814,0.107491702,-0.856362581,0.332247853,-0.113972276,-0.861786067,0.343989313,-0.026047498,0.313609540,0.413145602,0.166165292,-0.930185735,0.435289651,-0.174007773,-0.931494951,0.323372573,-0.037089139,0.480584472,0.341440171,0.021043122,0.398422033,0.336959749,-0.073111743,0.399066478,0.249569982,-0.026009023,0.626253068,0.336382061,0.131714255,0.472690165,0.324702144,-0.170093268,0.462247431,0.267084301,0.389152288,0.495273799,0.273112625,-0.438049048,0.495294929,0.314548314,0.630407214,0.555152774,0.275951028,-0.685801685,0.526916623,0.377915084,0.706480026,0.520937622,0.328892231,-0.771139324,0.499426842
0.350804299,-0.019049436,0.014673511,0.324803084,0.039139897,-0.078089900,0.329553872,-0.082316816,-0.089234412,0.323186696,-0.021812111,0.124564067,0.346291780,0.120329857,-0.451560467,0.351409733,-0.129241586,-0.451003760,0.325947970,-0.015817642,0.256723970,0.309803814,0.107491702,-0.856362581,0.332247853,-0.113972276,-0.861786067,0.343989313,-0.026047498,0.313609540,0.413145602,0.166165292,-0.930185735,0.435288072,-0.173837274,-0.931643903,0.323372573,-0.037089139,0.480584472,0.341440171,0.021043122,0.398422033,0.336959749,-0.073111743,0.399066478,0.249569982,-0.026009023,0.626253068,0.336362958,0.131775975,0.472596765,0.324688047,-0.170166925,0.462131500,0.267169058,0.389266014,0.494904250,0.272786498,-0.438126087,0.494659364,0.314944535,0.630415082,0.554961741,0.276107490,-0.685888767,0.526155472,0.378363132,0.706398666,0.520644069,0.329490542,-0.771061897,0.499012560
0.350797087,-0.019101202,0.014777694,0.324795961,0.039088130,-0.077985749,0.329546750,-0.082368582,-0.089130253,0.323179424,-0.021863878,0.124668233,0.346412152,0.120250762,-0.451454908,0.351453602,-0.129351765,-0.450889021,0.325872600,-0.015852094,0.256828755,0.310092658,0.107408434,-0.856272042,0.332495928,-0.114149630,-0.861683249,0.343887329,-0.026059777,0.313726753,0.413469732,0.166049719,-0.930071533,0.435475558,-0.174105376,-0.931552589,0.323301226,-0.037022263,0.480710715,0.341362894,0.021069676,0.398518443,0.336866260,-0.073084146,0.399206400,0.249342829,-0.025927380,0.626299202,0.336266160,0.131991804,0.472408563,0.324542224,-0.170226842,0.462126285,0.267024547,0.389527440,0.494031072,0.272451162,-0.438239545,0.493901551,0.315357149,0.630725265,0.553444266,0.276478827,-0.686004877,0.525294542,0.379002571,0.706754327,0.519651949,0.330325246,-0.771142542,0.498967618
0.350797087,-0.019101202,0.014777694,0.324795961,0.039088130,-0.077985749,0.329546750,-0.082368582,-0.089130253,0.323179424,-0.021863878,0.124668233,0.346412152,0.120250762,-0.451454908,0.351453602,-0.129351765,-0.450889021,0.325872600,-0.015852094,0.256828755,0.310092658,0.107408434,-0.856272042,0.332495928,-0.114149630,-0.861683249,0.343887329,-0.026059777,0.313726753,0.413469732,0.166049719,-0.930071533,0.435475558,-0.174105376,-0.931552589,0.323301226,-0.037022263,0.480710715,0.341362894,0.021069676,0.398518443,0.336866260,-0.073084146,0.399206400,0.249342829,-0.025927380,0.626299202,0.336195737,0.132192433,0.472101599,0.324477851,-0.170367002,0.461896658,0.266756952,0.389735639,0.492989421,0.272321463,-0.438491315,0.492605299,0.315689027,0.631027997,0.551521361,0.277220607,-0.686272681,0.523745954,0.379644752,0.707196295,0.518640280,0.331562936,-0.771402657,0.498432755
0.350789666,-0.019089907,0.014967743,0.324788421,0.039099395,-0.077795684,0.329539269,-0.082357317,-0.088940203,0.323172063,-0.021852583,0.124858305,0.346698105,0.120283425,-0.451243103,0.351668090,-0.129320890,-0.450688004,0.325841844,-0.015845180,0.257019520,0.310622185,0.107568413,-0.856086075,0.333110660,-0.114109159,-0.861500204,0.343857229,-0.026080310,0.313912362,0.414044857,0.166121185,-0.929891944,0.436152309,-0.174140960,-0.931212604,0.323334545,-0.037054658,0.480903327,0.341372639,0.021041930,0.398709208,0.336862683,-0.073111266,0.399390519,0.249137521,-0.026009098,0.626374066,0.336182445,0.132429689,0.471888989,0.324448705,-0.170623079,0.461719096,0.266776979,0.390095174,0.491330773,0.271521747,-0.438789994,0.490687788,0.316119403,0.631356835,0.549644589,0.278062880,-0.686631560,0.521038651,0.380770683,0.707051039,0.517030001,0.333169103,-0.771416426,0.496222973
0.350785196,-0.019054025,0.015117154,0.324784011,0.039135277,-0.077646278,0.329534829,-0.082321405,-0.088790774,0.323167622,-0.021816730,0.125007704,0.346950293,0.120295525,-0.451083690,0.351816297,-0.129402667,-0.450513870,0.325795352,-0.015737206,0.257166445,0.311094880,0.107656002,-0.855948627,0.333523810,-0.114256218,-0.861340404,0.343832552,-0.025969356,0.314052880,0.414633870,0.166044325,-0.929721653,0.436653584,-0.174243659,-0.930960655,0.323329210,-0.036800563,0.481055588,0.341389358,0.021220803,0.398813158,0.336823046,-0.072929114,0.399568945,0.248974875,-0.025589272,0.626433253,0.336189926,0.132929087,0.471502066,0.324343681,-0.170624182,0.461596727,0.266755104,0.390714288,0.489169329,0.270540714,-0.438803434,0.488782227,0.316886872,0.632013202,0.546649218,0.278800189,-0.686684370,0.518382788,0.382319570,0.707219779,0.514467418,0.334787369,-0.771078885,0.494217098
0.350785196,-0.019054025,0.015117154,0.324784011,0.039135277,-0.077646278,0.329534829,-0.082321405,-0.088790774,0.323167622,-0.021816730,0.125007704,0.346950293,0.120295525,-0.451083690,0.351816297,-0.129402667,-0.450513870,0.325795352,-0.015737206,0.257166445,0.311144441,0.107619643,-0.855951846,0.333683610,-0.114250407,-0.861347258,0.343903095,-0.025987864,0.314027190,0.414610505,0.166149944,-0.929714918,0.436876178,-0.174045801,-0.931039631,0.323599011,-0.036902994,0.481048763,0.341539890,0.021162897,0.398811638,0.337012231,-0.072989166,0.399530083,0.249184564,-0.025760666,0.626401007,0.336250901,0.133077174,0.471176386,0.324665755,-0.170986116,0.461106628,0.266186059,0.390794039,0.487286508,0.270326912,-0.439307332,0.485701978,0.317492813,0.632181168,0.543341219,0.280970573,-0.687261939,0.513890982,0.383685172,0.707096934,0.512047052,0.338190317,-0.771003842,0.490350753
0.350789726,-0.018909544,0.015193729,0.324788600,0.039279848,-0.077569701,0.329539388,-0.082176894,-0.088714220,0.323172122,-0.021672219,0.125084266,0.347102940,0.120421350,-0.451002359,0.351998150,-0.129335701,-0.450416267,0.325754970,-0.015637636,0.257245958,0.311387450,0.107822835,-0.855880916,0.333953381,-0.114164963,-0.861252844,0.343871295,-0.025943130,0.314094037,0.414979219,0.166201115,-0.929587841,0.437161982,-0.173880666,-0.930989802,0.323568374,-0.036786169,0.481120437,0.341549337,0.021238118,0.398862690,0.336949140,-0.072910249,0.399613202,0.249110982,-0.025246426,0.626419663,0.336233258,0.133492202,0.470697254,0.324647337,-0.171148330,0.460813224,0.265861720,0.391270041,0.484299272,0.269459844,-0.439556479,0.482385427,0.318410873,0.632802188,0.538549840,0.282504320,-0.687558293,0.509111285,0.385326415,0.707070351,0.507249773,0.341043413,-0.770549893,0.486165047
0.350789726,-0.018909544,0.015193729,0.324788600,0.039279848,-0.077569701,0.329539388,-0.082176894,-0.088714220,0.323172122,-0.021672219,0.125084266,0.347277313,0.120426536,-0.450990796,0.351998150,-0.129335701,-0.450416267,0.325759351,-0.015786111,0.257252574,0.311678350,0.107964158,-0.855883777,0.333667099,-0.114030540,-0.861235201,0.343865186,-0.026171774,0.314089417,0.415361971,0.166211903,-0.929564893,0.436843812,-0.173647642,-0.931103468,0.323559761,-0.036940962,0.481120318,0.341623902,0.021034420,0.398846358,0.336877316,-0.073106438,0.399621040,0.249156311,-0.024825752,0.626400352,0.336378992,0.133659512,0.470103085,0.324592531,-0.171581924,0.460441828,0.265930235,0.391549677,0.480885118,0.268376142,-0.440024495,0.478670537,0.319841832,0.633202195,0.533229470,0.283794880,-0.688055634,0.503814697,0.387461126,0.706637859,0.501481056,0.343652308,-0.770247281,0.481396794
0.350788891,-0.018806666,0.015339378,0.324787706,0.039382666,-0.077424042,0.329538524,-0.082074046,-0.088568553,0.323171288,-0.021569401,0.125229925,0.347276330,0.120529264,-0.450845122,0.352205843,-0.129217446,-0.450259566,0.325758547,-0.015683264,0.257398218,0.311597228,0.108161092,-0.855733991,0.334025592,-0.113677070,-0.861076415,0.343945384,-0.026113361,0.314201057,0.415310651,0.166297078,-0.929461241,0.437349975,-0.173338026,-0.930688679,0.323802739,-0.036990911,0.481244624,0.341730595,0.021046430,0.398984522,0.337084949,-0.073099822,0.399714530,0.249295741,-0.024922818,0.626475453,0.336427867,0.133983076,0.469742119,0.324908674,-0.171997041,0.459869206,0.265167296,0.391762912,0.477363199,0.267651379,-0.440471321,0.473908246,0.320754826,0.633580625,0.527128339,0.286174297,-0.688515544,0.496719688,0.388935506,0.706062794,0.494404703,0.347288191,-0.769760907,0.474242121
0.350793809,-0.018650740,0.015418236,0.324792624,0.039538622,-0.077345185,0.329543412,-0.081918120,-0.088489704,0.323176235,-0.021413445,0.125308782,0.347443104,0.120801955,-0.450731069,0.352306247,-0.129094869,-0.450170368,0.325747520,-0.015513390,0.257476747,0.311811864,0.108625799,-0.855629981,0.334106147,-0.113460883,-0.860982656,0.344000489,-0.025967330,0.314254016,0.415628195,0.166583806,-0.929352641,0.437462151,-0.173125774,-0.930544674,0.323935002,-0.036772132,0.481311560,0.341795444,0.021233827,0.399014682,0.337202668,-0.072914600,0.399793983,0.249250799,-0.024619490,0.626444340,0.336455524,0.134542018,0.469172955,0.325042546,-0.172163963,0.459369272,0.264447868,0.392195970,0.473163128,0.266744524,-0.440601885,0.469186246,0.321916610,0.634156704,0.520010412,0.288199425,-0.688609242,0.489714622,0.390894532,0.705442786,0.486343592,0.350452363,-0.768934131,0.467055619
0.350793809,-0.018650740,0.015418236,0.324792624,0.039538622,-0.077345185,0.329543412,-0.081918120,-0.088489704,0.323176235,-0.021413445,0.125308782,0.347443104,0.120801955,-0.450731069,0.352604508,-0.129287958,-0.450126231,0.325747520,-0.015513390,0.257476747,0.311846346,0.108480960,-0.855628610,0.334504604,-0.113930821,-0.860953450,0.344083905,-0.026003629,0.314220399,0.415708065,0.166313320,-0.929386020,0.437761724,-0.173496604,-0.930746853,0.324260741,-0.036926717,0.481299192,0.341993749,0.021138757,0.399016678,0.337416530,-0.073010921,0.399737716,0.249532297,-0.024940103,0.626422942,0.336728543,0.134710133,0.468753755,0.325265169,-0.172678024,0.458613157,0.263950229,0.392178059,0.469149143,0.266105205,-0.441064328,0.463393450,0.323653847,0.634145617,0.513075352,0.290351629,-0.689049006,0.480860651,0.393786967,0.703913152,0.478623360,0.353535950,-0.768400192,0.457364351
0.350793302,-0.018587321,0.015504891,0.324792176,0.039602041,-0.077258527,0.329542965,-0.081854701,-0.088403046,0.323175699,-0.021350026,0.125395432,0.347688109,0.120845616,-0.450633764,0.352610588,-0.129287988,-0.450030804,0.325734526,-0.015431017,0.257562786,0.312043428,0.108497977,-0.855526268,0.334536105,-0.113951892,-0.860859871,0.344133675,-0.025943220,0.314282060,0.416039050,0.166138351,-0.929245293,0.437862009,-0.173495352,-0.930570424,0.324339956,-0.036744177,0.481372267,0.342032731,0.021264970,0.399041444,0.337501585,-0.072886288,0.399837375,0.249652356,-0.024392948,0.626486540,0.336872280,0.135303468,0.468019933,0.325316608,-0.172829241,0.458236426,0.263331741,0.392521858,0.463894933,0.265282750,-0.441063881,0.457911670,0.325210959,0.634562135,0.504265606,0.292571545,-0.688947320,0.471999466,0.396310598,0.702934444,0.469006985,0.356735408,-0.767282367,0.447759271
0.350793302,-0.018587321,0.015504891,0.324792176,0.039602041,-0.077258527,0.329542965,-0.081854701,-0.088403046,0.323175699,-0.021350026,0.125395432,0.347688109,0.120845616,-0.450633764,0.352610588,-0.129287988,-0.450030804,0.325734526,-0.015431017,0.257562786,0.311744422,0.108448297,-0.855498314,0.334740162,-0.113810152,-0.860863566,0.344190657,-0.025974780,0.314257681,0.415767014,0.166057080,-0.929203928,0.438203275,-0.173451692,-0.930286109,0.324418247,-0.036681801,0.481356472,0.342084408,0.021283448,0.398989022,0.337582111,-0.072868705,0.399841785,0.249906898,-0.023809135,0.626515985,0.337126285,0.135823518,0.467146486,0.325342745,-0.173066556,0.457790852,0.262919366,0.392732322,0.458326668,0.264336407,-0.441021800,0.452117592,0.327053338,0.634771109,0.495020062,0.294712007,-0.688731909,0.462433815,0.399025768,0.701810658,0.458981425,0.359835565,-0.766020179,0.437406152
0.350786895,-0.018745601,0.015459783,0.324785739,0.039443731,-0.077303648,0.329536527,-0.082013011,-0.088448152,0.323169291,-0.021508306,0.125350341,0.348037809,0.120663404,-0.450662106,0.352575690,-0.129520446,-0.450068027,0.325722307,-0.015710890,0.257523209,0.311988503,0.108505905,-0.855524480,0.334374845,-0.113983661,-0.860884070,0.344250679,-0.026310265,0.314184189,0.416116565,0.165841013,-0.929294527,0.437679857,-0.173601925,-0.930561543,0.324679106,-0.037068814,0.481303304,0.342248619,0.020921558,0.398932785,0.337743163,-0.073230714,0.399761498,0.249859452,-0.024470583,0.626328230,0.337538719,0.135990500,0.466211349,0.325380087,-0.173813149,0.457013816,0.262807965,0.392511964,0.452117741,0.262867808,-0.441202253,0.444794893,0.329060137,0.634551883,0.484824717,0.296792567,-0.688596725,0.450667262,0.401981652,0.700365067,0.448435515,0.363178730,-0.764556050,0.424899340
0.350784063,-0.018879861,0.015360104,0.324782908,0.039309472,-0.077403307,0.329533637,-0.082147241,-0.088547833,0.323166460,-0.021642566,0.125250652,0.348023057,0.120302945,-0.450811595,0.352549881,-0.129968494,-0.450127810,0.325693369,-0.015933335,0.257427841,0.311646700,0.108088851,-0.855643034,0.334076643,-0.114627868,-0.860938966,0.344288439,-0.026579708,0.314058095,0.415828139,0.165168107,-0.929536045,0.437290192,-0.174267858,-0.930733383,0.324864000,-0.037289292,0.481197506,0.342382848,0.020673633,0.398796916,0.337839097,-0.073476553,0.399652749,0.249870628,-0.024702579,0.626133680,0.337975651,0.136247545,0.465224952,0.325407326,-0.174454868,0.456188947,0.262785345,0.392268121,0.445565760,0.261021435,-0.441025048,0.437512696,0.331168056,0.634256959,0.473983228,0.298525274,-0.687968969,0.438739419,0.404964328,0.698782206,0.437054634,0.366129994,-0.762549162,0.412124276
0.350784063,-0.018879861,0.015360104,0.324782908,0.039309472,-0.077403307,0.329533637,-0.082147241,-0.088547833,0.323166460,-0.021642566,0.125250652,0.348023057,0.120302945,-0.450811595,0.352549881,-0.129968494,-0.450127810,0.325693369,-0.015933335,0.257427841,0.311702430,0.108112335,-0.855648756,0.333854526,-0.114484876,-0.860923648,0.344399005,-0.026565254,0.314024419,0.415975422,0.165111572,-0.929474413,0.437169790,-0.173971355,-0.930698574,0.325150818,-0.037141621,0.481192738,0.342544764,0.020761311,0.398723543,0.338069797,-0.073391318,0.399666786,0.250329942,-0.024252459,0.626191497,0.338378906,0.136760622,0.464421690,0.325911254,-0.174843088,0.455409110,0.262355953,0.392005384,0.438785791,0.259377420,-0.440362304,0.430374444,0.332464337,0.634021699,0.462350219,0.300988019,-0.686617136,0.426312685,0.406856894,0.697285235,0.424448311,0.369855702,-0.759579897,0.398480505
0.350788802,-0.018932313,0.015186833,0.324787617,0.039256990,-0.077576600,0.329538465,-0.082199752,-0.088721104,0.323171228,-0.021695018,0.125077397,0.347765297,0.120364279,-0.450976521,0.352330446,-0.130062580,-0.450309783,0.325697690,-0.016002923,0.257255375,0.311038405,0.108266622,-0.855779827,0.333346903,-0.114609390,-0.861093521,0.344514787,-0.026663452,0.313809574,0.415363073,0.165120482,-0.929644704,0.436722696,-0.174136102,-0.930744290,0.325334638,-0.037192941,0.480988652,0.342688233,0.020687878,0.398495436,0.338225782,-0.073465019,0.399468243,0.250577360,-0.024033904,0.625995994,0.338931978,0.137013257,0.463639498,0.325972140,-0.175294653,0.454496264,0.262234539,0.391361415,0.431841701,0.257494569,-0.439527482,0.422156811,0.334259361,0.633282304,0.449981660,0.303005099,-0.684920490,0.412135154,0.409222394,0.695428610,0.411361694,0.373277783,-0.756099522,0.383217067
0.350788802,-0.018932313,0.015186833,0.324787617,0.039256990,-0.077576600,0.329538465,-0.082199752,-0.088721104,0.323171228,-0.021695018,0.125077397,0.347765297,0.120364279,-0.450976521,0.352124929,-0.129766732,-0.450361729,0.325697690,-0.016002923,0.257255375,0.311038405,0.108266622,-0.855779827,0.332994521,-0.114007384,-0.861127079,0.344636112,-0.026690185,0.313764006,0.415532589,0.164877653,-0.929591477,0.436417311,-0.173638284,-0.930618942,0.325483412,-0.037199408,0.480947495,0.342794806,0.020675689,0.398441404,0.338383645,-0.073479474,0.399432063,0.250730902,-0.023814052,0.625936627,0.339451432,0.137285739,0.463097155,0.325922132,-0.175635442,0.453804612,0.261963069,0.390529364,0.425020367,0.255796283,-0.438375622,0.413754970,0.335813433,0.632262349,0.437415332,0.305267096,-0.682669640,0.397554189,0.411282718,0.693417311,0.398203522,0.377056181,-0.751922488,0.367698759
0.350777805,-0.019094020,0.015237733,0.324776620,0.039095283,-0.077525690,0.329527408,-0.082361460,-0.088670209,0.323160201,-0.021856755,0.125128284,0.347879589,0.120336235,-0.450888783,0.352228314,-0.130107686,-0.450280011,0.325675160,-0.016231447,0.257309318,0.311014384,0.108574599,-0.855689466,0.333311230,-0.114479125,-0.861060202,0.344621330,-0.026941240,0.313811094,0.415506154,0.165115863,-0.929557920,0.436650932,-0.173977196,-0.930788934,0.325559914,-0.037438810,0.481005758,0.342847168,0.020427406,0.398488402,0.338399231,-0.073725939,0.399483860,0.250403851,-0.024349809,0.625813186,0.339876831,0.137386233,0.462529510,0.325732738,-0.176322967,0.452971339,0.261358202,0.389226437,0.417831719,0.253879428,-0.437167019,0.404479533,0.336693794,0.630733848,0.424241304,0.306766748,-0.680197120,0.381487370,0.412635207,0.690596282,0.383961022,0.379478157,-0.747863770,0.350258619
0.350771338,-0.019199699,0.015255200,0.324770153,0.038989663,-0.077508226,0.329520971,-0.082467079,-0.088652730,0.323153704,-0.021962404,0.125145748,0.347955108,0.120230615,-0.450866163,0.352194399,-0.130222932,-0.450262994,0.325769693,-0.016420037,0.257328331,0.310885817,0.108649075,-0.855653346,0.333084404,-0.114480183,-0.861029863,0.344795913,-0.027179778,0.313793749,0.415397942,0.165056348,-0.929595351,0.436308384,-0.173845053,-0.931043088,0.325955838,-0.037752241,0.481008798,0.343128651,0.020151734,0.398494005,0.338691264,-0.074002504,0.399454206,0.250510901,-0.025099158,0.625704765,0.340610355,0.137422919,0.461980820,0.325808287,-0.176961154,0.452189893,0.261125445,0.387610853,0.410262436,0.252300709,-0.435631454,0.395266235,0.337706268,0.628811300,0.410488605,0.308530629,-0.677130222,0.365167856,0.414119720,0.687474549,0.369346231,0.382135808,-0.743162811,0.332565486
0.350771338,-0.019199699,0.015255200,0.324770153,0.038989663,-0.077508226,0.329520971,-0.082467079,-0.088652730,0.323153704,-0.021962404,0.125145748,0.347955108,0.120230615,-0.450866163,0.352194399,-0.130222932,-0.450262994,0.325769693,-0.016420037,0.257328331,0.310885817,0.108649075,-0.855653346,0.333084404,-0.114480183,-0.861029863,0.344860107,-0.027252167,0.313758194,0.415483564,0.164894938,-0.929597318,0.436308384,-0.173845053,-0.931043088,0.325971574,-0.038009018,0.480956018,0.343122840,0.019992679,0.398505449,0.338766366,-0.074166268,0.399369419,0.250015050,-0.026004657,0.625439405,0.341041148,0.137531281,0.461511672,0.325454295,-0.177316546,0.451621830,0.260957360,0.385692447,0.401601553,0.250526488,-0.433530748,0.386092693,0.338377506,0.626544595,0.395381600,0.309978306,-0.673196554,0.348473489,0.415401131,0.684205174,0.353959918,0.384501576,-0.737578630,0.314677507
0.350770444,-0.019082546,0.015421083,0.324769229,0.039106756,-0.077342346,0.329520077,-0.082349986,-0.088486850,0.323152840,-0.021845251,0.125311643,0.348196864,0.120502561,-0.450651497,0.352502584,-0.129955158,-0.450097501,0.325821966,-0.016530812,0.257502526,0.311119825,0.109225273,-0.855446517,0.333508790,-0.113982409,-0.860860944,0.345000327,-0.027466953,0.313882500,0.415751278,0.165437371,-0.929368436,0.436790168,-0.173321515,-0.930811286,0.326265752,-0.038398653,0.481086284,0.343302548,0.019694954,0.398676634,0.339015663,-0.074467957,0.399453789,0.249944657,-0.026654512,0.625398815,0.341696143,0.137381107,0.461420864,0.325189829,-0.177909210,0.450992733,0.260761946,0.383085877,0.393116832,0.249319762,-0.431363761,0.376437128,0.338691860,0.623519719,0.380433291,0.311705709,-0.668858886,0.330683410,0.416211843,0.680060983,0.338399529,0.387029648,-0.731400251,0.295245528
0.350745112,-0.019033849,0.016044486,0.324743956,0.039155453,-0.076718941,0.329494774,-0.082301259,-0.087863453,0.323127508,-0.021796554,0.125935033,0.348886311,0.120418072,-0.450011522,0.353162974,-0.129993111,-0.449418426,0.325722963,-0.016698748,0.258135885,0.312525511,0.109295458,-0.854875803,0.334979057,-0.114017040,-0.860218346,0.344910979,-0.027713686,0.314497203,0.417343199,0.165396392,-0.928618252,0.438369155,-0.173545182,-0.929846704,0.326182514,-0.038739741,0.481695503,0.343203813,0.019402236,0.399316758,0.338939279,-0.074762106,0.400043309,0.249364436,-0.026970506,0.625742078,0.342050821,0.137201607,0.461858153,0.324434221,-0.178508878,0.450775117,0.260392696,0.380088925,0.384888619,0.247851640,-0.428859204,0.367026806,0.338815719,0.619935930,0.365768194,0.312977672,-0.663888395,0.313089460,0.416866869,0.675238013,0.323073924,0.389067769,-0.724506855,0.275986224
0.350745112,-0.019033849,0.016044486,0.324743956,0.039155453,-0.076718941,0.329494774,-0.082301259,-0.087863453,0.323127508,-0.021796554,0.125935033,0.348886311,0.120418072,-0.450011522,0.353162974,-0.129993111,-0.449418426,0.325582594,-0.016665012,0.258137286,0.312525511,0.109295458,-0.854875803,0.334979057,-0.114017040,-0.860218346,0.344805121,-0.027701229,0.314482659,0.417423606,0.165340424,-0.928546369,0.438421607,-0.173221499,-0.930044532,0.325940579,-0.038726419,0.481665730,0.343065798,0.019409657,0.399304360,0.338734806,-0.074751735,0.400020719,0.248986974,-0.026807427,0.625627637,0.342178106,0.137157887,0.461946279,0.324389011,-0.178979859,0.449802220,0.259781212,0.377083600,0.376899093,0.246116102,-0.425745547,0.357422322,0.338946313,0.615930438,0.349928558,0.312821031,-0.658235550,0.295066595,0.416791260,0.670247555,0.305623561,0.388791621,-0.717151165,0.255086958
0.350729525,-0.019149601,0.016245980,0.324728310,0.039039701,-0.076517433,0.329479128,-0.082417011,-0.087661944,0.323111951,-0.021912307,0.126136526,0.348995924,0.120184779,-0.449827373,0.353082180,-0.130204618,-0.449208498,0.325511307,-0.016816497,0.258341134,0.312593669,0.109182954,-0.854691207,0.335110903,-0.114245370,-0.860018373,0.344788611,-0.027906269,0.314657301,0.417591363,0.165094137,-0.928321600,0.438504845,-0.173362017,-0.929990709,0.325869352,-0.039018005,0.481828421,0.343032181,0.019159108,0.399503917,0.338681936,-0.075001776,0.400167942,0.248709604,-0.026956722,0.625668049,0.342478454,0.136953920,0.462062031,0.324417472,-0.179643154,0.449098557,0.259153843,0.373687476,0.369321346,0.244641513,-0.422549576,0.348171711,0.339086175,0.611237288,0.334346592,0.312617004,-0.652156293,0.277112275,0.416677177,0.664333940,0.288157046,0.388503253,-0.709162712,0.234304830
0.350729525,-0.019149601,0.016245980,0.324728310,0.039039701,-0.076517433,0.329479128,-0.082417011,-0.087661944,0.323111951,-0.021912307,0.126136526,0.348995924,0.120184779,-0.449827373,0.353082180,-0.130204618,-0.449208498,0.325624675,-0.016991258,0.258345664,0.312593669,0.109182954,-0.854691207,0.335110903,-0.114245370,-0.860018373,0.344997376,-0.028198659,0.314605802,0.417555779,0.165115863,-0.928355753,0.438504845,-0.173362017,-0.929990709,0.326185584,-0.039572328,0.481771439,0.343253911,0.018739849,0.399522901,0.338978380,-0.075425267,0.400050342,0.248677850,-0.027383924,0.625413120,0.343169093,0.136775881,0.461627126,0.324638367,-0.180355221,0.448336571,0.258471370,0.370147049,0.361873746,0.243717432,-0.419156760,0.338885307,0.339156240,0.606055439,0.318520069,0.312334776,-0.645463705,0.258472711,0.416376233,0.657488108,0.269890219,0.388213575,-0.700264931,0.212863714
0.350732177,-0.019173414,0.016160592,0.324730992,0.039015889,-0.076602824,0.329481751,-0.082440794,-0.087747328,0.323114604,-0.021936119,0.126051143,0.349026084,0.120163560,-0.449910462,0.353093356,-0.130218267,-0.449294686,0.325657904,-0.017138779,0.258264273,0.312512368,0.109247804,-0.854766607,0.335151970,-0.114177078,-0.860102773,0.345091343,-0.028426260,0.314487398,0.417536080,0.165099025,-0.928405225,0.438492149,-0.173317134,-0.930134714,0.326271534,-0.039986432,0.481639326,0.343322247,0.018420726,0.399454504,0.339085221,-0.075746655,0.399880916,0.248501644,-0.027749881,0.625135064,0.343500674,0.136742651,0.461012006,0.324582160,-0.180987209,0.447436988,0.257343650,0.366773903,0.354950041,0.242987692,-0.415605307,0.329748243,0.339072406,0.600517511,0.302733004,0.311759710,-0.638346910,0.240049481,0.415807694,0.649988055,0.251376629,0.387179077,-0.690997601,0.191256091
0.350732177,-0.019173414,0.016160592,0.324730992,0.039015889,-0.076602824,0.329481751,-0.082440794,-0.087747328,0.323114604,-0.021936119,0.126051143,0.349026084,0.120163560,-0.449910462,0.353093356,-0.130218267,-0.449294686,0.325657904,-0.017138779,0.258264273,0.312441975,0.109373540,-0.854763627,0.334917933,-0.114176884,-0.860092402,0.345138997,-0.028446615,0.314466834,0.417602062,0.165073425,-0.928322136,0.438267648,-0.173256040,-0.930161595,0.326266199,-0.040030539,0.481611133,0.343333513,0.018389672,0.399439037,0.339113206,-0.075778514,0.399852604,0.248289362,-0.027675375,0.624984384,0.343678355,0.137063861,0.460314065,0.324400932,-0.181301221,0.446714163,0.255955100,0.363598645,0.348183721,0.242312402,-0.411637545,0.321172863,0.338762909,0.594696283,0.286709607,0.310932040,-0.630579591,0.222455874,0.414921045,0.641962767,0.232497901,0.385631323,-0.681060195,0.170372635
0.350714862,-0.019257307,0.016434444,0.324713707,0.038931966,-0.076328970,0.329464495,-0.082524747,-0.087473489,0.323097289,-0.022020012,0.126324996,0.349149972,0.119921148,-0.449661851,0.353283197,-0.130403847,-0.448993832,0.325697631,-0.017303318,0.258539915,0.312303036,0.108872861,-0.854484260,0.335103542,-0.114506125,-0.859797001,0.345239192,-0.028662980,0.314711034,0.417406768,0.164712101,-0.928017855,0.438353479,-0.173642486,-0.929965019,0.326445371,-0.040436834,0.481850982,0.343446285,0.018080771,0.399734437,0.339275390,-0.076089978,0.400048375,0.248420253,-0.027894095,0.625181675,0.343777359,0.137211174,0.459711730,0.324374676,-0.181853071,0.446304619,0.254103959,0.360834390,0.343359202,0.242209613,-0.407679439,0.312868237,0.338810295,0.588266432,0.271652997,0.310438037,-0.622246385,0.204723865,0.413793683,0.632918715,0.213715389,0.384303033,-0.670854151,0.149749562
0.350721091,-0.019196987,0.016372122,0.324719936,0.038992345,-0.076391309,0.329470724,-0.082464397,-0.087535813,0.323103487,-0.021959633,0.126262665,0.349244297,0.119973511,-0.449720144,0.353356242,-0.130403444,-0.449043810,0.325780839,-0.017324597,0.258478969,0.312129706,0.108888268,-0.854517102,0.335022241,-0.114587992,-0.859843314,0.345414132,-0.028719515,0.314610928,0.417206883,0.164801806,-0.928032100,0.438246191,-0.173729479,-0.930045426,0.326700747,-0.040672392,0.481747210,0.343594939,0.017943054,0.399678439,0.339544177,-0.076233268,0.399906576,0.248583511,-0.027998507,0.625016212,0.343814552,0.137524575,0.458751738,0.324598223,-0.182254091,0.445554256,0.252064586,0.358014464,0.338116914,0.242306054,-0.403363198,0.304512560,0.338213056,0.581503928,0.256427169,0.310091197,-0.613243878,0.187274903,0.412049919,0.623191178,0.194917679,0.383178949,-0.659610748,0.129402488
0.350721091,-0.019196987,0.016372122,0.324719936,0.038992345,-0.076391309,0.329470724,-0.082464397,-0.087535813,0.323103487,-0.021959633,0.126262665,0.349244297,0.119973511,-0.449720144,0.353356242,-0.130403444,-0.449043810,0.325819403,-0.017523617,0.258484989,0.311835885,0.109000564,-0.854493082,0.334868819,-0.114536226,-0.859834373,0.345470399,-0.029001117,0.314593941,0.416965544,0.164764702,-0.928046465,0.438214630,-0.173664302,-0.929868281,0.326807529,-0.041207790,0.481717527,0.343671560,0.017533004,0.399732202,0.339630395,-0.076643944,0.399819553,0.248543411,-0.028431967,0.624897301,0.343919694,0.137510210,0.457997501,0.324645549,-0.182962090,0.444757462,0.250570297,0.354918689,0.333073467,0.241652638,-0.398941934,0.296369910,0.338275254,0.574187160,0.242125660,0.308474898,-0.603981733,0.170342863,0.411241472,0.612178147,0.177274108,0.380803227,-0.647609353,0.109464310
0.350735068,-0.019048721,0.016244918,0.324733913,0.039140642,-0.076518513,0.329484731,-0.082316101,-0.087663017,0.323117465,-0.021811455,0.126135468,0.349071085,0.120181561,-0.449846625,0.353092879,-0.130112737,-0.449208111,0.325924844,-0.017431945,0.258357763,0.311321855,0.109277487,-0.854589760,0.334338874,-0.114036739,-0.859978437,0.345697790,-0.028930455,0.314419568,0.416388154,0.165184140,-0.928125620,0.437633395,-0.173084676,-0.930155337,0.327132285,-0.041294575,0.481542379,0.343923628,0.017527044,0.399600148,0.339926988,-0.076651841,0.399605900,0.248919889,-0.028482720,0.624747157,0.344038904,0.137758315,0.457339942,0.324811220,-0.183162913,0.444040209,0.249184206,0.352062702,0.328255564,0.241707653,-0.394327044,0.288935512,0.338364691,0.566506267,0.227741182,0.307951570,-0.594150424,0.154504523,0.410263032,0.601822138,0.160239235,0.379499137,-0.634999514,0.090839401
