Han-tp28/mjlab/export/vr_m3_1_mode2_csv/walk_forward_amateur_001__A001_idle_smpl2s_ramp4s/smpl_joint_local.csv
smpl_joint_local_0_x,smpl_joint_local_0_y,smpl_joint_local_0_z,smpl_joint_local_1_x,smpl_joint_local_1_y,smpl_joint_local_1_z,smpl_joint_local_2_x,smpl_joint_local_2_y,smpl_joint_local_2_z,smpl_joint_local_3_x,smpl_joint_local_3_y,smpl_joint_local_3_z,smpl_joint_local_4_x,smpl_joint_local_4_y,smpl_joint_local_4_z,smpl_joint_local_5_x,smpl_joint_local_5_y,smpl_joint_local_5_z,smpl_joint_local_6_x,smpl_joint_local_6_y,smpl_joint_local_6_z,smpl_joint_local_7_x,smpl_joint_local_7_y,smpl_joint_local_7_z,smpl_joint_local_8_x,smpl_joint_local_8_y,smpl_joint_local_8_z,smpl_joint_local_9_x,smpl_joint_local_9_y,smpl_joint_local_9_z,smpl_joint_local_10_x,smpl_joint_local_10_y,smpl_joint_local_10_z,smpl_joint_local_11_x,smpl_joint_local_11_y,smpl_joint_local_11_z,smpl_joint_local_12_x,smpl_joint_local_12_y,smpl_joint_local_12_z,smpl_joint_local_13_x,smpl_joint_local_13_y,smpl_joint_local_13_z,smpl_joint_local_14_x,smpl_joint_local_14_y,smpl_joint_local_14_z,smpl_joint_local_15_x,smpl_joint_local_15_y,smpl_joint_local_15_z,smpl_joint_local_16_x,smpl_joint_local_16_y,smpl_joint_local_16_z,smpl_joint_local_17_x,smpl_joint_local_17_y,smpl_joint_local_17_z,smpl_joint_local_18_x,smpl_joint_local_18_y,smpl_joint_local_18_z,smpl_joint_local_19_x,smpl_joint_local_19_y,smpl_joint_local_19_z,smpl_joint_local_20_x,smpl_joint_local_20_y,smpl_joint_local_20_z,smpl_joint_local_21_x,smpl_joint_local_21_y,smpl_joint_local_21_z,smpl_joint_local_22_x,smpl_joint_local_22_y,smpl_joint_local_22_z,smpl_joint_local_23_x,smpl_joint_local_23_y,smpl_joint_local_23_z
0.349284619,0.016744178,-0.036901988,0.323283464,0.074933507,-0.129665419,0.328034222,-0.046523236,-0.140809923,0.321666956,0.013981476,0.072988562,0.418622732,0.248923182,-0.457036406,0.280876935,-0.007557075,-0.501107752,0.346759498,-0.009179895,0.200831085,0.406843543,0.327178478,-0.855907559,0.202091888,0.142319351,-0.876170874,0.379092872,-0.034978367,0.245047584,0.489562899,0.411336392,-0.931053579,0.309272230,0.105615862,-0.955205321,0.397350997,-0.090639621,0.403148949,0.397156745,-0.012140376,0.337618053,0.391012549,-0.103217036,0.314103723,0.401445895,-0.098530933,0.566580653,0.410583049,0.114614137,0.376892328,0.392787844,-0.219552577,0.317328334,0.325265050,0.170927510,0.129635066,0.307259917,-0.226669967,0.056199532,0.408286244,0.181752846,-0.109179899,0.339454114,-0.151129425,-0.179695517,0.453938335,0.134796292,-0.190936029,0.388467222,-0.082468480,-0.240722790
0.349284619,0.016744178,-0.036901988,0.323283464,0.074933507,-0.129665419,0.328034222,-0.046523236,-0.140809923,0.321666956,0.013981476,0.072988562,0.418622732,0.248923182,-0.457036406,0.280876935,-0.007557075,-0.501107752,0.346759498,-0.009179895,0.200831085,0.406843543,0.327178478,-0.855907559,0.202091888,0.142319351,-0.876170874,0.379092872,-0.034978367,0.245047584,0.489562899,0.411336392,-0.931053579,0.309272230,0.105615862,-0.955205321,0.397350997,-0.090639621,0.403148949,0.397156745,-0.012140376,0.337618053,0.391012549,-0.103217036,0.314103723,0.401445895,-0.098530933,0.566580653,0.410583049,0.114614137,0.376892328,0.392787844,-0.219552577,0.317328334,0.325265050,0.170927510,0.129635066,0.307259917,-0.226669967,0.056199532,0.408286244,0.181752846,-0.109179899,0.339454114,-0.151129425,-0.179695517,0.453938335,0.134796292,-0.190936029,0.388467222,-0.082468480,-0.240722790
0.349284619,0.016744178,-0.036901988,0.323283464,0.074933507,-0.129665419,0.328034222,-0.046523236,-0.140809923,0.321666956,0.013981476,0.072988562,0.418622732,0.248923182,-0.457036406,0.280876935,-0.007557075,-0.501107752,0.346759498,-0.009179895,0.200831085,0.406843543,0.327178478,-0.855907559,0.202091888,0.142319351,-0.876170874,0.379092872,-0.034978367,0.245047584,0.489562899,0.411336392,-0.931053579,0.309272230,0.105615862,-0.955205321,0.397350997,-0.090639621,0.403148949,0.397156745,-0.012140376,0.337618053,0.391012549,-0.103217036,0.314103723,0.401445895,-0.098530933,0.566580653,0.410583049,0.114614137,0.376892328,0.392787844,-0.219552577,0.317328334,0.325265050,0.170927510,0.129635066,0.307259917,-0.226669967,0.056199532,0.408286244,0.181752846,-0.109179899,0.339454114,-0.151129425,-0.179695517,0.453938335,0.134796292,-0.190936029,0.388467222,-0.082468480,-0.240722790
0.349284619,0.016744178,-0.036901988,0.323283464,0.074933507,-0.129665419,0.328034222,-0.046523236,-0.140809923,0.321666956,0.013981476,0.072988562,0.418622732,0.248923182,-0.457036406,0.280876935,-0.007557075,-0.501107752,0.346759498,-0.009179895,0.200831085,0.406843543,0.327178478,-0.855907559,0.202091888,0.142319351,-0.876170874,0.379092872,-0.034978367,0.245047584,0.489562899,0.411336392,-0.931053579,0.309272230,0.105615862,-0.955205321,0.397350997,-0.090639621,0.403148949,0.397156745,-0.012140376,0.337618053,0.391012549,-0.103217036,0.314103723,0.401445895,-0.098530933,0.566580653,0.410583049,0.114614137,0.376892328,0.392787844,-0.219552577,0.317328334,0.325265050,0.170927510,0.129635066,0.307259917,-0.226669967,0.056199532,0.408286244,0.181752846,-0.109179899,0.339454114,-0.151129425,-0.179695517,0.453938335,0.134796292,-0.190936029,0.388467222,-0.082468480,-0.240722790
0.349284619,0.016744178,-0.036901988,0.323283464,0.074933507,-0.129665419,0.328034222,-0.046523236,-0.140809923,0.321666956,0.013981476,0.072988562,0.418622732,0.248923182,-0.457036406,0.280876935,-0.007557075,-0.501107752,0.346759498,-0.009179895,0.200831085,0.406843543,0.327178478,-0.855907559,0.202091888,0.142319351,-0.876170874,0.379092872,-0.034978367,0.245047584,0.489562899,0.411336392,-0.931053579,0.309272230,0.105615862,-0.955205321,0.397350997,-0.090639621,0.403148949,0.397156745,-0.012140376,0.337618053,0.391012549,-0.103217036,0.314103723,0.401445895,-0.098530933,0.566580653,0.410583049,0.114614137,0.376892328,0.392787844,-0.219552577,0.317328334,0.325265050,0.170927510,0.129635066,0.307259917,-0.226669967,0.056199532,0.408286244,0.181752846,-0.109179899,0.339454114,-0.151129425,-0.179695517,0.453938335,0.134796292,-0.190936029,0.388467222,-0.082468480,-0.240722790
0.349284619,0.016744178,-0.036901988,0.323283464,0.074933507,-0.129665419,0.328034222,-0.046523236,-0.140809923,0.321666956,0.013981476,0.072988562,0.418622732,0.248923182,-0.457036406,0.280876935,-0.007557075,-0.501107752,0.346759498,-0.009179895,0.200831085,0.406843543,0.327178478,-0.855907559,0.202091888,0.142319351,-0.876170874,0.379092872,-0.034978367,0.245047584,0.489562899,0.411336392,-0.931053579,0.309272230,0.105615862,-0.955205321,0.397350997,-0.090639621,0.403148949,0.397156745,-0.012140376,0.337618053,0.391012549,-0.103217036,0.314103723,0.401445895,-0.098530933,0.566580653,0.410583049,0.114614137,0.376892328,0.392787844,-0.219552577,0.317328334,0.325265050,0.170927510,0.129635066,0.307259917,-0.226669967,0.056199532,0.408286244,0.181752846,-0.109179899,0.339454114,-0.151129425,-0.179695517,0.453938335,0.134796292,-0.190936029,0.388467222,-0.082468480,-0.240722790
0.349284619,0.016744178,-0.036901988,0.323283464,0.074933507,-0.129665419,0.328034222,-0.046523236,-0.140809923,0.321666956,0.013981476,0.072988562,0.418622732,0.248923182,-0.457036406,0.280876935,-0.007557075,-0.501107752,0.346759498,-0.009179895,0.200831085,0.406843543,0.327178478,-0.855907559,0.202091888,0.142319351,-0.876170874,0.379092872,-0.034978367,0.245047584,0.489562899,0.411336392,-0.931053579,0.309272230,0.105615862,-0.955205321,0.397350997,-0.090639621,0.403148949,0.397156745,-0.012140376,0.337618053,0.391012549,-0.103217036,0.314103723,0.401445895,-0.098530933,0.566580653,0.410583049,0.114614137,0.376892328,0.392787844,-0.219552577,0.317328334,0.325265050,0.170927510,0.129635066,0.307259917,-0.226669967,0.056199532,0.408286244,0.181752846,-0.109179899,0.339454114,-0.151129425,-0.179695517,0.453938335,0.134796292,-0.190936029,0.388467222,-0.082468480,-0.240722790
0.349284619,0.016744178,-0.036901988,0.323283464,0.074933507,-0.129665419,0.328034222,-0.046523236,-0.140809923,0.321666956,0.013981476,0.072988562,0.418622732,0.248923182,-0.457036406,0.280876935,-0.007557075,-0.501107752,0.346759498,-0.009179895,0.200831085,0.406843543,0.327178478,-0.855907559,0.202091888,0.142319351,-0.876170874,0.379092872,-0.034978367,0.245047584,0.489562899,0.411336392,-0.931053579,0.309272230,0.105615862,-0.955205321,0.397350997,-0.090639621,0.403148949,0.397156745,-0.012140376,0.337618053,0.391012549,-0.103217036,0.314103723,0.401445895,-0.098530933,0.566580653,0.410583049,0.114614137,0.376892328,0.392787844,-0.219552577,0.317328334,0.325265050,0.170927510,0.129635066,0.307259917,-0.226669967,0.056199532,0.408286244,0.181752846,-0.109179899,0.339454114,-0.151129425,-0.179695517,0.453938335,0.134796292,-0.190936029,0.388467222,-0.082468480,-0.240722790
0.349284619,0.016744178,-0.036901988,0.323283464,0.074933507,-0.129665419,0.328034222,-0.046523236,-0.140809923,0.321666956,0.013981476,0.072988562,0.418622732,0.248923182,-0.457036406,0.280876935,-0.007557075,-0.501107752,0.346759498,-0.009179895,0.200831085,0.406843543,0.327178478,-0.855907559,0.202091888,0.142319351,-0.876170874,0.379092872,-0.034978367,0.245047584,0.489562899,0.411336392,-0.931053579,0.309272230,0.105615862,-0.955205321,0.397350997,-0.090639621,0.403148949,0.397156745,-0.012140376,0.337618053,0.391012549,-0.103217036,0.314103723,0.401445895,-0.098530933,0.566580653,0.410583049,0.114614137,0.376892328,0.392787844,-0.219552577,0.317328334,0.325265050,0.170927510,0.129635066,0.307259917,-0.226669967,0.056199532,0.408286244,0.181752846,-0.109179899,0.339454114,-0.151129425,-0.179695517,0.453938335,0.134796292,-0.190936029,0.388467222,-0.082468480,-0.240722790
0.349284619,0.016744178,-0.036901988,0.323283464,0.074933507,-0.129665419,0.328034222,-0.046523236,-0.140809923,0.321666956,0.013981476,0.072988562,0.418622732,0.248923182,-0.457036406,0.280876935,-0.007557075,-0.501107752,0.346759498,-0.009179895,0.200831085,0.406843543,0.327178478,-0.855907559,0.202091888,0.142319351,-0.876170874,0.379092872,-0.034978367,0.245047584,0.489562899,0.411336392,-0.931053579,0.309272230,0.105615862,-0.955205321,0.397350997,-0.090639621,0.403148949,0.397156745,-0.012140376,0.337618053,0.391012549,-0.103217036,0.314103723,0.401445895,-0.098530933,0.566580653,0.410583049,0.114614137,0.376892328,0.392787844,-0.219552577,0.317328334,0.325265050,0.170927510,0.129635066,0.307259917,-0.226669967,0.056199532,0.408286244,0.181752846,-0.109179899,0.339454114,-0.151129425,-0.179695517,0.453938335,0.134796292,-0.190936029,0.388467222,-0.082468480,-0.240722790
0.349284619,0.016744178,-0.036901988,0.323283464,0.074933507,-0.129665419,0.328034222,-0.046523236,-0.140809923,0.321666956,0.013981476,0.072988562,0.418622732,0.248923182,-0.457036406,0.280876935,-0.007557075,-0.501107752,0.346759498,-0.009179895,0.200831085,0.406843543,0.327178478,-0.855907559,0.202091888,0.142319351,-0.876170874,0.379092872,-0.034978367,0.245047584,0.489562899,0.411336392,-0.931053579,0.309272230,0.105615862,-0.955205321,0.397350997,-0.090639621,0.403148949,0.397156745,-0.012140376,0.337618053,0.391012549,-0.103217036,0.314103723,0.401445895,-0.098530933,0.566580653,0.410583049,0.114614137,0.376892328,0.392787844,-0.219552577,0.317328334,0.325265050,0.170927510,0.129635066,0.307259917,-0.226669967,0.056199532,0.408286244,0.181752846,-0.109179899,0.339454114,-0.151129425,-0.179695517,0.453938335,0.134796292,-0.190936029,0.388467222,-0.082468480,-0.240722790
0.349284619,0.016744178,-0.036901988,0.323283464,0.074933507,-0.129665419,0.328034222,-0.046523236,-0.140809923,0.321666956,0.013981476,0.072988562,0.418622732,0.248923182,-0.457036406,0.280876935,-0.007557075,-0.501107752,0.346759498,-0.009179895,0.200831085,0.406843543,0.327178478,-0.855907559,0.202091888,0.142319351,-0.876170874,0.379092872,-0.034978367,0.245047584,0.489562899,0.411336392,-0.931053579,0.309272230,0.105615862,-0.955205321,0.397350997,-0.090639621,0.403148949,0.397156745,-0.012140376,0.337618053,0.391012549,-0.103217036,0.314103723,0.401445895,-0.098530933,0.566580653,0.410583049,0.114614137,0.376892328,0.392787844,-0.219552577,0.317328334,0.325265050,0.170927510,0.129635066,0.307259917,-0.226669967,0.056199532,0.408286244,0.181752846,-0.109179899,0.339454114,-0.151129425,-0.179695517,0.453938335,0.134796292,-0.190936029,0.388467222,-0.082468480,-0.240722790
0.349284619,0.016744178,-0.036901988,0.323283464,0.074933507,-0.129665419,0.328034222,-0.046523236,-0.140809923,0.321666956,0.013981476,0.072988562,0.418622732,0.248923182,-0.457036406,0.280876935,-0.007557075,-0.501107752,0.346759498,-0.009179895,0.200831085,0.406843543,0.327178478,-0.855907559,0.202091888,0.142319351,-0.876170874,0.379092872,-0.034978367,0.245047584,0.489562899,0.411336392,-0.931053579,0.309272230,0.105615862,-0.955205321,0.397350997,-0.090639621,0.403148949,0.397156745,-0.012140376,0.337618053,0.391012549,-0.103217036,0.314103723,0.401445895,-0.098530933,0.566580653,0.410583049,0.114614137,0.376892328,0.392787844,-0.219552577,0.317328334,0.325265050,0.170927510,0.129635066,0.307259917,-0.226669967,0.056199532,0.408286244,0.181752846,-0.109179899,0.339454114,-0.151129425,-0.179695517,0.453938335,0.134796292,-0.190936029,0.388467222,-0.082468480,-0.240722790
0.349284619,0.016744178,-0.036901988,0.323283464,0.074933507,-0.129665419,0.328034222,-0.046523236,-0.140809923,0.321666956,0.013981476,0.072988562,0.418622732,0.248923182,-0.457036406,0.280876935,-0.007557075,-0.501107752,0.346759498,-0.009179895,0.200831085,0.406843543,0.327178478,-0.855907559,0.202091888,0.142319351,-0.876170874,0.379092872,-0.034978367,0.245047584,0.489562899,0.411336392,-0.931053579,0.309272230,0.105615862,-0.955205321,0.397350997,-0.090639621,0.403148949,0.397156745,-0.012140376,0.337618053,0.391012549,-0.103217036,0.314103723,0.401445895,-0.098530933,0.566580653,0.410583049,0.114614137,0.376892328,0.392787844,-0.219552577,0.317328334,0.325265050,0.170927510,0.129635066,0.307259917,-0.226669967,0.056199532,0.408286244,0.181752846,-0.109179899,0.339454114,-0.151129425,-0.179695517,0.453938335,0.134796292,-0.190936029,0.388467222,-0.082468480,-0.240722790
0.349284619,0.016744178,-0.036901988,0.323283464,0.074933507,-0.129665419,0.328034222,-0.046523236,-0.140809923,0.321666956,0.013981476,0.072988562,0.418622732,0.248923182,-0.457036406,0.280876935,-0.007557075,-0.501107752,0.346759498,-0.009179895,0.200831085,0.406843543,0.327178478,-0.855907559,0.202091888,0.142319351,-0.876170874,0.379092872,-0.034978367,0.245047584,0.489562899,0.411336392,-0.931053579,0.309272230,0.105615862,-0.955205321,0.397350997,-0.090639621,0.403148949,0.397156745,-0.012140376,0.337618053,0.391012549,-0.103217036,0.314103723,0.401445895,-0.098530933,0.566580653,0.410583049,0.114614137,0.376892328,0.392787844,-0.219552577,0.317328334,0.325265050,0.170927510,0.129635066,0.307259917,-0.226669967,0.056199532,0.408286244,0.181752846,-0.109179899,0.339454114,-0.151129425,-0.179695517,0.453938335,0.134796292,-0.190936029,0.388467222,-0.082468480,-0.240722790
0.349284619,0.016744178,-0.036901988,0.323283464,0.074933507,-0.129665419,0.328034222,-0.046523236,-0.140809923,0.321666956,0.013981476,0.072988562,0.418622732,0.248923182,-0.457036406,0.280876935,-0.007557075,-0.501107752,0.346759498,-0.009179895,0.200831085,0.406843543,0.327178478,-0.855907559,0.202091888,0.142319351,-0.876170874,0.379092872,-0.034978367,0.245047584,0.489562899,0.411336392,-0.931053579,0.309272230,0.105615862,-0.955205321,0.397350997,-0.090639621,0.403148949,0.397156745,-0.012140376,0.337618053,0.391012549,-0.103217036,0.314103723,0.401445895,-0.098530933,0.566580653,0.410583049,0.114614137,0.376892328,0.392787844,-0.219552577,0.317328334,0.325265050,0.170927510,0.129635066,0.307259917,-0.226669967,0.056199532,0.408286244,0.181752846,-0.109179899,0.339454114,-0.151129425,-0.179695517,0.453938335,0.134796292,-0.190936029,0.388467222,-0.082468480,-0.240722790
0.349284619,0.016744178,-0.036901988,0.323283464,0.074933507,-0.129665419,0.328034222,-0.046523236,-0.140809923,0.321666956,0.013981476,0.072988562,0.418622732,0.248923182,-0.457036406,0.280876935,-0.007557075,-0.501107752,0.346759498,-0.009179895,0.200831085,0.406843543,0.327178478,-0.855907559,0.202091888,0.142319351,-0.876170874,0.379092872,-0.034978367,0.245047584,0.489562899,0.411336392,-0.931053579,0.309272230,0.105615862,-0.955205321,0.397350997,-0.090639621,0.403148949,0.397156745,-0.012140376,0.337618053,0.391012549,-0.103217036,0.314103723,0.401445895,-0.098530933,0.566580653,0.410583049,0.114614137,0.376892328,0.392787844,-0.219552577,0.317328334,0.325265050,0.170927510,0.129635066,0.307259917,-0.226669967,0.056199532,0.408286244,0.181752846,-0.109179899,0.339454114,-0.151129425,-0.179695517,0.453938335,0.134796292,-0.190936029,0.388467222,-0.082468480,-0.240722790
0.349284619,0.016744178,-0.036901988,0.323283464,0.074933507,-0.129665419,0.328034222,-0.046523236,-0.140809923,0.321666956,0.013981476,0.072988562,0.418622732,0.248923182,-0.457036406,0.280876935,-0.007557075,-0.501107752,0.346759498,-0.009179895,0.200831085,0.406843543,0.327178478,-0.855907559,0.202091888,0.142319351,-0.876170874,0.379092872,-0.034978367,0.245047584,0.489562899,0.411336392,-0.931053579,0.309272230,0.105615862,-0.955205321,0.397350997,-0.090639621,0.403148949,0.397156745,-0.012140376,0.337618053,0.391012549,-0.103217036,0.314103723,0.401445895,-0.098530933,0.566580653,0.410583049,0.114614137,0.376892328,0.392787844,-0.219552577,0.317328334,0.325265050,0.170927510,0.129635066,0.307259917,-0.226669967,0.056199532,0.408286244,0.181752846,-0.109179899,0.339454114,-0.151129425,-0.179695517,0.453938335,0.134796292,-0.190936029,0.388467222,-0.082468480,-0.240722790
0.349284619,0.016744178,-0.036901988,0.323283464,0.074933507,-0.129665419,0.328034222,-0.046523236,-0.140809923,0.321666956,0.013981476,0.072988562,0.418622732,0.248923182,-0.457036406,0.280876935,-0.007557075,-0.501107752,0.346759498,-0.009179895,0.200831085,0.406843543,0.327178478,-0.855907559,0.202091888,0.142319351,-0.876170874,0.379092872,-0.034978367,0.245047584,0.489562899,0.411336392,-0.931053579,0.309272230,0.105615862,-0.955205321,0.397350997,-0.090639621,0.403148949,0.397156745,-0.012140376,0.337618053,0.391012549,-0.103217036,0.314103723,0.401445895,-0.098530933,0.566580653,0.410583049,0.114614137,0.376892328,0.392787844,-0.219552577,0.317328334,0.325265050,0.170927510,0.129635066,0.307259917,-0.226669967,0.056199532,0.408286244,0.181752846,-0.109179899,0.339454114,-0.151129425,-0.179695517,0.453938335,0.134796292,-0.190936029,0.388467222,-0.082468480,-0.240722790
0.349284619,0.016744178,-0.036901988,0.323283464,0.074933507,-0.129665419,0.328034222,-0.046523236,-0.140809923,0.321666956,0.013981476,0.072988562,0.418622732,0.248923182,-0.457036406,0.280876935,-0.007557075,-0.501107752,0.346759498,-0.009179895,0.200831085,0.406843543,0.327178478,-0.855907559,0.202091888,0.142319351,-0.876170874,0.379092872,-0.034978367,0.245047584,0.489562899,0.411336392,-0.931053579,0.309272230,0.105615862,-0.955205321,0.397350997,-0.090639621,0.403148949,0.397156745,-0.012140376,0.337618053,0.391012549,-0.103217036,0.314103723,0.401445895,-0.098530933,0.566580653,0.410583049,0.114614137,0.376892328,0.392787844,-0.219552577,0.317328334,0.325265050,0.170927510,0.129635066,0.307259917,-0.226669967,0.056199532,0.408286244,0.181752846,-0.109179899,0.339454114,-0.151129425,-0.179695517,0.453938335,0.134796292,-0.190936029,0.388467222,-0.082468480,-0.240722790
0.349284619,0.016744178,-0.036901988,0.323283464,0.074933507,-0.129665419,0.328034222,-0.046523236,-0.140809923,0.321666956,0.013981476,0.072988562,0.418622732,0.248923182,-0.457036406,0.280876935,-0.007557075,-0.501107752,0.346759498,-0.009179895,0.200831085,0.406843543,0.327178478,-0.855907559,0.202091888,0.142319351,-0.876170874,0.379092872,-0.034978367,0.245047584,0.489562899,0.411336392,-0.931053579,0.309272230,0.105615862,-0.955205321,0.397350997,-0.090639621,0.403148949,0.397156745,-0.012140376,0.337618053,0.391012549,-0.103217036,0.314103723,0.401445895,-0.098530933,0.566580653,0.410583049,0.114614137,0.376892328,0.392787844,-0.219552577,0.317328334,0.325265050,0.170927510,0.129635066,0.307259917,-0.226669967,0.056199532,0.408286244,0.181752846,-0.109179899,0.339454114,-0.151129425,-0.179695517,0.453938335,0.134796292,-0.190936029,0.388467222,-0.082468480,-0.240722790
0.349284619,0.016744178,-0.036901988,0.323283464,0.074933507,-0.129665419,0.328034222,-0.046523236,-0.140809923,0.321666956,0.013981476,0.072988562,0.418622732,0.248923182,-0.457036406,0.280876935,-0.007557075,-0.501107752,0.346759498,-0.009179895,0.200831085,0.406843543,0.327178478,-0.855907559,0.202091888,0.142319351,-0.876170874,0.379092872,-0.034978367,0.245047584,0.489562899,0.411336392,-0.931053579,0.309272230,0.105615862,-0.955205321,0.397350997,-0.090639621,0.403148949,0.397156745,-0.012140376,0.337618053,0.391012549,-0.103217036,0.314103723,0.401445895,-0.098530933,0.566580653,0.410583049,0.114614137,0.376892328,0.392787844,-0.219552577,0.317328334,0.325265050,0.170927510,0.129635066,0.307259917,-0.226669967,0.056199532,0.408286244,0.181752846,-0.109179899,0.339454114,-0.151129425,-0.179695517,0.453938335,0.134796292,-0.190936029,0.388467222,-0.082468480,-0.240722790
0.349284619,0.016744178,-0.036901988,0.323283464,0.074933507,-0.129665419,0.328034222,-0.046523236,-0.140809923,0.321666956,0.013981476,0.072988562,0.418622732,0.248923182,-0.457036406,0.280876935,-0.007557075,-0.501107752,0.346759498,-0.009179895,0.200831085,0.406843543,0.327178478,-0.855907559,0.202091888,0.142319351,-0.876170874,0.379092872,-0.034978367,0.245047584,0.489562899,0.411336392,-0.931053579,0.309272230,0.105615862,-0.955205321,0.397350997,-0.090639621,0.403148949,0.397156745,-0.012140376,0.337618053,0.391012549,-0.103217036,0.314103723,0.401445895,-0.098530933,0.566580653,0.410583049,0.114614137,0.376892328,0.392787844,-0.219552577,0.317328334,0.325265050,0.170927510,0.129635066,0.307259917,-0.226669967,0.056199532,0.408286244,0.181752846,-0.109179899,0.339454114,-0.151129425,-0.179695517,0.453938335,0.134796292,-0.190936029,0.388467222,-0.082468480,-0.240722790
0.349284619,0.016744178,-0.036901988,0.323283464,0.074933507,-0.129665419,0.328034222,-0.046523236,-0.140809923,0.321666956,0.013981476,0.072988562,0.418622732,0.248923182,-0.457036406,0.280876935,-0.007557075,-0.501107752,0.346759498,-0.009179895,0.200831085,0.406843543,0.327178478,-0.855907559,0.202091888,0.142319351,-0.876170874,0.379092872,-0.034978367,0.245047584,0.489562899,0.411336392,-0.931053579,0.309272230,0.105615862,-0.955205321,0.397350997,-0.090639621,0.403148949,0.397156745,-0.012140376,0.337618053,0.391012549,-0.103217036,0.314103723,0.401445895,-0.098530933,0.566580653,0.410583049,0.114614137,0.376892328,0.392787844,-0.219552577,0.317328334,0.325265050,0.170927510,0.129635066,0.307259917,-0.226669967,0.056199532,0.408286244,0.181752846,-0.109179899,0.339454114,-0.151129425,-0.179695517,0.453938335,0.134796292,-0.190936029,0.388467222,-0.082468480,-0.240722790
0.349284619,0.016744178,-0.036901988,0.323283464,0.074933507,-0.129665419,0.328034222,-0.046523236,-0.140809923,0.321666956,0.013981476,0.072988562,0.418622732,0.248923182,-0.457036406,0.280876935,-0.007557075,-0.501107752,0.346759498,-0.009179895,0.200831085,0.406843543,0.327178478,-0.855907559,0.202091888,0.142319351,-0.876170874,0.379092872,-0.034978367,0.245047584,0.489562899,0.411336392,-0.931053579,0.309272230,0.105615862,-0.955205321,0.397350997,-0.090639621,0.403148949,0.397156745,-0.012140376,0.337618053,0.391012549,-0.103217036,0.314103723,0.401445895,-0.098530933,0.566580653,0.410583049,0.114614137,0.376892328,0.392787844,-0.219552577,0.317328334,0.325265050,0.170927510,0.129635066,0.307259917,-0.226669967,0.056199532,0.408286244,0.181752846,-0.109179899,0.339454114,-0.151129425,-0.179695517,0.453938335,0.134796292,-0.190936029,0.388467222,-0.082468480,-0.240722790
0.349284619,0.016744178,-0.036901988,0.323283464,0.074933507,-0.129665419,0.328034222,-0.046523236,-0.140809923,0.321666956,0.013981476,0.072988562,0.418622732,0.248923182,-0.457036406,0.280876935,-0.007557075,-0.501107752,0.346759498,-0.009179895,0.200831085,0.406843543,0.327178478,-0.855907559,0.202091888,0.142319351,-0.876170874,0.379092872,-0.034978367,0.245047584,0.489562899,0.411336392,-0.931053579,0.309272230,0.105615862,-0.955205321,0.397350997,-0.090639621,0.403148949,0.397156745,-0.012140376,0.337618053,0.391012549,-0.103217036,0.314103723,0.401445895,-0.098530933,0.566580653,0.410583049,0.114614137,0.376892328,0.392787844,-0.219552577,0.317328334,0.325265050,0.170927510,0.129635066,0.307259917,-0.226669967,0.056199532,0.408286244,0.181752846,-0.109179899,0.339454114,-0.151129425,-0.179695517,0.453938335,0.134796292,-0.190936029,0.388467222,-0.082468480,-0.240722790
0.349284619,0.016744178,-0.036901988,0.323283464,0.074933507,-0.129665419,0.328034222,-0.046523236,-0.140809923,0.321666956,0.013981476,0.072988562,0.418622732,0.248923182,-0.457036406,0.280876935,-0.007557075,-0.501107752,0.346759498,-0.009179895,0.200831085,0.406843543,0.327178478,-0.855907559,0.202091888,0.142319351,-0.876170874,0.379092872,-0.034978367,0.245047584,0.489562899,0.411336392,-0.931053579,0.309272230,0.105615862,-0.955205321,0.397350997,-0.090639621,0.403148949,0.397156745,-0.012140376,0.337618053,0.391012549,-0.103217036,0.314103723,0.401445895,-0.098530933,0.566580653,0.410583049,0.114614137,0.376892328,0.392787844,-0.219552577,0.317328334,0.325265050,0.170927510,0.129635066,0.307259917,-0.226669967,0.056199532,0.408286244,0.181752846,-0.109179899,0.339454114,-0.151129425,-0.179695517,0.453938335,0.134796292,-0.190936029,0.388467222,-0.082468480,-0.240722790
0.349284619,0.016744178,-0.036901988,0.323283464,0.074933507,-0.129665419,0.328034222,-0.046523236,-0.140809923,0.321666956,0.013981476,0.072988562,0.418622732,0.248923182,-0.457036406,0.280876935,-0.007557075,-0.501107752,0.346759498,-0.009179895,0.200831085,0.406843543,0.327178478,-0.855907559,0.202091888,0.142319351,-0.876170874,0.379092872,-0.034978367,0.245047584,0.489562899,0.411336392,-0.931053579,0.309272230,0.105615862,-0.955205321,0.397350997,-0.090639621,0.403148949,0.397156745,-0.012140376,0.337618053,0.391012549,-0.103217036,0.314103723,0.401445895,-0.098530933,0.566580653,0.410583049,0.114614137,0.376892328,0.392787844,-0.219552577,0.317328334,0.325265050,0.170927510,0.129635066,0.307259917,-0.226669967,0.056199532,0.408286244,0.181752846,-0.109179899,0.339454114,-0.151129425,-0.179695517,0.453938335,0.134796292,-0.190936029,0.388467222,-0.082468480,-0.240722790
0.349284619,0.016744178,-0.036901988,0.323283464,0.074933507,-0.129665419,0.328034222,-0.046523236,-0.140809923,0.321666956,0.013981476,0.072988562,0.418622732,0.248923182,-0.457036406,0.280876935,-0.007557075,-0.501107752,0.346759498,-0.009179895,0.200831085,0.406843543,0.327178478,-0.855907559,0.202091888,0.142319351,-0.876170874,0.379092872,-0.034978367,0.245047584,0.489562899,0.411336392,-0.931053579,0.309272230,0.105615862,-0.955205321,0.397350997,-0.090639621,0.403148949,0.397156745,-0.012140376,0.337618053,0.391012549,-0.103217036,0.314103723,0.401445895,-0.098530933,0.566580653,0.410583049,0.114614137,0.376892328,0.392787844,-0.219552577,0.317328334,0.325265050,0.170927510,0.129635066,0.307259917,-0.226669967,0.056199532,0.408286244,0.181752846,-0.109179899,0.339454114,-0.151129425,-0.179695517,0.453938335,0.134796292,-0.190936029,0.388467222,-0.082468480,-0.240722790
0.349284619,0.016744178,-0.036901988,0.323283464,0.074933507,-0.129665419,0.328034222,-0.046523236,-0.140809923,0.321666956,0.013981476,0.072988562,0.418622732,0.248923182,-0.457036406,0.280876935,-0.007557075,-0.501107752,0.346759498,-0.009179895,0.200831085,0.406843543,0.327178478,-0.855907559,0.202091888,0.142319351,-0.876170874,0.379092872,-0.034978367,0.245047584,0.489562899,0.411336392,-0.931053579,0.309272230,0.105615862,-0.955205321,0.397350997,-0.090639621,0.403148949,0.397156745,-0.012140376,0.337618053,0.391012549,-0.103217036,0.314103723,0.401445895,-0.098530933,0.566580653,0.410583049,0.114614137,0.376892328,0.392787844,-0.219552577,0.317328334,0.325265050,0.170927510,0.129635066,0.307259917,-0.226669967,0.056199532,0.408286244,0.181752846,-0.109179899,0.339454114,-0.151129425,-0.179695517,0.453938335,0.134796292,-0.190936029,0.388467222,-0.082468480,-0.240722790
0.349284619,0.016744178,-0.036901988,0.323283464,0.074933507,-0.129665419,0.328034222,-0.046523236,-0.140809923,0.321666956,0.013981476,0.072988562,0.418622732,0.248923182,-0.457036406,0.280876935,-0.007557075,-0.501107752,0.346759498,-0.009179895,0.200831085,0.406843543,0.327178478,-0.855907559,0.202091888,0.142319351,-0.876170874,0.379092872,-0.034978367,0.245047584,0.489562899,0.411336392,-0.931053579,0.309272230,0.105615862,-0.955205321,0.397350997,-0.090639621,0.403148949,0.397156745,-0.012140376,0.337618053,0.391012549,-0.103217036,0.314103723,0.401445895,-0.098530933,0.566580653,0.410583049,0.114614137,0.376892328,0.392787844,-0.219552577,0.317328334,0.325265050,0.170927510,0.129635066,0.307259917,-0.226669967,0.056199532,0.408286244,0.181752846,-0.109179899,0.339454114,-0.151129425,-0.179695517,0.453938335,0.134796292,-0.190936029,0.388467222,-0.082468480,-0.240722790
0.349284619,0.016744178,-0.036901988,0.323283464,0.074933507,-0.129665419,0.328034222,-0.046523236,-0.140809923,0.321666956,0.013981476,0.072988562,0.418622732,0.248923182,-0.457036406,0.280876935,-0.007557075,-0.501107752,0.346759498,-0.009179895,0.200831085,0.406843543,0.327178478,-0.855907559,0.202091888,0.142319351,-0.876170874,0.379092872,-0.034978367,0.245047584,0.489562899,0.411336392,-0.931053579,0.309272230,0.105615862,-0.955205321,0.397350997,-0.090639621,0.403148949,0.397156745,-0.012140376,0.337618053,0.391012549,-0.103217036,0.314103723,0.401445895,-0.098530933,0.566580653,0.410583049,0.114614137,0.376892328,0.392787844,-0.219552577,0.317328334,0.325265050,0.170927510,0.129635066,0.307259917,-0.226669967,0.056199532,0.408286244,0.181752846,-0.109179899,0.339454114,-0.151129425,-0.179695517,0.453938335,0.134796292,-0.190936029,0.388467222,-0.082468480,-0.240722790
0.349284619,0.016744178,-0.036901988,0.323283464,0.074933507,-0.129665419,0.328034222,-0.046523236,-0.140809923,0.321666956,0.013981476,0.072988562,0.418622732,0.248923182,-0.457036406,0.280876935,-0.007557075,-0.501107752,0.346759498,-0.009179895,0.200831085,0.406843543,0.327178478,-0.855907559,0.202091888,0.142319351,-0.876170874,0.379092872,-0.034978367,0.245047584,0.489562899,0.411336392,-0.931053579,0.309272230,0.105615862,-0.955205321,0.397350997,-0.090639621,0.403148949,0.397156745,-0.012140376,0.337618053,0.391012549,-0.103217036,0.314103723,0.401445895,-0.098530933,0.566580653,0.410583049,0.114614137,0.376892328,0.392787844,-0.219552577,0.317328334,0.325265050,0.170927510,0.129635066,0.307259917,-0.226669967,0.056199532,0.408286244,0.181752846,-0.109179899,0.339454114,-0.151129425,-0.179695517,0.453938335,0.134796292,-0.190936029,0.388467222,-0.082468480,-0.240722790
0.349284619,0.016744178,-0.036901988,0.323283464,0.074933507,-0.129665419,0.328034222,-0.046523236,-0.140809923,0.321666956,0.013981476,0.072988562,0.418622732,0.248923182,-0.457036406,0.280876935,-0.007557075,-0.501107752,0.346759498,-0.009179895,0.200831085,0.406843543,0.327178478,-0.855907559,0.202091888,0.142319351,-0.876170874,0.379092872,-0.034978367,0.245047584,0.489562899,0.411336392,-0.931053579,0.309272230,0.105615862,-0.955205321,0.397350997,-0.090639621,0.403148949,0.397156745,-0.012140376,0.337618053,0.391012549,-0.103217036,0.314103723,0.401445895,-0.098530933,0.566580653,0.410583049,0.114614137,0.376892328,0.392787844,-0.219552577,0.317328334,0.325265050,0.170927510,0.129635066,0.307259917,-0.226669967,0.056199532,0.408286244,0.181752846,-0.109179899,0.339454114,-0.151129425,-0.179695517,0.453938335,0.134796292,-0.190936029,0.388467222,-0.082468480,-0.240722790
0.349284619,0.016744178,-0.036901988,0.323283464,0.074933507,-0.129665419,0.328034222,-0.046523236,-0.140809923,0.321666956,0.013981476,0.072988562,0.418622732,0.248923182,-0.457036406,0.280876935,-0.007557075,-0.501107752,0.346759498,-0.009179895,0.200831085,0.406843543,0.327178478,-0.855907559,0.202091888,0.142319351,-0.876170874,0.379092872,-0.034978367,0.245047584,0.489562899,0.411336392,-0.931053579,0.309272230,0.105615862,-0.955205321,0.397350997,-0.090639621,0.403148949,0.397156745,-0.012140376,0.337618053,0.391012549,-0.103217036,0.314103723,0.401445895,-0.098530933,0.566580653,0.410583049,0.114614137,0.376892328,0.392787844,-0.219552577,0.317328334,0.325265050,0.170927510,0.129635066,0.307259917,-0.226669967,0.056199532,0.408286244,0.181752846,-0.109179899,0.339454114,-0.151129425,-0.179695517,0.453938335,0.134796292,-0.190936029,0.388467222,-0.082468480,-0.240722790
0.349284619,0.016744178,-0.036901988,0.323283464,0.074933507,-0.129665419,0.328034222,-0.046523236,-0.140809923,0.321666956,0.013981476,0.072988562,0.418622732,0.248923182,-0.457036406,0.280876935,-0.007557075,-0.501107752,0.346759498,-0.009179895,0.200831085,0.406843543,0.327178478,-0.855907559,0.202091888,0.142319351,-0.876170874,0.379092872,-0.034978367,0.245047584,0.489562899,0.411336392,-0.931053579,0.309272230,0.105615862,-0.955205321,0.397350997,-0.090639621,0.403148949,0.397156745,-0.012140376,0.337618053,0.391012549,-0.103217036,0.314103723,0.401445895,-0.098530933,0.566580653,0.410583049,0.114614137,0.376892328,0.392787844,-0.219552577,0.317328334,0.325265050,0.170927510,0.129635066,0.307259917,-0.226669967,0.056199532,0.408286244,0.181752846,-0.109179899,0.339454114,-0.151129425,-0.179695517,0.453938335,0.134796292,-0.190936029,0.388467222,-0.082468480,-0.240722790
0.349284619,0.016744178,-0.036901988,0.323283464,0.074933507,-0.129665419,0.328034222,-0.046523236,-0.140809923,0.321666956,0.013981476,0.072988562,0.418622732,0.248923182,-0.457036406,0.280876935,-0.007557075,-0.501107752,0.346759498,-0.009179895,0.200831085,0.406843543,0.327178478,-0.855907559,0.202091888,0.142319351,-0.876170874,0.379092872,-0.034978367,0.245047584,0.489562899,0.411336392,-0.931053579,0.309272230,0.105615862,-0.955205321,0.397350997,-0.090639621,0.403148949,0.397156745,-0.012140376,0.337618053,0.391012549,-0.103217036,0.314103723,0.401445895,-0.098530933,0.566580653,0.410583049,0.114614137,0.376892328,0.392787844,-0.219552577,0.317328334,0.325265050,0.170927510,0.129635066,0.307259917,-0.226669967,0.056199532,0.408286244,0.181752846,-0.109179899,0.339454114,-0.151129425,-0.179695517,0.453938335,0.134796292,-0.190936029,0.388467222,-0.082468480,-0.240722790
0.349284619,0.016744178,-0.036901988,0.323283464,0.074933507,-0.129665419,0.328034222,-0.046523236,-0.140809923,0.321666956,0.013981476,0.072988562,0.418622732,0.248923182,-0.457036406,0.280876935,-0.007557075,-0.501107752,0.346759498,-0.009179895,0.200831085,0.406843543,0.327178478,-0.855907559,0.202091888,0.142319351,-0.876170874,0.379092872,-0.034978367,0.245047584,0.489562899,0.411336392,-0.931053579,0.309272230,0.105615862,-0.955205321,0.397350997,-0.090639621,0.403148949,0.397156745,-0.012140376,0.337618053,0.391012549,-0.103217036,0.314103723,0.401445895,-0.098530933,0.566580653,0.410583049,0.114614137,0.376892328,0.392787844,-0.219552577,0.317328334,0.325265050,0.170927510,0.129635066,0.307259917,-0.226669967,0.056199532,0.408286244,0.181752846,-0.109179899,0.339454114,-0.151129425,-0.179695517,0.453938335,0.134796292,-0.190936029,0.388467222,-0.082468480,-0.240722790
0.349284619,0.016744178,-0.036901988,0.323283464,0.074933507,-0.129665419,0.328034222,-0.046523236,-0.140809923,0.321666956,0.013981476,0.072988562,0.418622732,0.248923182,-0.457036406,0.280876935,-0.007557075,-0.501107752,0.346759498,-0.009179895,0.200831085,0.406843543,0.327178478,-0.855907559,0.202091888,0.142319351,-0.876170874,0.379092872,-0.034978367,0.245047584,0.489562899,0.411336392,-0.931053579,0.309272230,0.105615862,-0.955205321,0.397350997,-0.090639621,0.403148949,0.397156745,-0.012140376,0.337618053,0.391012549,-0.103217036,0.314103723,0.401445895,-0.098530933,0.566580653,0.410583049,0.114614137,0.376892328,0.392787844,-0.219552577,0.317328334,0.325265050,0.170927510,0.129635066,0.307259917,-0.226669967,0.056199532,0.408286244,0.181752846,-0.109179899,0.339454114,-0.151129425,-0.179695517,0.453938335,0.134796292,-0.190936029,0.388467222,-0.082468480,-0.240722790
0.349284619,0.016744178,-0.036901988,0.323283464,0.074933507,-0.129665419,0.328034222,-0.046523236,-0.140809923,0.321666956,0.013981476,0.072988562,0.418622732,0.248923182,-0.457036406,0.280876935,-0.007557075,-0.501107752,0.346759498,-0.009179895,0.200831085,0.406843543,0.327178478,-0.855907559,0.202091888,0.142319351,-0.876170874,0.379092872,-0.034978367,0.245047584,0.489562899,0.411336392,-0.931053579,0.309272230,0.105615862,-0.955205321,0.397350997,-0.090639621,0.403148949,0.397156745,-0.012140376,0.337618053,0.391012549,-0.103217036,0.314103723,0.401445895,-0.098530933,0.566580653,0.410583049,0.114614137,0.376892328,0.392787844,-0.219552577,0.317328334,0.325265050,0.170927510,0.129635066,0.307259917,-0.226669967,0.056199532,0.408286244,0.181752846,-0.109179899,0.339454114,-0.151129425,-0.179695517,0.453938335,0.134796292,-0.190936029,0.388467222,-0.082468480,-0.240722790
0.349284619,0.016744178,-0.036901988,0.323283464,0.074933507,-0.129665419,0.328034222,-0.046523236,-0.140809923,0.321666956,0.013981476,0.072988562,0.418622732,0.248923182,-0.457036406,0.280876935,-0.007557075,-0.501107752,0.346759498,-0.009179895,0.200831085,0.406843543,0.327178478,-0.855907559,0.202091888,0.142319351,-0.876170874,0.379092872,-0.034978367,0.245047584,0.489562899,0.411336392,-0.931053579,0.309272230,0.105615862,-0.955205321,0.397350997,-0.090639621,0.403148949,0.397156745,-0.012140376,0.337618053,0.391012549,-0.103217036,0.314103723,0.401445895,-0.098530933,0.566580653,0.410583049,0.114614137,0.376892328,0.392787844,-0.219552577,0.317328334,0.325265050,0.170927510,0.129635066,0.307259917,-0.226669967,0.056199532,0.408286244,0.181752846,-0.109179899,0.339454114,-0.151129425,-0.179695517,0.453938335,0.134796292,-0.190936029,0.388467222,-0.082468480,-0.240722790
0.349284619,0.016744178,-0.036901988,0.323283464,0.074933507,-0.129665419,0.328034222,-0.046523236,-0.140809923,0.321666956,0.013981476,0.072988562,0.418622732,0.248923182,-0.457036406,0.280876935,-0.007557075,-0.501107752,0.346759498,-0.009179895,0.200831085,0.406843543,0.327178478,-0.855907559,0.202091888,0.142319351,-0.876170874,0.379092872,-0.034978367,0.245047584,0.489562899,0.411336392,-0.931053579,0.309272230,0.105615862,-0.955205321,0.397350997,-0.090639621,0.403148949,0.397156745,-0.012140376,0.337618053,0.391012549,-0.103217036,0.314103723,0.401445895,-0.098530933,0.566580653,0.410583049,0.114614137,0.376892328,0.392787844,-0.219552577,0.317328334,0.325265050,0.170927510,0.129635066,0.307259917,-0.226669967,0.056199532,0.408286244,0.181752846,-0.109179899,0.339454114,-0.151129425,-0.179695517,0.453938335,0.134796292,-0.190936029,0.388467222,-0.082468480,-0.240722790
0.349284619,0.016744178,-0.036901988,0.323283464,0.074933507,-0.129665419,0.328034222,-0.046523236,-0.140809923,0.321666956,0.013981476,0.072988562,0.418622732,0.248923182,-0.457036406,0.280876935,-0.007557075,-0.501107752,0.346759498,-0.009179895,0.200831085,0.406843543,0.327178478,-0.855907559,0.202091888,0.142319351,-0.876170874,0.379092872,-0.034978367,0.245047584,0.489562899,0.411336392,-0.931053579,0.309272230,0.105615862,-0.955205321,0.397350997,-0.090639621,0.403148949,0.397156745,-0.012140376,0.337618053,0.391012549,-0.103217036,0.314103723,0.401445895,-0.098530933,0.566580653,0.410583049,0.114614137,0.376892328,0.392787844,-0.219552577,0.317328334,0.325265050,0.170927510,0.129635066,0.307259917,-0.226669967,0.056199532,0.408286244,0.181752846,-0.109179899,0.339454114,-0.151129425,-0.179695517,0.453938335,0.134796292,-0.190936029,0.388467222,-0.082468480,-0.240722790
0.349284619,0.016744178,-0.036901988,0.323283464,0.074933507,-0.129665419,0.328034222,-0.046523236,-0.140809923,0.321666956,0.013981476,0.072988562,0.418622732,0.248923182,-0.457036406,0.280876935,-0.007557075,-0.501107752,0.346759498,-0.009179895,0.200831085,0.406843543,0.327178478,-0.855907559,0.202091888,0.142319351,-0.876170874,0.379092872,-0.034978367,0.245047584,0.489562899,0.411336392,-0.931053579,0.309272230,0.105615862,-0.955205321,0.397350997,-0.090639621,0.403148949,0.397156745,-0.012140376,0.337618053,0.391012549,-0.103217036,0.314103723,0.401445895,-0.098530933,0.566580653,0.410583049,0.114614137,0.376892328,0.392787844,-0.219552577,0.317328334,0.325265050,0.170927510,0.129635066,0.307259917,-0.226669967,0.056199532,0.408286244,0.181752846,-0.109179899,0.339454114,-0.151129425,-0.179695517,0.453938335,0.134796292,-0.190936029,0.388467222,-0.082468480,-0.240722790
0.349284619,0.016744178,-0.036901988,0.323283464,0.074933507,-0.129665419,0.328034222,-0.046523236,-0.140809923,0.321666956,0.013981476,0.072988562,0.418622732,0.248923182,-0.457036406,0.280876935,-0.007557075,-0.501107752,0.346759498,-0.009179895,0.200831085,0.406843543,0.327178478,-0.855907559,0.202091888,0.142319351,-0.876170874,0.379092872,-0.034978367,0.245047584,0.489562899,0.411336392,-0.931053579,0.309272230,0.105615862,-0.955205321,0.397350997,-0.090639621,0.403148949,0.397156745,-0.012140376,0.337618053,0.391012549,-0.103217036,0.314103723,0.401445895,-0.098530933,0.566580653,0.410583049,0.114614137,0.376892328,0.392787844,-0.219552577,0.317328334,0.325265050,0.170927510,0.129635066,0.307259917,-0.226669967,0.056199532,0.408286244,0.181752846,-0.109179899,0.339454114,-0.151129425,-0.179695517,0.453938335,0.134796292,-0.190936029,0.388467222,-0.082468480,-0.240722790
0.349284619,0.016744178,-0.036901988,0.323283464,0.074933507,-0.129665419,0.328034222,-0.046523236,-0.140809923,0.321666956,0.013981476,0.072988562,0.418622732,0.248923182,-0.457036406,0.280876935,-0.007557075,-0.501107752,0.346759498,-0.009179895,0.200831085,0.406843543,0.327178478,-0.855907559,0.202091888,0.142319351,-0.876170874,0.379092872,-0.034978367,0.245047584,0.489562899,0.411336392,-0.931053579,0.309272230,0.105615862,-0.955205321,0.397350997,-0.090639621,0.403148949,0.397156745,-0.012140376,0.337618053,0.391012549,-0.103217036,0.314103723,0.401445895,-0.098530933,0.566580653,0.410583049,0.114614137,0.376892328,0.392787844,-0.219552577,0.317328334,0.325265050,0.170927510,0.129635066,0.307259917,-0.226669967,0.056199532,0.408286244,0.181752846,-0.109179899,0.339454114,-0.151129425,-0.179695517,0.453938335,0.134796292,-0.190936029,0.388467222,-0.082468480,-0.240722790
0.349284619,0.016744178,-0.036901988,0.323283464,0.074933507,-0.129665419,0.328034222,-0.046523236,-0.140809923,0.321666956,0.013981476,0.072988562,0.418622732,0.248923182,-0.457036406,0.280876935,-0.007557075,-0.501107752,0.346759498,-0.009179895,0.200831085,0.406843543,0.327178478,-0.855907559,0.202091888,0.142319351,-0.876170874,0.379092872,-0.034978367,0.245047584,0.489562899,0.411336392,-0.931053579,0.309272230,0.105615862,-0.955205321,0.397350997,-0.090639621,0.403148949,0.397156745,-0.012140376,0.337618053,0.391012549,-0.103217036,0.314103723,0.401445895,-0.098530933,0.566580653,0.410583049,0.114614137,0.376892328,0.392787844,-0.219552577,0.317328334,0.325265050,0.170927510,0.129635066,0.307259917,-0.226669967,0.056199532,0.408286244,0.181752846,-0.109179899,0.339454114,-0.151129425,-0.179695517,0.453938335,0.134796292,-0.190936029,0.388467222,-0.082468480,-0.240722790
0.349284619,0.016744178,-0.036901988,0.323283464,0.074933507,-0.129665419,0.328034222,-0.046523236,-0.140809923,0.321666956,0.013981476,0.072988562,0.418622732,0.248923182,-0.457036406,0.280876935,-0.007557075,-0.501107752,0.346759498,-0.009179895,0.200831085,0.406843543,0.327178478,-0.855907559,0.202091888,0.142319351,-0.876170874,0.379092872,-0.034978367,0.245047584,0.489562899,0.411336392,-0.931053579,0.309272230,0.105615862,-0.955205321,0.397350997,-0.090639621,0.403148949,0.397156745,-0.012140376,0.337618053,0.391012549,-0.103217036,0.314103723,0.401445895,-0.098530933,0.566580653,0.410583049,0.114614137,0.376892328,0.392787844,-0.219552577,0.317328334,0.325265050,0.170927510,0.129635066,0.307259917,-0.226669967,0.056199532,0.408286244,0.181752846,-0.109179899,0.339454114,-0.151129425,-0.179695517,0.453938335,0.134796292,-0.190936029,0.388467222,-0.082468480,-0.240722790
0.349284619,0.016744178,-0.036901988,0.323283464,0.074933507,-0.129665419,0.328034222,-0.046523236,-0.140809923,0.321666956,0.013981476,0.072988562,0.418622732,0.248923182,-0.457036406,0.280876935,-0.007557075,-0.501107752,0.346759498,-0.009179895,0.200831085,0.406843543,0.327178478,-0.855907559,0.202091888,0.142319351,-0.876170874,0.379092872,-0.034978367,0.245047584,0.489562899,0.411336392,-0.931053579,0.309272230,0.105615862,-0.955205321,0.397350997,-0.090639621,0.403148949,0.397156745,-0.012140376,0.337618053,0.391012549,-0.103217036,0.314103723,0.401445895,-0.098530933,0.566580653,0.410583049,0.114614137,0.376892328,0.392787844,-0.219552577,0.317328334,0.325265050,0.170927510,0.129635066,0.307259917,-0.226669967,0.056199532,0.408286244,0.181752846,-0.109179899,0.339454114,-0.151129425,-0.179695517,0.453938335,0.134796292,-0.190936029,0.388467222,-0.082468480,-0.240722790
0.349284619,0.016744178,-0.036901988,0.323283464,0.074933507,-0.129665419,0.328034222,-0.046523236,-0.140809923,0.321666956,0.013981476,0.072988562,0.418622732,0.248923182,-0.457036406,0.280876935,-0.007557075,-0.501107752,0.346759498,-0.009179895,0.200831085,0.406843543,0.327178478,-0.855907559,0.202091888,0.142319351,-0.876170874,0.379092872,-0.034978367,0.245047584,0.489562899,0.411336392,-0.931053579,0.309272230,0.105615862,-0.955205321,0.397350997,-0.090639621,0.403148949,0.397156745,-0.012140376,0.337618053,0.391012549,-0.103217036,0.314103723,0.401445895,-0.098530933,0.566580653,0.410583049,0.114614137,0.376892328,0.392787844,-0.219552577,0.317328334,0.325265050,0.170927510,0.129635066,0.307259917,-0.226669967,0.056199532,0.408286244,0.181752846,-0.109179899,0.339454114,-0.151129425,-0.179695517,0.453938335,0.134796292,-0.190936029,0.388467222,-0.082468480,-0.240722790
0.349284619,0.016744178,-0.036901988,0.323283464,0.074933507,-0.129665419,0.328034222,-0.046523236,-0.140809923,0.321666956,0.013981476,0.072988562,0.418622732,0.248923182,-0.457036406,0.280876935,-0.007557075,-0.501107752,0.346759498,-0.009179895,0.200831085,0.406843543,0.327178478,-0.855907559,0.202091888,0.142319351,-0.876170874,0.379092872,-0.034978367,0.245047584,0.489562899,0.411336392,-0.931053579,0.309272230,0.105615862,-0.955205321,0.397350997,-0.090639621,0.403148949,0.397156745,-0.012140376,0.337618053,0.391012549,-0.103217036,0.314103723,0.401445895,-0.098530933,0.566580653,0.410583049,0.114614137,0.376892328,0.392787844,-0.219552577,0.317328334,0.325265050,0.170927510,0.129635066,0.307259917,-0.226669967,0.056199532,0.408286244,0.181752846,-0.109179899,0.339454114,-0.151129425,-0.179695517,0.453938335,0.134796292,-0.190936029,0.388467222,-0.082468480,-0.240722790
0.349284619,0.016744178,-0.036901988,0.323283464,0.074933507,-0.129665419,0.328034222,-0.046523236,-0.140809923,0.321666956,0.013981476,0.072988562,0.418622732,0.248923182,-0.457036406,0.280876935,-0.007557075,-0.501107752,0.346759498,-0.009179895,0.200831085,0.406843543,0.327178478,-0.855907559,0.202091888,0.142319351,-0.876170874,0.379092872,-0.034978367,0.245047584,0.489562899,0.411336392,-0.931053579,0.309272230,0.105615862,-0.955205321,0.397350997,-0.090639621,0.403148949,0.397156745,-0.012140376,0.337618053,0.391012549,-0.103217036,0.314103723,0.401445895,-0.098530933,0.566580653,0.410583049,0.114614137,0.376892328,0.392787844,-0.219552577,0.317328334,0.325265050,0.170927510,0.129635066,0.307259917,-0.226669967,0.056199532,0.408286244,0.181752846,-0.109179899,0.339454114,-0.151129425,-0.179695517,0.453938335,0.134796292,-0.190936029,0.388467222,-0.082468480,-0.240722790
0.349284619,0.016744178,-0.036901988,0.323283464,0.074933507,-0.129665419,0.328034222,-0.046523236,-0.140809923,0.321666956,0.013981476,0.072988562,0.418622732,0.248923182,-0.457036406,0.280876935,-0.007557075,-0.501107752,0.346759498,-0.009179895,0.200831085,0.406843543,0.327178478,-0.855907559,0.202091888,0.142319351,-0.876170874,0.379092872,-0.034978367,0.245047584,0.489562899,0.411336392,-0.931053579,0.309272230,0.105615862,-0.955205321,0.397350997,-0.090639621,0.403148949,0.397156745,-0.012140376,0.337618053,0.391012549,-0.103217036,0.314103723,0.401445895,-0.098530933,0.566580653,0.410583049,0.114614137,0.376892328,0.392787844,-0.219552577,0.317328334,0.325265050,0.170927510,0.129635066,0.307259917,-0.226669967,0.056199532,0.408286244,0.181752846,-0.109179899,0.339454114,-0.151129425,-0.179695517,0.453938335,0.134796292,-0.190936029,0.388467222,-0.082468480,-0.240722790
0.349284619,0.016744178,-0.036901988,0.323283464,0.074933507,-0.129665419,0.328034222,-0.046523236,-0.140809923,0.321666956,0.013981476,0.072988562,0.418622732,0.248923182,-0.457036406,0.280876935,-0.007557075,-0.501107752,0.346759498,-0.009179895,0.200831085,0.406843543,0.327178478,-0.855907559,0.202091888,0.142319351,-0.876170874,0.379092872,-0.034978367,0.245047584,0.489562899,0.411336392,-0.931053579,0.309272230,0.105615862,-0.955205321,0.397350997,-0.090639621,0.403148949,0.397156745,-0.012140376,0.337618053,0.391012549,-0.103217036,0.314103723,0.401445895,-0.098530933,0.566580653,0.410583049,0.114614137,0.376892328,0.392787844,-0.219552577,0.317328334,0.325265050,0.170927510,0.129635066,0.307259917,-0.226669967,0.056199532,0.408286244,0.181752846,-0.109179899,0.339454114,-0.151129425,-0.179695517,0.453938335,0.134796292,-0.190936029,0.388467222,-0.082468480,-0.240722790
0.349284619,0.016744178,-0.036901988,0.323283464,0.074933507,-0.129665419,0.328034222,-0.046523236,-0.140809923,0.321666956,0.013981476,0.072988562,0.418622732,0.248923182,-0.457036406,0.280876935,-0.007557075,-0.501107752,0.346759498,-0.009179895,0.200831085,0.406843543,0.327178478,-0.855907559,0.202091888,0.142319351,-0.876170874,0.379092872,-0.034978367,0.245047584,0.489562899,0.411336392,-0.931053579,0.309272230,0.105615862,-0.955205321,0.397350997,-0.090639621,0.403148949,0.397156745,-0.012140376,0.337618053,0.391012549,-0.103217036,0.314103723,0.401445895,-0.098530933,0.566580653,0.410583049,0.114614137,0.376892328,0.392787844,-0.219552577,0.317328334,0.325265050,0.170927510,0.129635066,0.307259917,-0.226669967,0.056199532,0.408286244,0.181752846,-0.109179899,0.339454114,-0.151129425,-0.179695517,0.453938335,0.134796292,-0.190936029,0.388467222,-0.082468480,-0.240722790
0.349284619,0.016744178,-0.036901988,0.323283464,0.074933507,-0.129665419,0.328034222,-0.046523236,-0.140809923,0.321666956,0.013981476,0.072988562,0.418622732,0.248923182,-0.457036406,0.280876935,-0.007557075,-0.501107752,0.346759498,-0.009179895,0.200831085,0.406843543,0.327178478,-0.855907559,0.202091888,0.142319351,-0.876170874,0.379092872,-0.034978367,0.245047584,0.489562899,0.411336392,-0.931053579,0.309272230,0.105615862,-0.955205321,0.397350997,-0.090639621,0.403148949,0.397156745,-0.012140376,0.337618053,0.391012549,-0.103217036,0.314103723,0.401445895,-0.098530933,0.566580653,0.410583049,0.114614137,0.376892328,0.392787844,-0.219552577,0.317328334,0.325265050,0.170927510,0.129635066,0.307259917,-0.226669967,0.056199532,0.408286244,0.181752846,-0.109179899,0.339454114,-0.151129425,-0.179695517,0.453938335,0.134796292,-0.190936029,0.388467222,-0.082468480,-0.240722790
0.349284619,0.016744178,-0.036901988,0.323283464,0.074933507,-0.129665419,0.328034222,-0.046523236,-0.140809923,0.321666956,0.013981476,0.072988562,0.418622732,0.248923182,-0.457036406,0.280876935,-0.007557075,-0.501107752,0.346759498,-0.009179895,0.200831085,0.406843543,0.327178478,-0.855907559,0.202091888,0.142319351,-0.876170874,0.379092872,-0.034978367,0.245047584,0.489562899,0.411336392,-0.931053579,0.309272230,0.105615862,-0.955205321,0.397350997,-0.090639621,0.403148949,0.397156745,-0.012140376,0.337618053,0.391012549,-0.103217036,0.314103723,0.401445895,-0.098530933,0.566580653,0.410583049,0.114614137,0.376892328,0.392787844,-0.219552577,0.317328334,0.325265050,0.170927510,0.129635066,0.307259917,-0.226669967,0.056199532,0.408286244,0.181752846,-0.109179899,0.339454114,-0.151129425,-0.179695517,0.453938335,0.134796292,-0.190936029,0.388467222,-0.082468480,-0.240722790
0.349284619,0.016744178,-0.036901988,0.323283464,0.074933507,-0.129665419,0.328034222,-0.046523236,-0.140809923,0.321666956,0.013981476,0.072988562,0.418622732,0.248923182,-0.457036406,0.280876935,-0.007557075,-0.501107752,0.346759498,-0.009179895,0.200831085,0.406843543,0.327178478,-0.855907559,0.202091888,0.142319351,-0.876170874,0.379092872,-0.034978367,0.245047584,0.489562899,0.411336392,-0.931053579,0.309272230,0.105615862,-0.955205321,0.397350997,-0.090639621,0.403148949,0.397156745,-0.012140376,0.337618053,0.391012549,-0.103217036,0.314103723,0.401445895,-0.098530933,0.566580653,0.410583049,0.114614137,0.376892328,0.392787844,-0.219552577,0.317328334,0.325265050,0.170927510,0.129635066,0.307259917,-0.226669967,0.056199532,0.408286244,0.181752846,-0.109179899,0.339454114,-0.151129425,-0.179695517,0.453938335,0.134796292,-0.190936029,0.388467222,-0.082468480,-0.240722790
0.349284619,0.016744178,-0.036901988,0.323283464,0.074933507,-0.129665419,0.328034222,-0.046523236,-0.140809923,0.321666956,0.013981476,0.072988562,0.418622732,0.248923182,-0.457036406,0.280876935,-0.007557075,-0.501107752,0.346759498,-0.009179895,0.200831085,0.406843543,0.327178478,-0.855907559,0.202091888,0.142319351,-0.876170874,0.379092872,-0.034978367,0.245047584,0.489562899,0.411336392,-0.931053579,0.309272230,0.105615862,-0.955205321,0.397350997,-0.090639621,0.403148949,0.397156745,-0.012140376,0.337618053,0.391012549,-0.103217036,0.314103723,0.401445895,-0.098530933,0.566580653,0.410583049,0.114614137,0.376892328,0.392787844,-0.219552577,0.317328334,0.325265050,0.170927510,0.129635066,0.307259917,-0.226669967,0.056199532,0.408286244,0.181752846,-0.109179899,0.339454114,-0.151129425,-0.179695517,0.453938335,0.134796292,-0.190936029,0.388467222,-0.082468480,-0.240722790
0.349284619,0.016744178,-0.036901988,0.323283464,0.074933507,-0.129665419,0.328034222,-0.046523236,-0.140809923,0.321666956,0.013981476,0.072988562,0.418622732,0.248923182,-0.457036406,0.280876935,-0.007557075,-0.501107752,0.346759498,-0.009179895,0.200831085,0.406843543,0.327178478,-0.855907559,0.202091888,0.142319351,-0.876170874,0.379092872,-0.034978367,0.245047584,0.489562899,0.411336392,-0.931053579,0.309272230,0.105615862,-0.955205321,0.397350997,-0.090639621,0.403148949,0.397156745,-0.012140376,0.337618053,0.391012549,-0.103217036,0.314103723,0.401445895,-0.098530933,0.566580653,0.410583049,0.114614137,0.376892328,0.392787844,-0.219552577,0.317328334,0.325265050,0.170927510,0.129635066,0.307259917,-0.226669967,0.056199532,0.408286244,0.181752846,-0.109179899,0.339454114,-0.151129425,-0.179695517,0.453938335,0.134796292,-0.190936029,0.388467222,-0.082468480,-0.240722790
0.349284619,0.016744178,-0.036901988,0.323283464,0.074933507,-0.129665419,0.328034222,-0.046523236,-0.140809923,0.321666956,0.013981476,0.072988562,0.418622732,0.248923182,-0.457036406,0.280876935,-0.007557075,-0.501107752,0.346759498,-0.009179895,0.200831085,0.406843543,0.327178478,-0.855907559,0.202091888,0.142319351,-0.876170874,0.379092872,-0.034978367,0.245047584,0.489562899,0.411336392,-0.931053579,0.309272230,0.105615862,-0.955205321,0.397350997,-0.090639621,0.403148949,0.397156745,-0.012140376,0.337618053,0.391012549,-0.103217036,0.314103723,0.401445895,-0.098530933,0.566580653,0.410583049,0.114614137,0.376892328,0.392787844,-0.219552577,0.317328334,0.325265050,0.170927510,0.129635066,0.307259917,-0.226669967,0.056199532,0.408286244,0.181752846,-0.109179899,0.339454114,-0.151129425,-0.179695517,0.453938335,0.134796292,-0.190936029,0.388467222,-0.082468480,-0.240722790
0.349284619,0.016744178,-0.036901988,0.323283464,0.074933507,-0.129665419,0.328034222,-0.046523236,-0.140809923,0.321666956,0.013981476,0.072988562,0.418622732,0.248923182,-0.457036406,0.280876935,-0.007557075,-0.501107752,0.346759498,-0.009179895,0.200831085,0.406843543,0.327178478,-0.855907559,0.202091888,0.142319351,-0.876170874,0.379092872,-0.034978367,0.245047584,0.489562899,0.411336392,-0.931053579,0.309272230,0.105615862,-0.955205321,0.397350997,-0.090639621,0.403148949,0.397156745,-0.012140376,0.337618053,0.391012549,-0.103217036,0.314103723,0.401445895,-0.098530933,0.566580653,0.410583049,0.114614137,0.376892328,0.392787844,-0.219552577,0.317328334,0.325265050,0.170927510,0.129635066,0.307259917,-0.226669967,0.056199532,0.408286244,0.181752846,-0.109179899,0.339454114,-0.151129425,-0.179695517,0.453938335,0.134796292,-0.190936029,0.388467222,-0.082468480,-0.240722790
0.349284619,0.016744178,-0.036901988,0.323283464,0.074933507,-0.129665419,0.328034222,-0.046523236,-0.140809923,0.321666956,0.013981476,0.072988562,0.418622732,0.248923182,-0.457036406,0.280876935,-0.007557075,-0.501107752,0.346759498,-0.009179895,0.200831085,0.406843543,0.327178478,-0.855907559,0.202091888,0.142319351,-0.876170874,0.379092872,-0.034978367,0.245047584,0.489562899,0.411336392,-0.931053579,0.309272230,0.105615862,-0.955205321,0.397350997,-0.090639621,0.403148949,0.397156745,-0.012140376,0.337618053,0.391012549,-0.103217036,0.314103723,0.401445895,-0.098530933,0.566580653,0.410583049,0.114614137,0.376892328,0.392787844,-0.219552577,0.317328334,0.325265050,0.170927510,0.129635066,0.307259917,-0.226669967,0.056199532,0.408286244,0.181752846,-0.109179899,0.339454114,-0.151129425,-0.179695517,0.453938335,0.134796292,-0.190936029,0.388467222,-0.082468480,-0.240722790
0.349284619,0.016744178,-0.036901988,0.323283464,0.074933507,-0.129665419,0.328034222,-0.046523236,-0.140809923,0.321666956,0.013981476,0.072988562,0.418622732,0.248923182,-0.457036406,0.280876935,-0.007557075,-0.501107752,0.346759498,-0.009179895,0.200831085,0.406843543,0.327178478,-0.855907559,0.202091888,0.142319351,-0.876170874,0.379092872,-0.034978367,0.245047584,0.489562899,0.411336392,-0.931053579,0.309272230,0.105615862,-0.955205321,0.397350997,-0.090639621,0.403148949,0.397156745,-0.012140376,0.337618053,0.391012549,-0.103217036,0.314103723,0.401445895,-0.098530933,0.566580653,0.410583049,0.114614137,0.376892328,0.392787844,-0.219552577,0.317328334,0.325265050,0.170927510,0.129635066,0.307259917,-0.226669967,0.056199532,0.408286244,0.181752846,-0.109179899,0.339454114,-0.151129425,-0.179695517,0.453938335,0.134796292,-0.190936029,0.388467222,-0.082468480,-0.240722790
0.349284619,0.016744178,-0.036901988,0.323283464,0.074933507,-0.129665419,0.328034222,-0.046523236,-0.140809923,0.321666956,0.013981476,0.072988562,0.418622732,0.248923182,-0.457036406,0.280876935,-0.007557075,-0.501107752,0.346759498,-0.009179895,0.200831085,0.406843543,0.327178478,-0.855907559,0.202091888,0.142319351,-0.876170874,0.379092872,-0.034978367,0.245047584,0.489562899,0.411336392,-0.931053579,0.309272230,0.105615862,-0.955205321,0.397350997,-0.090639621,0.403148949,0.397156745,-0.012140376,0.337618053,0.391012549,-0.103217036,0.314103723,0.401445895,-0.098530933,0.566580653,0.410583049,0.114614137,0.376892328,0.392787844,-0.219552577,0.317328334,0.325265050,0.170927510,0.129635066,0.307259917,-0.226669967,0.056199532,0.408286244,0.181752846,-0.109179899,0.339454114,-0.151129425,-0.179695517,0.453938335,0.134796292,-0.190936029,0.388467222,-0.082468480,-0.240722790
0.349284619,0.016744178,-0.036901988,0.323283464,0.074933507,-0.129665419,0.328034222,-0.046523236,-0.140809923,0.321666956,0.013981476,0.072988562,0.418622732,0.248923182,-0.457036406,0.280876935,-0.007557075,-0.501107752,0.346759498,-0.009179895,0.200831085,0.406843543,0.327178478,-0.855907559,0.202091888,0.142319351,-0.876170874,0.379092872,-0.034978367,0.245047584,0.489562899,0.411336392,-0.931053579,0.309272230,0.105615862,-0.955205321,0.397350997,-0.090639621,0.403148949,0.397156745,-0.012140376,0.337618053,0.391012549,-0.103217036,0.314103723,0.401445895,-0.098530933,0.566580653,0.410583049,0.114614137,0.376892328,0.392787844,-0.219552577,0.317328334,0.325265050,0.170927510,0.129635066,0.307259917,-0.226669967,0.056199532,0.408286244,0.181752846,-0.109179899,0.339454114,-0.151129425,-0.179695517,0.453938335,0.134796292,-0.190936029,0.388467222,-0.082468480,-0.240722790
0.349284619,0.016744178,-0.036901988,0.323283464,0.074933507,-0.129665419,0.328034222,-0.046523236,-0.140809923,0.321666956,0.013981476,0.072988562,0.418622732,0.248923182,-0.457036406,0.280876935,-0.007557075,-0.501107752,0.346759498,-0.009179895,0.200831085,0.406843543,0.327178478,-0.855907559,0.202091888,0.142319351,-0.876170874,0.379092872,-0.034978367,0.245047584,0.489562899,0.411336392,-0.931053579,0.309272230,0.105615862,-0.955205321,0.397350997,-0.090639621,0.403148949,0.397156745,-0.012140376,0.337618053,0.391012549,-0.103217036,0.314103723,0.401445895,-0.098530933,0.566580653,0.410583049,0.114614137,0.376892328,0.392787844,-0.219552577,0.317328334,0.325265050,0.170927510,0.129635066,0.307259917,-0.226669967,0.056199532,0.408286244,0.181752846,-0.109179899,0.339454114,-0.151129425,-0.179695517,0.453938335,0.134796292,-0.190936029,0.388467222,-0.082468480,-0.240722790
0.349284619,0.016744178,-0.036901988,0.323283464,0.074933507,-0.129665419,0.328034222,-0.046523236,-0.140809923,0.321666956,0.013981476,0.072988562,0.418622732,0.248923182,-0.457036406,0.280876935,-0.007557075,-0.501107752,0.346759498,-0.009179895,0.200831085,0.406843543,0.327178478,-0.855907559,0.202091888,0.142319351,-0.876170874,0.379092872,-0.034978367,0.245047584,0.489562899,0.411336392,-0.931053579,0.309272230,0.105615862,-0.955205321,0.397350997,-0.090639621,0.403148949,0.397156745,-0.012140376,0.337618053,0.391012549,-0.103217036,0.314103723,0.401445895,-0.098530933,0.566580653,0.410583049,0.114614137,0.376892328,0.392787844,-0.219552577,0.317328334,0.325265050,0.170927510,0.129635066,0.307259917,-0.226669967,0.056199532,0.408286244,0.181752846,-0.109179899,0.339454114,-0.151129425,-0.179695517,0.453938335,0.134796292,-0.190936029,0.388467222,-0.082468480,-0.240722790
0.349284619,0.016744178,-0.036901988,0.323283464,0.074933507,-0.129665419,0.328034222,-0.046523236,-0.140809923,0.321666956,0.013981476,0.072988562,0.418622732,0.248923182,-0.457036406,0.280876935,-0.007557075,-0.501107752,0.346759498,-0.009179895,0.200831085,0.406843543,0.327178478,-0.855907559,0.202091888,0.142319351,-0.876170874,0.379092872,-0.034978367,0.245047584,0.489562899,0.411336392,-0.931053579,0.309272230,0.105615862,-0.955205321,0.397350997,-0.090639621,0.403148949,0.397156745,-0.012140376,0.337618053,0.391012549,-0.103217036,0.314103723,0.401445895,-0.098530933,0.566580653,0.410583049,0.114614137,0.376892328,0.392787844,-0.219552577,0.317328334,0.325265050,0.170927510,0.129635066,0.307259917,-0.226669967,0.056199532,0.408286244,0.181752846,-0.109179899,0.339454114,-0.151129425,-0.179695517,0.453938335,0.134796292,-0.190936029,0.388467222,-0.082468480,-0.240722790
0.349284619,0.016744178,-0.036901988,0.323283464,0.074933507,-0.129665419,0.328034222,-0.046523236,-0.140809923,0.321666956,0.013981476,0.072988562,0.418622732,0.248923182,-0.457036406,0.280876935,-0.007557075,-0.501107752,0.346759498,-0.009179895,0.200831085,0.406843543,0.327178478,-0.855907559,0.202091888,0.142319351,-0.876170874,0.379092872,-0.034978367,0.245047584,0.489562899,0.411336392,-0.931053579,0.309272230,0.105615862,-0.955205321,0.397350997,-0.090639621,0.403148949,0.397156745,-0.012140376,0.337618053,0.391012549,-0.103217036,0.314103723,0.401445895,-0.098530933,0.566580653,0.410583049,0.114614137,0.376892328,0.392787844,-0.219552577,0.317328334,0.325265050,0.170927510,0.129635066,0.307259917,-0.226669967,0.056199532,0.408286244,0.181752846,-0.109179899,0.339454114,-0.151129425,-0.179695517,0.453938335,0.134796292,-0.190936029,0.388467222,-0.082468480,-0.240722790
0.349284619,0.016744178,-0.036901988,0.323283464,0.074933507,-0.129665419,0.328034222,-0.046523236,-0.140809923,0.321666956,0.013981476,0.072988562,0.418622732,0.248923182,-0.457036406,0.280876935,-0.007557075,-0.501107752,0.346759498,-0.009179895,0.200831085,0.406843543,0.327178478,-0.855907559,0.202091888,0.142319351,-0.876170874,0.379092872,-0.034978367,0.245047584,0.489562899,0.411336392,-0.931053579,0.309272230,0.105615862,-0.955205321,0.397350997,-0.090639621,0.403148949,0.397156745,-0.012140376,0.337618053,0.391012549,-0.103217036,0.314103723,0.401445895,-0.098530933,0.566580653,0.410583049,0.114614137,0.376892328,0.392787844,-0.219552577,0.317328334,0.325265050,0.170927510,0.129635066,0.307259917,-0.226669967,0.056199532,0.408286244,0.181752846,-0.109179899,0.339454114,-0.151129425,-0.179695517,0.453938335,0.134796292,-0.190936029,0.388467222,-0.082468480,-0.240722790
0.349284619,0.016744178,-0.036901988,0.323283464,0.074933507,-0.129665419,0.328034222,-0.046523236,-0.140809923,0.321666956,0.013981476,0.072988562,0.418622732,0.248923182,-0.457036406,0.280876935,-0.007557075,-0.501107752,0.346759498,-0.009179895,0.200831085,0.406843543,0.327178478,-0.855907559,0.202091888,0.142319351,-0.876170874,0.379092872,-0.034978367,0.245047584,0.489562899,0.411336392,-0.931053579,0.309272230,0.105615862,-0.955205321,0.397350997,-0.090639621,0.403148949,0.397156745,-0.012140376,0.337618053,0.391012549,-0.103217036,0.314103723,0.401445895,-0.098530933,0.566580653,0.410583049,0.114614137,0.376892328,0.392787844,-0.219552577,0.317328334,0.325265050,0.170927510,0.129635066,0.307259917,-0.226669967,0.056199532,0.408286244,0.181752846,-0.109179899,0.339454114,-0.151129425,-0.179695517,0.453938335,0.134796292,-0.190936029,0.388467222,-0.082468480,-0.240722790
0.349284619,0.016744178,-0.036901988,0.323283464,0.074933507,-0.129665419,0.328034222,-0.046523236,-0.140809923,0.321666956,0.013981476,0.072988562,0.418622732,0.248923182,-0.457036406,0.280876935,-0.007557075,-0.501107752,0.346759498,-0.009179895,0.200831085,0.406843543,0.327178478,-0.855907559,0.202091888,0.142319351,-0.876170874,0.379092872,-0.034978367,0.245047584,0.489562899,0.411336392,-0.931053579,0.309272230,0.105615862,-0.955205321,0.397350997,-0.090639621,0.403148949,0.397156745,-0.012140376,0.337618053,0.391012549,-0.103217036,0.314103723,0.401445895,-0.098530933,0.566580653,0.410583049,0.114614137,0.376892328,0.392787844,-0.219552577,0.317328334,0.325265050,0.170927510,0.129635066,0.307259917,-0.226669967,0.056199532,0.408286244,0.181752846,-0.109179899,0.339454114,-0.151129425,-0.179695517,0.453938335,0.134796292,-0.190936029,0.388467222,-0.082468480,-0.240722790
0.349284619,0.016744178,-0.036901988,0.323283464,0.074933507,-0.129665419,0.328034222,-0.046523236,-0.140809923,0.321666956,0.013981476,0.072988562,0.418622732,0.248923182,-0.457036406,0.280876935,-0.007557075,-0.501107752,0.346759498,-0.009179895,0.200831085,0.406843543,0.327178478,-0.855907559,0.202091888,0.142319351,-0.876170874,0.379092872,-0.034978367,0.245047584,0.489562899,0.411336392,-0.931053579,0.309272230,0.105615862,-0.955205321,0.397350997,-0.090639621,0.403148949,0.397156745,-0.012140376,0.337618053,0.391012549,-0.103217036,0.314103723,0.401445895,-0.098530933,0.566580653,0.410583049,0.114614137,0.376892328,0.392787844,-0.219552577,0.317328334,0.325265050,0.170927510,0.129635066,0.307259917,-0.226669967,0.056199532,0.408286244,0.181752846,-0.109179899,0.339454114,-0.151129425,-0.179695517,0.453938335,0.134796292,-0.190936029,0.388467222,-0.082468480,-0.240722790
0.349284619,0.016744178,-0.036901988,0.323283464,0.074933507,-0.129665419,0.328034222,-0.046523236,-0.140809923,0.321666956,0.013981476,0.072988562,0.418622732,0.248923182,-0.457036406,0.280876935,-0.007557075,-0.501107752,0.346759498,-0.009179895,0.200831085,0.406843543,0.327178478,-0.855907559,0.202091888,0.142319351,-0.876170874,0.379092872,-0.034978367,0.245047584,0.489562899,0.411336392,-0.931053579,0.309272230,0.105615862,-0.955205321,0.397350997,-0.090639621,0.403148949,0.397156745,-0.012140376,0.337618053,0.391012549,-0.103217036,0.314103723,0.401445895,-0.098530933,0.566580653,0.410583049,0.114614137,0.376892328,0.392787844,-0.219552577,0.317328334,0.325265050,0.170927510,0.129635066,0.307259917,-0.226669967,0.056199532,0.408286244,0.181752846,-0.109179899,0.339454114,-0.151129425,-0.179695517,0.453938335,0.134796292,-0.190936029,0.388467222,-0.082468480,-0.240722790
0.349284619,0.016744178,-0.036901988,0.323283464,0.074933507,-0.129665419,0.328034222,-0.046523236,-0.140809923,0.321666956,0.013981476,0.072988562,0.418622732,0.248923182,-0.457036406,0.280876935,-0.007557075,-0.501107752,0.346759498,-0.009179895,0.200831085,0.406843543,0.327178478,-0.855907559,0.202091888,0.142319351,-0.876170874,0.379092872,-0.034978367,0.245047584,0.489562899,0.411336392,-0.931053579,0.309272230,0.105615862,-0.955205321,0.397350997,-0.090639621,0.403148949,0.397156745,-0.012140376,0.337618053,0.391012549,-0.103217036,0.314103723,0.401445895,-0.098530933,0.566580653,0.410583049,0.114614137,0.376892328,0.392787844,-0.219552577,0.317328334,0.325265050,0.170927510,0.129635066,0.307259917,-0.226669967,0.056199532,0.408286244,0.181752846,-0.109179899,0.339454114,-0.151129425,-0.179695517,0.453938335,0.134796292,-0.190936029,0.388467222,-0.082468480,-0.240722790
0.349284619,0.016744178,-0.036901988,0.323283464,0.074933507,-0.129665419,0.328034222,-0.046523236,-0.140809923,0.321666956,0.013981476,0.072988562,0.418622732,0.248923182,-0.457036406,0.280876935,-0.007557075,-0.501107752,0.346759498,-0.009179895,0.200831085,0.406843543,0.327178478,-0.855907559,0.202091888,0.142319351,-0.876170874,0.379092872,-0.034978367,0.245047584,0.489562899,0.411336392,-0.931053579,0.309272230,0.105615862,-0.955205321,0.397350997,-0.090639621,0.403148949,0.397156745,-0.012140376,0.337618053,0.391012549,-0.103217036,0.314103723,0.401445895,-0.098530933,0.566580653,0.410583049,0.114614137,0.376892328,0.392787844,-0.219552577,0.317328334,0.325265050,0.170927510,0.129635066,0.307259917,-0.226669967,0.056199532,0.408286244,0.181752846,-0.109179899,0.339454114,-0.151129425,-0.179695517,0.453938335,0.134796292,-0.190936029,0.388467222,-0.082468480,-0.240722790
0.349284619,0.016744178,-0.036901988,0.323283464,0.074933507,-0.129665419,0.328034222,-0.046523236,-0.140809923,0.321666956,0.013981476,0.072988562,0.418622732,0.248923182,-0.457036406,0.280876935,-0.007557075,-0.501107752,0.346759498,-0.009179895,0.200831085,0.406843543,0.327178478,-0.855907559,0.202091888,0.142319351,-0.876170874,0.379092872,-0.034978367,0.245047584,0.489562899,0.411336392,-0.931053579,0.309272230,0.105615862,-0.955205321,0.397350997,-0.090639621,0.403148949,0.397156745,-0.012140376,0.337618053,0.391012549,-0.103217036,0.314103723,0.401445895,-0.098530933,0.566580653,0.410583049,0.114614137,0.376892328,0.392787844,-0.219552577,0.317328334,0.325265050,0.170927510,0.129635066,0.307259917,-0.226669967,0.056199532,0.408286244,0.181752846,-0.109179899,0.339454114,-0.151129425,-0.179695517,0.453938335,0.134796292,-0.190936029,0.388467222,-0.082468480,-0.240722790
0.349284619,0.016744178,-0.036901988,0.323283464,0.074933507,-0.129665419,0.328034222,-0.046523236,-0.140809923,0.321666956,0.013981476,0.072988562,0.418622732,0.248923182,-0.457036406,0.280876935,-0.007557075,-0.501107752,0.346759498,-0.009179895,0.200831085,0.406843543,0.327178478,-0.855907559,0.202091888,0.142319351,-0.876170874,0.379092872,-0.034978367,0.245047584,0.489562899,0.411336392,-0.931053579,0.309272230,0.105615862,-0.955205321,0.397350997,-0.090639621,0.403148949,0.397156745,-0.012140376,0.337618053,0.391012549,-0.103217036,0.314103723,0.401445895,-0.098530933,0.566580653,0.410583049,0.114614137,0.376892328,0.392787844,-0.219552577,0.317328334,0.325265050,0.170927510,0.129635066,0.307259917,-0.226669967,0.056199532,0.408286244,0.181752846,-0.109179899,0.339454114,-0.151129425,-0.179695517,0.453938335,0.134796292,-0.190936029,0.388467222,-0.082468480,-0.240722790
0.349284619,0.016744178,-0.036901988,0.323283464,0.074933507,-0.129665419,0.328034222,-0.046523236,-0.140809923,0.321666956,0.013981476,0.072988562,0.418622732,0.248923182,-0.457036406,0.280876935,-0.007557075,-0.501107752,0.346759498,-0.009179895,0.200831085,0.406843543,0.327178478,-0.855907559,0.202091888,0.142319351,-0.876170874,0.379092872,-0.034978367,0.245047584,0.489562899,0.411336392,-0.931053579,0.309272230,0.105615862,-0.955205321,0.397350997,-0.090639621,0.403148949,0.397156745,-0.012140376,0.337618053,0.391012549,-0.103217036,0.314103723,0.401445895,-0.098530933,0.566580653,0.410583049,0.114614137,0.376892328,0.392787844,-0.219552577,0.317328334,0.325265050,0.170927510,0.129635066,0.307259917,-0.226669967,0.056199532,0.408286244,0.181752846,-0.109179899,0.339454114,-0.151129425,-0.179695517,0.453938335,0.134796292,-0.190936029,0.388467222,-0.082468480,-0.240722790
0.349284619,0.016744178,-0.036901988,0.323283464,0.074933507,-0.129665419,0.328034222,-0.046523236,-0.140809923,0.321666956,0.013981476,0.072988562,0.418622732,0.248923182,-0.457036406,0.280876935,-0.007557075,-0.501107752,0.346759498,-0.009179895,0.200831085,0.406843543,0.327178478,-0.855907559,0.202091888,0.142319351,-0.876170874,0.379092872,-0.034978367,0.245047584,0.489562899,0.411336392,-0.931053579,0.309272230,0.105615862,-0.955205321,0.397350997,-0.090639621,0.403148949,0.397156745,-0.012140376,0.337618053,0.391012549,-0.103217036,0.314103723,0.401445895,-0.098530933,0.566580653,0.410583049,0.114614137,0.376892328,0.392787844,-0.219552577,0.317328334,0.325265050,0.170927510,0.129635066,0.307259917,-0.226669967,0.056199532,0.408286244,0.181752846,-0.109179899,0.339454114,-0.151129425,-0.179695517,0.453938335,0.134796292,-0.190936029,0.388467222,-0.082468480,-0.240722790
0.349284619,0.016744178,-0.036901988,0.323283464,0.074933507,-0.129665419,0.328034222,-0.046523236,-0.140809923,0.321666956,0.013981476,0.072988562,0.418622732,0.248923182,-0.457036406,0.280876935,-0.007557075,-0.501107752,0.346759498,-0.009179895,0.200831085,0.406843543,0.327178478,-0.855907559,0.202091888,0.142319351,-0.876170874,0.379092872,-0.034978367,0.245047584,0.489562899,0.411336392,-0.931053579,0.309272230,0.105615862,-0.955205321,0.397350997,-0.090639621,0.403148949,0.397156745,-0.012140376,0.337618053,0.391012549,-0.103217036,0.314103723,0.401445895,-0.098530933,0.566580653,0.410583049,0.114614137,0.376892328,0.392787844,-0.219552577,0.317328334,0.325265050,0.170927510,0.129635066,0.307259917,-0.226669967,0.056199532,0.408286244,0.181752846,-0.109179899,0.339454114,-0.151129425,-0.179695517,0.453938335,0.134796292,-0.190936029,0.388467222,-0.082468480,-0.240722790
0.349284619,0.016744178,-0.036901988,0.323283464,0.074933507,-0.129665419,0.328034222,-0.046523236,-0.140809923,0.321666956,0.013981476,0.072988562,0.418622732,0.248923182,-0.457036406,0.280876935,-0.007557075,-0.501107752,0.346759498,-0.009179895,0.200831085,0.406843543,0.327178478,-0.855907559,0.202091888,0.142319351,-0.876170874,0.379092872,-0.034978367,0.245047584,0.489562899,0.411336392,-0.931053579,0.309272230,0.105615862,-0.955205321,0.397350997,-0.090639621,0.403148949,0.397156745,-0.012140376,0.337618053,0.391012549,-0.103217036,0.314103723,0.401445895,-0.098530933,0.566580653,0.410583049,0.114614137,0.376892328,0.392787844,-0.219552577,0.317328334,0.325265050,0.170927510,0.129635066,0.307259917,-0.226669967,0.056199532,0.408286244,0.181752846,-0.109179899,0.339454114,-0.151129425,-0.179695517,0.453938335,0.134796292,-0.190936029,0.388467222,-0.082468480,-0.240722790
0.349284619,0.016744178,-0.036901988,0.323283464,0.074933507,-0.129665419,0.328034222,-0.046523236,-0.140809923,0.321666956,0.013981476,0.072988562,0.418622732,0.248923182,-0.457036406,0.280876935,-0.007557075,-0.501107752,0.346759498,-0.009179895,0.200831085,0.406843543,0.327178478,-0.855907559,0.202091888,0.142319351,-0.876170874,0.379092872,-0.034978367,0.245047584,0.489562899,0.411336392,-0.931053579,0.309272230,0.105615862,-0.955205321,0.397350997,-0.090639621,0.403148949,0.397156745,-0.012140376,0.337618053,0.391012549,-0.103217036,0.314103723,0.401445895,-0.098530933,0.566580653,0.410583049,0.114614137,0.376892328,0.392787844,-0.219552577,0.317328334,0.325265050,0.170927510,0.129635066,0.307259917,-0.226669967,0.056199532,0.408286244,0.181752846,-0.109179899,0.339454114,-0.151129425,-0.179695517,0.453938335,0.134796292,-0.190936029,0.388467222,-0.082468480,-0.240722790
0.349284619,0.016744178,-0.036901988,0.323283464,0.074933507,-0.129665419,0.328034222,-0.046523236,-0.140809923,0.321666956,0.013981476,0.072988562,0.418622732,0.248923182,-0.457036406,0.280876935,-0.007557075,-0.501107752,0.346759498,-0.009179895,0.200831085,0.406843543,0.327178478,-0.855907559,0.202091888,0.142319351,-0.876170874,0.379092872,-0.034978367,0.245047584,0.489562899,0.411336392,-0.931053579,0.309272230,0.105615862,-0.955205321,0.397350997,-0.090639621,0.403148949,0.397156745,-0.012140376,0.337618053,0.391012549,-0.103217036,0.314103723,0.401445895,-0.098530933,0.566580653,0.410583049,0.114614137,0.376892328,0.392787844,-0.219552577,0.317328334,0.325265050,0.170927510,0.129635066,0.307259917,-0.226669967,0.056199532,0.408286244,0.181752846,-0.109179899,0.339454114,-0.151129425,-0.179695517,0.453938335,0.134796292,-0.190936029,0.388467222,-0.082468480,-0.240722790
0.349284619,0.016744178,-0.036901988,0.323283464,0.074933507,-0.129665419,0.328034222,-0.046523236,-0.140809923,0.321666956,0.013981476,0.072988562,0.418622732,0.248923182,-0.457036406,0.280876935,-0.007557075,-0.501107752,0.346759498,-0.009179895,0.200831085,0.406843543,0.327178478,-0.855907559,0.202091888,0.142319351,-0.876170874,0.379092872,-0.034978367,0.245047584,0.489562899,0.411336392,-0.931053579,0.309272230,0.105615862,-0.955205321,0.397350997,-0.090639621,0.403148949,0.397156745,-0.012140376,0.337618053,0.391012549,-0.103217036,0.314103723,0.401445895,-0.098530933,0.566580653,0.410583049,0.114614137,0.376892328,0.392787844,-0.219552577,0.317328334,0.325265050,0.170927510,0.129635066,0.307259917,-0.226669967,0.056199532,0.408286244,0.181752846,-0.109179899,0.339454114,-0.151129425,-0.179695517,0.453938335,0.134796292,-0.190936029,0.388467222,-0.082468480,-0.240722790
0.349284619,0.016744178,-0.036901988,0.323283464,0.074933507,-0.129665419,0.328034222,-0.046523236,-0.140809923,0.321666956,0.013981476,0.072988562,0.418622732,0.248923182,-0.457036406,0.280876935,-0.007557075,-0.501107752,0.346759498,-0.009179895,0.200831085,0.406843543,0.327178478,-0.855907559,0.202091888,0.142319351,-0.876170874,0.379092872,-0.034978367,0.245047584,0.489562899,0.411336392,-0.931053579,0.309272230,0.105615862,-0.955205321,0.397350997,-0.090639621,0.403148949,0.397156745,-0.012140376,0.337618053,0.391012549,-0.103217036,0.314103723,0.401445895,-0.098530933,0.566580653,0.410583049,0.114614137,0.376892328,0.392787844,-0.219552577,0.317328334,0.325265050,0.170927510,0.129635066,0.307259917,-0.226669967,0.056199532,0.408286244,0.181752846,-0.109179899,0.339454114,-0.151129425,-0.179695517,0.453938335,0.134796292,-0.190936029,0.388467222,-0.082468480,-0.240722790
0.349284619,0.016744178,-0.036901988,0.323283464,0.074933507,-0.129665419,0.328034222,-0.046523236,-0.140809923,0.321666956,0.013981476,0.072988562,0.418622732,0.248923182,-0.457036406,0.280876935,-0.007557075,-0.501107752,0.346759498,-0.009179895,0.200831085,0.406843543,0.327178478,-0.855907559,0.202091888,0.142319351,-0.876170874,0.379092872,-0.034978367,0.245047584,0.489562899,0.411336392,-0.931053579,0.309272230,0.105615862,-0.955205321,0.397350997,-0.090639621,0.403148949,0.397156745,-0.012140376,0.337618053,0.391012549,-0.103217036,0.314103723,0.401445895,-0.098530933,0.566580653,0.410583049,0.114614137,0.376892328,0.392787844,-0.219552577,0.317328334,0.325265050,0.170927510,0.129635066,0.307259917,-0.226669967,0.056199532,0.408286244,0.181752846,-0.109179899,0.339454114,-0.151129425,-0.179695517,0.453938335,0.134796292,-0.190936029,0.388467222,-0.082468480,-0.240722790
0.349284619,0.016744178,-0.036901988,0.323283464,0.074933507,-0.129665419,0.328034222,-0.046523236,-0.140809923,0.321666956,0.013981476,0.072988562,0.418622732,0.248923182,-0.457036406,0.280876935,-0.007557075,-0.501107752,0.346759498,-0.009179895,0.200831085,0.406843543,0.327178478,-0.855907559,0.202091888,0.142319351,-0.876170874,0.379092872,-0.034978367,0.245047584,0.489562899,0.411336392,-0.931053579,0.309272230,0.105615862,-0.955205321,0.397350997,-0.090639621,0.403148949,0.397156745,-0.012140376,0.337618053,0.391012549,-0.103217036,0.314103723,0.401445895,-0.098530933,0.566580653,0.410583049,0.114614137,0.376892328,0.392787844,-0.219552577,0.317328334,0.325265050,0.170927510,0.129635066,0.307259917,-0.226669967,0.056199532,0.408286244,0.181752846,-0.109179899,0.339454114,-0.151129425,-0.179695517,0.453938335,0.134796292,-0.190936029,0.388467222,-0.082468480,-0.240722790
0.349284619,0.016744178,-0.036901988,0.323283464,0.074933507,-0.129665419,0.328034222,-0.046523236,-0.140809923,0.321666956,0.013981476,0.072988562,0.418622732,0.248923182,-0.457036406,0.280876935,-0.007557075,-0.501107752,0.346759498,-0.009179895,0.200831085,0.406843543,0.327178478,-0.855907559,0.202091888,0.142319351,-0.876170874,0.379092872,-0.034978367,0.245047584,0.489562899,0.411336392,-0.931053579,0.309272230,0.105615862,-0.955205321,0.397350997,-0.090639621,0.403148949,0.397156745,-0.012140376,0.337618053,0.391012549,-0.103217036,0.314103723,0.401445895,-0.098530933,0.566580653,0.410583049,0.114614137,0.376892328,0.392787844,-0.219552577,0.317328334,0.325265050,0.170927510,0.129635066,0.307259917,-0.226669967,0.056199532,0.408286244,0.181752846,-0.109179899,0.339454114,-0.151129425,-0.179695517,0.453938335,0.134796292,-0.190936029,0.388467222,-0.082468480,-0.240722790
0.349284619,0.016744178,-0.036901988,0.323283464,0.074933507,-0.129665419,0.328034222,-0.046523236,-0.140809923,0.321666956,0.013981476,0.072988562,0.418622732,0.248923182,-0.457036406,0.280876935,-0.007557075,-0.501107752,0.346759498,-0.009179895,0.200831085,0.406843543,0.327178478,-0.855907559,0.202091888,0.142319351,-0.876170874,0.379092872,-0.034978367,0.245047584,0.489562899,0.411336392,-0.931053579,0.309272230,0.105615862,-0.955205321,0.397350997,-0.090639621,0.403148949,0.397156745,-0.012140376,0.337618053,0.391012549,-0.103217036,0.314103723,0.401445895,-0.098530933,0.566580653,0.410583049,0.114614137,0.376892328,0.392787844,-0.219552577,0.317328334,0.325265050,0.170927510,0.129635066,0.307259917,-0.226669967,0.056199532,0.408286244,0.181752846,-0.109179899,0.339454114,-0.151129425,-0.179695517,0.453938335,0.134796292,-0.190936029,0.388467222,-0.082468480,-0.240722790
0.349284619,0.016744178,-0.036901988,0.323283464,0.074933507,-0.129665419,0.328034222,-0.046523236,-0.140809923,0.321666956,0.013981476,0.072988562,0.418622732,0.248923182,-0.457036406,0.280876935,-0.007557075,-0.501107752,0.346759498,-0.009179895,0.200831085,0.406843543,0.327178478,-0.855907559,0.202091888,0.142319351,-0.876170874,0.379092872,-0.034978367,0.245047584,0.489562899,0.411336392,-0.931053579,0.309272230,0.105615862,-0.955205321,0.397350997,-0.090639621,0.403148949,0.397156745,-0.012140376,0.337618053,0.391012549,-0.103217036,0.314103723,0.401445895,-0.098530933,0.566580653,0.410583049,0.114614137,0.376892328,0.392787844,-0.219552577,0.317328334,0.325265050,0.170927510,0.129635066,0.307259917,-0.226669967,0.056199532,0.408286244,0.181752846,-0.109179899,0.339454114,-0.151129425,-0.179695517,0.453938335,0.134796292,-0.190936029,0.388467222,-0.082468480,-0.240722790
0.349284619,0.016744178,-0.036901988,0.323283464,0.074933507,-0.129665419,0.328034222,-0.046523236,-0.140809923,0.321666956,0.013981476,0.072988562,0.418622732,0.248923182,-0.457036406,0.280876935,-0.007557075,-0.501107752,0.346759498,-0.009179895,0.200831085,0.406843543,0.327178478,-0.855907559,0.202091888,0.142319351,-0.876170874,0.379092872,-0.034978367,0.245047584,0.489562899,0.411336392,-0.931053579,0.309272230,0.105615862,-0.955205321,0.397350997,-0.090639621,0.403148949,0.397156745,-0.012140376,0.337618053,0.391012549,-0.103217036,0.314103723,0.401445895,-0.098530933,0.566580653,0.410583049,0.114614137,0.376892328,0.392787844,-0.219552577,0.317328334,0.325265050,0.170927510,0.129635066,0.307259917,-0.226669967,0.056199532,0.408286244,0.181752846,-0.109179899,0.339454114,-0.151129425,-0.179695517,0.453938335,0.134796292,-0.190936029,0.388467222,-0.082468480,-0.240722790
0.349284619,0.016744178,-0.036901988,0.323283464,0.074933507,-0.129665419,0.328034222,-0.046523236,-0.140809923,0.321666956,0.013981476,0.072988562,0.418622732,0.248923182,-0.457036406,0.280876935,-0.007557075,-0.501107752,0.346759498,-0.009179895,0.200831085,0.406843543,0.327178478,-0.855907559,0.202091888,0.142319351,-0.876170874,0.379092872,-0.034978367,0.245047584,0.489562899,0.411336392,-0.931053579,0.309272230,0.105615862,-0.955205321,0.397350997,-0.090639621,0.403148949,0.397156745,-0.012140376,0.337618053,0.391012549,-0.103217036,0.314103723,0.401445895,-0.098530933,0.566580653,0.410583049,0.114614137,0.376892328,0.392787844,-0.219552577,0.317328334,0.325265050,0.170927510,0.129635066,0.307259917,-0.226669967,0.056199532,0.408286244,0.181752846,-0.109179899,0.339454114,-0.151129425,-0.179695517,0.453938335,0.134796292,-0.190936029,0.388467222,-0.082468480,-0.240722790
0.349284619,0.016744178,-0.036901988,0.323283464,0.074933507,-0.129665419,0.328034222,-0.046523236,-0.140809923,0.321666956,0.013981476,0.072988562,0.418622732,0.248923182,-0.457036406,0.280876935,-0.007557075,-0.501107752,0.346759498,-0.009179895,0.200831085,0.406843543,0.327178478,-0.855907559,0.202091888,0.142319351,-0.876170874,0.379092872,-0.034978367,0.245047584,0.489562899,0.411336392,-0.931053579,0.309272230,0.105615862,-0.955205321,0.397350997,-0.090639621,0.403148949,0.397156745,-0.012140376,0.337618053,0.391012549,-0.103217036,0.314103723,0.401445895,-0.098530933,0.566580653,0.410583049,0.114614137,0.376892328,0.392787844,-0.219552577,0.317328334,0.325265050,0.170927510,0.129635066,0.307259917,-0.226669967,0.056199532,0.408286244,0.181752846,-0.109179899,0.339454114,-0.151129425,-0.179695517,0.453938335,0.134796292,-0.190936029,0.388467222,-0.082468480,-0.240722790
0.349284619,0.016744178,-0.036901988,0.323283464,0.074933507,-0.129665419,0.328034222,-0.046523236,-0.140809923,0.321666956,0.013981476,0.072988562,0.418622732,0.248923182,-0.457036406,0.280876935,-0.007557075,-0.501107752,0.346759498,-0.009179895,0.200831085,0.406843543,0.327178478,-0.855907559,0.202091888,0.142319351,-0.876170874,0.379092872,-0.034978367,0.245047584,0.489562899,0.411336392,-0.931053579,0.309272230,0.105615862,-0.955205321,0.397350997,-0.090639621,0.403148949,0.397156745,-0.012140376,0.337618053,0.391012549,-0.103217036,0.314103723,0.401445895,-0.098530933,0.566580653,0.410583049,0.114614137,0.376892328,0.392787844,-0.219552577,0.317328334,0.325265050,0.170927510,0.129635066,0.307259917,-0.226669967,0.056199532,0.408286244,0.181752846,-0.109179899,0.339454114,-0.151129425,-0.179695517,0.453938335,0.134796292,-0.190936029,0.388467222,-0.082468480,-0.240722790
0.349284619,0.016744178,-0.036901988,0.323283464,0.074933507,-0.129665419,0.328034222,-0.046523236,-0.140809923,0.321666956,0.013981476,0.072988562,0.418622732,0.248923182,-0.457036406,0.280876935,-0.007557075,-0.501107752,0.346759498,-0.009179895,0.200831085,0.406843543,0.327178478,-0.855907559,0.202091888,0.142319351,-0.876170874,0.379092872,-0.034978367,0.245047584,0.489562899,0.411336392,-0.931053579,0.309272230,0.105615862,-0.955205321,0.397350997,-0.090639621,0.403148949,0.397156745,-0.012140376,0.337618053,0.391012549,-0.103217036,0.314103723,0.401445895,-0.098530933,0.566580653,0.410583049,0.114614137,0.376892328,0.392787844,-0.219552577,0.317328334,0.325265050,0.170927510,0.129635066,0.307259917,-0.226669967,0.056199532,0.408286244,0.181752846,-0.109179899,0.339454114,-0.151129425,-0.179695517,0.453938335,0.134796292,-0.190936029,0.388467222,-0.082468480,-0.240722790
0.349284619,0.016744178,-0.036901988,0.323283464,0.074933507,-0.129665419,0.328034222,-0.046523236,-0.140809923,0.321666956,0.013981476,0.072988562,0.418622732,0.248923182,-0.457036406,0.280876935,-0.007557075,-0.501107752,0.346759498,-0.009179895,0.200831085,0.406843543,0.327178478,-0.855907559,0.202091888,0.142319351,-0.876170874,0.379092872,-0.034978367,0.245047584,0.489562899,0.411336392,-0.931053579,0.309272230,0.105615862,-0.955205321,0.397350997,-0.090639621,0.403148949,0.397156745,-0.012140376,0.337618053,0.391012549,-0.103217036,0.314103723,0.401445895,-0.098530933,0.566580653,0.410583049,0.114614137,0.376892328,0.392787844,-0.219552577,0.317328334,0.325265050,0.170927510,0.129635066,0.307259917,-0.226669967,0.056199532,0.408286244,0.181752846,-0.109179899,0.339454114,-0.151129425,-0.179695517,0.453938335,0.134796292,-0.190936029,0.388467222,-0.082468480,-0.240722790
0.349284619,0.016744178,-0.036901988,0.323283464,0.074933507,-0.129665419,0.328034222,-0.046523236,-0.140809923,0.321666956,0.013981476,0.072988562,0.418622732,0.248923182,-0.457036406,0.280876935,-0.007557075,-0.501107752,0.346759498,-0.009179895,0.200831085,0.406843543,0.327178478,-0.855907559,0.202091888,0.142319351,-0.876170874,0.379092872,-0.034978367,0.245047584,0.489562899,0.411336392,-0.931053579,0.309272230,0.105615862,-0.955205321,0.397350997,-0.090639621,0.403148949,0.397156745,-0.012140376,0.337618053,0.391012549,-0.103217036,0.314103723,0.401445895,-0.098530933,0.566580653,0.410583049,0.114614137,0.376892328,0.392787844,-0.219552577,0.317328334,0.325265050,0.170927510,0.129635066,0.307259917,-0.226669967,0.056199532,0.408286244,0.181752846,-0.109179899,0.339454114,-0.151129425,-0.179695517,0.453938335,0.134796292,-0.190936029,0.388467222,-0.082468480,-0.240722790
0.349284619,0.016744178,-0.036901988,0.323283464,0.074933507,-0.129665419,0.328034222,-0.046523236,-0.140809923,0.321666956,0.013981476,0.072988562,0.418622732,0.248923182,-0.457036406,0.280876935,-0.007557075,-0.501107752,0.346759498,-0.009179895,0.200831085,0.406843543,0.327178478,-0.855907559,0.202091888,0.142319351,-0.876170874,0.379092872,-0.034978367,0.245047584,0.489562899,0.411336392,-0.931053579,0.309272230,0.105615862,-0.955205321,0.397350997,-0.090639621,0.403148949,0.397156745,-0.012140376,0.337618053,0.391012549,-0.103217036,0.314103723,0.401445895,-0.098530933,0.566580653,0.410583049,0.114614137,0.376892328,0.392787844,-0.219552577,0.317328334,0.325265050,0.170927510,0.129635066,0.307259917,-0.226669967,0.056199532,0.408286244,0.181752846,-0.109179899,0.339454114,-0.151129425,-0.179695517,0.453938335,0.134796292,-0.190936029,0.388467222,-0.082468480,-0.240722790
0.349284619,0.016744178,-0.036901988,0.323283464,0.074933507,-0.129665419,0.328034222,-0.046523236,-0.140809923,0.321666956,0.013981476,0.072988562,0.418622732,0.248923182,-0.457036406,0.280876935,-0.007557075,-0.501107752,0.346759498,-0.009179895,0.200831085,0.406843543,0.327178478,-0.855907559,0.202091888,0.142319351,-0.876170874,0.379092872,-0.034978367,0.245047584,0.489562899,0.411336392,-0.931053579,0.309272230,0.105615862,-0.955205321,0.397350997,-0.090639621,0.403148949,0.397156745,-0.012140376,0.337618053,0.391012549,-0.103217036,0.314103723,0.401445895,-0.098530933,0.566580653,0.410583049,0.114614137,0.376892328,0.392787844,-0.219552577,0.317328334,0.325265050,0.170927510,0.129635066,0.307259917,-0.226669967,0.056199532,0.408286244,0.181752846,-0.109179899,0.339454114,-0.151129425,-0.179695517,0.453938335,0.134796292,-0.190936029,0.388467222,-0.082468480,-0.240722790
0.349320441,0.016553678,-0.036647797,0.323322088,0.074733481,-0.129400104,0.328065068,-0.046714276,-0.140546918,0.321708053,0.013794156,0.073229313,0.418290764,0.248232037,-0.456970602,0.281274259,-0.008159321,-0.500927329,0.346683502,-0.009227298,0.201117307,0.406408876,0.325998932,-0.855874777,0.202811569,0.141074032,-0.876267731,0.378947288,-0.034958523,0.245413885,0.489237309,0.410040289,-0.931030035,0.309975624,0.104253553,-0.955259800,0.397001892,-0.090413131,0.403602391,0.396894872,-0.012002500,0.337970644,0.390775353,-0.103104606,0.314571321,0.400696754,-0.098230831,0.566999793,0.410268724,0.114628807,0.377420157,0.392514408,-0.219383642,0.318111837,0.325157344,0.171727821,0.131668970,0.307492107,-0.227986038,0.058247607,0.408111274,0.183450535,-0.105429992,0.339883029,-0.154251218,-0.176522002,0.453819394,0.137091100,-0.186842918,0.389003366,-0.086375460,-0.237493277
0.349355966,0.016363269,-0.036393423,0.323360443,0.074533693,-0.129134700,0.328095526,-0.046905197,-0.140283778,0.321748823,0.013606907,0.073470354,0.417958409,0.247541294,-0.456904948,0.281671137,-0.008761719,-0.500746012,0.346607208,-0.009274511,0.201403588,0.405973375,0.324819982,-0.855842113,0.203530595,0.139828131,-0.876362681,0.378801376,-0.034938380,0.245780081,0.488911062,0.408744752,-0.931006312,0.310678303,0.102890618,-0.955312073,0.396652430,-0.090186089,0.404055238,0.396632791,-0.011864271,0.338322818,0.390537798,-0.102991700,0.315038562,0.399947256,-0.097929925,0.567417920,0.409953743,0.114644215,0.377947569,0.392240047,-0.219213888,0.318894953,0.325047255,0.172530994,0.133701518,0.307720244,-0.229299664,0.060298018,0.407932341,0.185153782,-0.101683155,0.340304375,-0.157369003,-0.173343465,0.453696728,0.139391884,-0.182753742,0.389531255,-0.090278365,-0.234257460
0.349391252,0.016173067,-0.036138855,0.323398352,0.074334197,-0.128869206,0.328125805,-0.047095880,-0.140020579,0.321789265,0.013419847,0.073711753,0.417625755,0.246851072,-0.456839442,0.282067567,-0.009364221,-0.500563860,0.346530646,-0.009321463,0.201689959,0.405537307,0.323641837,-0.855809510,0.204249039,0.138581693,-0.876455724,0.378655136,-0.034917839,0.246146217,0.488583893,0.407449871,-0.930982590,0.311380386,0.101527236,-0.955362797,0.396302730,-0.089958496,0.404507697,0.396370411,-0.011725569,0.338674605,0.390299827,-0.102878287,0.315505624,0.399197638,-0.097628117,0.567835093,0.409637958,0.114660487,0.378474832,0.391965091,-0.219043151,0.319677740,0.324935079,0.173337266,0.135732710,0.307944387,-0.230610847,0.062350791,0.407749563,0.186862752,-0.097939402,0.340718508,-0.160482764,-0.170159936,0.453570306,0.141698748,-0.178668529,0.390051037,-0.094177261,-0.231015503
0.349426270,0.015983120,-0.035884112,0.323436022,0.074135005,-0.128603667,0.328155905,-0.047286347,-0.139757276,0.321829379,0.013232903,0.073953472,0.417292625,0.246161431,-0.456774294,0.282463700,-0.009966787,-0.500380933,0.346453786,-0.009368169,0.201976448,0.405100584,0.322464526,-0.855777204,0.204966933,0.137334779,-0.876547039,0.378508627,-0.034896921,0.246512324,0.488256276,0.406155735,-0.930958867,0.312081903,0.100163341,-0.955411553,0.395952761,-0.089730263,0.404959619,0.396107942,-0.011586387,0.339026123,0.390061557,-0.102764264,0.315972447,0.398447841,-0.097325481,0.568251252,0.409321636,0.114677608,0.379001856,0.391689479,-0.218871489,0.320460200,0.324820638,0.174146548,0.137762517,0.308164597,-0.231919587,0.064405873,0.407562941,0.188577384,-0.094198778,0.341125339,-0.163592413,-0.166971475,0.453440249,0.144011676,-0.174587339,0.390562773,-0.098071985,-0.227767378
0.349461049,0.015793175,-0.035629194,0.323473424,0.073935963,-0.128338039,0.328185767,-0.047476768,-0.139493912,0.321869224,0.013045998,0.074195504,0.416959345,0.245472223,-0.456709474,0.282859355,-0.010569569,-0.500197232,0.346376806,-0.009414750,0.202263013,0.404663295,0.321287870,-0.855745196,0.205684274,0.136087194,-0.876636624,0.378361911,-0.034875758,0.246878386,0.487928003,0.404862255,-0.930935264,0.312782884,0.098798759,-0.955458581,0.395602673,-0.089501604,0.405411124,0.395845264,-0.011446923,0.339377344,0.389822990,-0.102649942,0.316439062,0.397697836,-0.097022116,0.568666339,0.409004688,0.114695445,0.379528701,0.391413093,-0.218699098,0.321242452,0.324703991,0.174958751,0.139790982,0.308380753,-0.233226001,0.066463351,0.407372683,0.190297455,-0.090461276,0.341524780,-0.166698173,-0.163778037,0.453306526,0.146330506,-0.170510143,0.391066283,-0.101962835,-0.224513113
0.349495411,0.015603511,-0.035374075,0.323510468,0.073737279,-0.128072307,0.328215331,-0.047666918,-0.139230430,0.321908653,0.012859288,0.074437849,0.416625500,0.244783565,-0.456644714,0.283254564,-0.011172362,-0.500012517,0.346299380,-0.009461020,0.202549636,0.404225290,0.320111960,-0.855713010,0.206400901,0.134839177,-0.876724362,0.378214747,-0.034854159,0.247244298,0.487598866,0.403569341,-0.930911303,0.313483030,0.097433768,-0.955503464,0.395252109,-0.089272246,0.405862033,0.395582289,-0.011306979,0.339728117,0.389583975,-0.102534942,0.316905320,0.396947622,-0.096717834,0.569080353,0.408686996,0.114714146,0.380055189,0.391135931,-0.218525559,0.322024167,0.324585050,0.175773993,0.141818002,0.308592856,-0.234529823,0.068523094,0.407178342,0.192023277,-0.086726874,0.341916859,-0.169799760,-0.160579622,0.453168988,0.148655474,-0.166436911,0.391561657,-0.105849430,-0.221252650
0.349529564,0.015413923,-0.035118781,0.323547095,0.073538803,-0.127806500,0.328244656,-0.047856957,-0.138966829,0.321947813,0.012672633,0.074680507,0.416291416,0.244095206,-0.456580222,0.283649325,-0.011775352,-0.499826938,0.346221715,-0.009507102,0.202836335,0.403786510,0.318936676,-0.855681181,0.207116991,0.133590519,-0.876810074,0.378067225,-0.034832258,0.247610092,0.487268984,0.402277112,-0.930887341,0.314182580,0.096068196,-0.955546618,0.394901365,-0.089042388,0.406312466,0.395319074,-0.011166619,0.340078652,0.389344543,-0.102419525,0.317371428,0.396197140,-0.096412733,0.569493294,0.408368647,0.114733584,0.380581379,0.390858024,-0.218351200,0.322805583,0.324463934,0.176592112,0.143843681,0.308800906,-0.235831216,0.070585169,0.406980276,0.193754584,-0.082995623,0.342301548,-0.172897384,-0.157376289,0.453027844,0.150986314,-0.162367702,0.392048806,-0.109732017,-0.217986017
0.349563450,0.015224560,-0.034863308,0.323583573,0.073340617,-0.127540633,0.328273803,-0.048046760,-0.138703167,0.321986645,0.012486153,0.074923486,0.415956974,0.243407518,-0.456515968,0.284043759,-0.012378436,-0.499640584,0.346143812,-0.009552967,0.203123122,0.403347254,0.317762256,-0.855649352,0.207832471,0.132341370,-0.876894116,0.377919465,-0.034809962,0.247975901,0.486938506,0.400985479,-0.930863500,0.314881623,0.094702095,-0.955587924,0.394550383,-0.088811949,0.406762421,0.395055681,-0.011025801,0.340428829,0.389104903,-0.102303572,0.317837298,0.395446509,-0.096106812,0.569905400,0.408049643,0.114753842,0.381107450,0.390579432,-0.218175903,0.323586702,0.324340641,0.177413389,0.145867944,0.309004992,-0.237130210,0.072649561,0.406778365,0.195491597,-0.079267509,0.342678845,-0.175990835,-0.154167980,0.452883035,0.153323308,-0.158302546,0.392527878,-0.113610454,-0.214713305
0.349597067,0.015035258,-0.034607660,0.323619604,0.073142655,-0.127274692,0.328302711,-0.048236474,-0.138439432,0.322025150,0.012299728,0.075166814,0.415622115,0.242720276,-0.456452012,0.284437746,-0.012981664,-0.499453425,0.346065581,-0.009598646,0.203409970,0.402907193,0.316588402,-0.855617762,0.208547369,0.131091654,-0.876976430,0.377771407,-0.034787364,0.248341620,0.486607373,0.399694562,-0.930839479,0.315579921,0.093335398,-0.955627322,0.394199044,-0.088580973,0.407211930,0.394792110,-0.010884684,0.340778589,0.388864815,-0.102187172,0.318302840,0.394695729,-0.095800117,0.570316195,0.407729954,0.114774883,0.381633162,0.390300155,-0.217999771,0.324367434,0.324215114,0.178237543,0.147890776,0.309205055,-0.238426715,0.074716285,0.406572729,0.197234154,-0.075542562,0.343048900,-0.179080278,-0.150954828,0.452734560,0.155666187,-0.154241443,0.392998785,-0.117484853,-0.211434454
